; generated by PrusaSlicer 2.2.0+win64 on 2021-02-06 at 23:18:19 UTC

; 

; external perimeters extrusion width = 0.45mm
; perimeters extrusion width = 0.45mm
; infill extrusion width = 0.45mm
; solid infill extrusion width = 0.45mm
; top infill extrusion width = 0.40mm
; support material extrusion width = 0.35mm
; first layer extrusion width = 0.42mm

M107
M190 S80 ; set bed temperature and wait for it to be reached
M104 S230 ; set temperature
G28 ; home all axes
G1 Z5 F5000 ; lift nozzle
M109 S230 ; set temperature and wait for it to be reached
G21 ; set units to millimeters
G90 ; use absolute coordinates
M82 ; use absolute distances for extrusion
G92 E0
; Filament gcode
G1 Z0.350 F4800.000
G1 E-4.00000 F2400.00000
G92 E0
G1 Z0.450 F4800.000
G1 X103.518 Y135.060
G1 Z0.350
G1 E4.00000 F2400.00000
G1 F1500.000
G1 X103.767 Y134.064 E4.05152
G1 X104.242 Y133.154 E4.10303
G1 X104.686 Y132.603 E4.13854
G1 X106.276 Y131.012 E4.25144
G1 X106.961 Y130.464 E4.29547
G1 X107.747 Y130.062 E4.33977
G1 X135.823 Y119.472 E5.84570
G1 X137.066 Y119.223 E5.90931
G1 X177.041 Y117.287 E7.91785
G1 X197.700 Y117.284 E8.95465
G1 X198.725 Y117.407 E9.00642
G1 X199.692 Y117.766 E9.05820
G1 X224.389 Y130.941 E10.46297
G1 X225.386 Y131.706 E10.52607
G1 X227.092 Y133.718 E10.65842
G1 X227.662 Y134.827 E10.72100
G1 X227.896 Y136.057 E10.78384
G1 X227.858 Y150.551 E11.51121
G1 X227.588 Y151.631 E11.56711
G1 X227.054 Y152.608 E11.62300
G1 X225.120 Y154.619 E11.76301
G1 X224.567 Y155.085 E11.79930
G1 X223.488 Y155.645 E11.86033
G1 X198.906 Y164.234 E13.16713
G1 X198.036 Y164.438 E13.21194
G1 X157.715 Y166.405 E15.23790
G1 X136.927 Y166.404 E16.28119
G1 X136.193 Y166.317 E16.31825
G1 X135.490 Y166.109 E16.35505
G1 X107.267 Y154.861 E17.87979
G1 X106.501 Y154.403 E17.92460
G1 X105.847 Y153.803 E17.96915
G1 X104.302 Y151.972 E18.08935
G1 X103.725 Y150.878 E18.15142
G1 X103.539 Y150.180 E18.18770
G1 X103.470 Y149.460 E18.22399
G1 X103.518 Y135.120 E18.94366
G1 X103.859 Y135.121 F4800.000
G1 F1500.000
G1 X104.094 Y134.175 E18.99256
G1 X104.542 Y133.326 E19.04076
G1 X104.946 Y132.830 E19.07286
G1 X106.529 Y131.247 E19.18522
G1 X107.158 Y130.748 E19.22549
G1 X107.877 Y130.381 E19.26602
G1 X135.951 Y119.793 E20.77183
G1 X137.087 Y119.568 E20.82991
G1 X177.056 Y117.632 E22.83814
G1 X197.700 Y117.629 E23.87421
G1 X198.644 Y117.742 E23.92191
G1 X199.540 Y118.075 E23.96987
G1 X224.219 Y131.242 E25.37365
G1 X225.144 Y131.952 E25.43222
G1 X226.799 Y133.902 E25.56054
G1 X227.334 Y134.934 E25.61886
G1 X227.552 Y136.080 E25.67743
G1 X227.516 Y150.501 E26.40116
G1 X227.267 Y151.505 E26.45307
G1 X226.767 Y152.416 E26.50522
G1 X224.880 Y154.372 E26.64162
G1 X224.385 Y154.792 E26.67421
G1 X223.372 Y155.320 E26.73155
G1 X198.792 Y163.908 E28.03822
G1 X197.992 Y164.096 E28.07948
G1 X157.706 Y166.060 E30.10365
G1 X136.943 Y166.060 E31.14569
G1 X136.263 Y165.979 E31.18002
G1 X135.612 Y165.787 E31.21410
G1 X107.418 Y154.551 E32.73728
G1 X106.711 Y154.130 E32.77855
G1 X106.102 Y153.571 E32.82007
G1 X104.588 Y151.779 E32.93777
G1 X104.045 Y150.746 E32.99634
G1 X103.876 Y150.104 E33.02967
G1 X103.814 Y149.448 E33.06276
G1 X103.859 Y135.181 E33.77874
G1 X104.841 Y133.500 F4800.000
G1 F1500.000
G1 X106.781 Y131.482 E33.91921
G1 X107.354 Y131.031 E33.95583
G1 X108.005 Y130.701 E33.99245
G1 X136.079 Y120.114 E35.49820
G1 X137.104 Y119.912 E35.55066
G1 X177.070 Y117.976 E37.55872
G1 X197.700 Y117.974 E38.59406
G1 X198.565 Y118.078 E38.63778
G1 X199.386 Y118.384 E38.68173
G1 X224.053 Y131.544 E40.08487
G1 X224.904 Y132.200 E40.13874
G1 X226.508 Y134.087 E40.26306
G1 X227.006 Y135.043 E40.31717
G1 X227.208 Y136.102 E40.37127
G1 X227.175 Y150.453 E41.09147
G1 X226.943 Y151.385 E41.13968
G1 X226.482 Y152.222 E41.18766
G1 X224.196 Y154.503 E41.34970
G1 X223.258 Y154.995 E41.40286
G1 X198.684 Y163.581 E42.70925
G1 X197.946 Y163.754 E42.74729
G1 X157.692 Y165.715 E44.76984
G1 X136.958 Y165.715 E45.81041
G1 X136.337 Y165.642 E45.84181
G1 X135.737 Y165.465 E45.87321
G1 X107.572 Y154.242 E47.39477
G1 X106.916 Y153.852 E47.43304
G1 X106.358 Y153.340 E47.47108
G1 X104.874 Y151.585 E47.58645
G1 X104.367 Y150.622 E47.64102
G1 X104.159 Y149.440 E47.70125
G1 X104.201 Y135.157 E48.41808
G1 X104.420 Y134.289 E48.46299
G1 X104.813 Y133.553 E48.50488
G1 X105.117 Y133.717 F4800.000
G1 F1500.000
G1 X107.029 Y131.722 E48.64358
G1 X107.544 Y131.319 E48.67641
G1 X108.132 Y131.022 E48.70946
G1 X136.201 Y120.436 E50.21496
G1 X137.124 Y120.256 E50.26219
G1 X177.080 Y118.321 E52.26973
G1 X197.700 Y118.319 E53.30457
G1 X198.487 Y118.414 E53.34438
G1 X199.230 Y118.692 E53.38420
G1 X223.884 Y131.845 E54.78652
G1 X224.664 Y132.448 E54.83600
G1 X226.218 Y134.275 E54.95637
G1 X226.679 Y135.151 E55.00607
G1 X226.863 Y136.124 E55.05578
G1 X226.833 Y150.406 E55.77252
G1 X226.622 Y151.259 E55.81661
G1 X226.194 Y152.031 E55.86093
G1 X224.009 Y154.212 E56.01589
G1 X223.140 Y154.670 E56.06515
G1 X198.570 Y163.255 E57.37131
G1 X197.903 Y163.412 E57.40572
G1 X157.683 Y165.370 E59.42658
G1 X136.973 Y165.371 E60.46595
G1 X135.858 Y165.142 E60.52304
G1 X107.721 Y153.931 E62.04312
G1 X107.123 Y153.577 E62.07798
G1 X106.612 Y153.106 E62.11284
G1 X105.158 Y151.389 E62.22578
G1 X104.688 Y150.497 E62.27638
G1 X104.504 Y149.433 E62.33057
G1 X104.542 Y135.206 E63.04457
G1 X104.746 Y134.402 E63.08618
G1 X105.088 Y133.770 E63.12224
G1 E59.12224 F2400.00000
G92 E0
G1 Z0.450 F4800.000
G1 X114.730 Y127.243
G1 Z0.350
G1 E4.00000 F2400.00000
G1 F1500.000
G1 X108.917 Y127.243 E4.29172
G1 X106.774 Y127.737 E4.40210
G1 X104.753 Y128.968 E4.52085
G1 X102.126 Y131.725 E4.71198
G1 X101.394 Y133.089 E4.78969
G1 X100.993 Y134.597 E4.86800
G1 X100.932 Y135.940 E4.93543
G1 X100.960 Y136.295 E4.95332
G1 X100.951 Y148.813 E5.58157
G1 X101.002 Y150.221 E5.65226
G1 X101.369 Y151.775 E5.73237
G1 X102.302 Y153.507 E5.83114
G1 X103.586 Y154.882 E5.92555
G1 X104.090 Y155.558 E5.96784
G1 X105.575 Y156.823 E6.06576
G1 X106.712 Y157.375 E6.12915
G1 X107.939 Y157.717 E6.19308
G1 X114.015 Y157.736 E6.49804
G1 E2.49804 F2400.00000
G92 E0
G1 Z0.450 F4800.000
G1 X117.767 Y157.748
G1 Z0.350
G1 E4.00000 F2400.00000
G1 F1500.000
G1 X129.237 Y157.786 E4.57565
G1 X129.278 Y161.610 E4.76761
G1 X129.517 Y162.430 E4.81047
G1 X130.181 Y164.179 F4800.000
G1 F1500.000
G1 X130.794 Y165.229 E4.87145
G1 X131.526 Y166.000 E4.92482
G1 X131.912 Y166.547 E4.95843
G1 X132.792 Y167.407 E5.02016
G1 X134.471 Y168.432 E5.11891
G1 X136.440 Y168.925 E5.22079
G1 X158.092 Y168.925 E6.30739
G1 X160.443 Y168.301 E6.42947
G1 X162.100 Y167.236 E6.52832
G1 X163.024 Y166.318 E6.59369
G1 X164.292 Y164.876 F4800.000
G1 F1500.000
G1 X165.004 Y163.784 E6.65909
G1 X165.559 Y162.048 E6.75056
G1 X165.624 Y156.423 E7.03287
G1 X169.153 Y156.423 E7.20999
G1 X169.204 Y159.823 E7.38065
G1 X169.847 Y161.891 E7.48931
G1 X170.668 Y163.262 E7.56954
G1 X171.420 Y164.058 E7.62449
G1 X171.743 Y164.513 E7.65249
G1 X173.237 Y165.820 F4800.000
G1 F1500.000
G1 X174.272 Y166.455 E7.71345
G1 X176.334 Y166.993 E7.82040
G1 X198.695 Y166.888 E8.94260
G1 X200.367 Y166.357 E9.03064
G1 X201.845 Y165.443 E9.11786
G1 X203.896 Y163.410 E9.26275
G1 X204.514 Y162.457 E9.31979
G1 X205.242 Y160.741 F4800.000
G1 F1500.000
G1 X205.482 Y159.962 E9.36072
G1 X205.520 Y158.413 E9.43848
G1 X211.906 Y158.413 E9.75894
G1 E5.75894 F2400.00000
G92 E0
G1 Z0.450 F4800.000
G1 X216.088 Y158.413
G1 Z0.350
G1 E4.00000 F2400.00000
G1 F1500.000
G1 X222.422 Y158.413 E4.31787
G1 X224.208 Y158.063 E4.40917
G1 X225.832 Y157.280 E4.49966
G1 X229.250 Y153.926 E4.74004
G1 X229.999 Y152.509 E4.82046
G1 X230.396 Y150.918 E4.90273
G1 X230.437 Y149.670 E4.96539
G1 X230.409 Y149.353 E4.98137
G1 X230.419 Y135.818 E5.66065
G1 X230.064 Y134.072 E5.75006
G1 X229.280 Y132.445 E5.84070
G1 X228.278 Y131.259 E5.91863
G1 X227.779 Y130.759 E5.95407
G1 X227.387 Y130.214 E5.98772
G1 X226.357 Y129.241 E6.05887
G1 X224.937 Y128.391 E6.14192
G1 X223.337 Y127.927 E6.22550
G1 X219.079 Y127.914 E6.43919
G1 E2.43919 F2400.00000
G92 E0
G1 Z0.450 F4800.000
G1 X216.131 Y127.904
G1 Z0.350
G1 E4.00000 F2400.00000
G1 F1500.000
G1 X205.533 Y127.870 E4.53187
G1 X205.495 Y122.230 E4.81492
G1 X204.986 Y120.395 F4800.000
G1 F1500.000
G1 X204.836 Y119.892 E4.84127
G1 X203.973 Y118.455 E4.92535
G1 X203.239 Y117.689 E4.97862
G1 X202.771 Y117.047 E5.01850
G1 X201.682 Y116.042 E5.09284
G1 X200.070 Y115.166 E5.18492
G1 X198.283 Y114.769 E5.27680
G1 X176.715 Y114.766 E6.35920
G1 X174.674 Y115.241 E6.46438
G1 X172.714 Y116.414 E6.57898
G1 X171.744 Y117.371 E6.64738
G1 X170.483 Y118.813 F4800.000
G1 F1500.000
G1 X169.755 Y119.943 E6.71482
G1 X169.183 Y121.823 E6.81347
G1 X169.147 Y125.875 E7.01684
G1 X165.617 Y125.875 E7.19402
G1 X165.580 Y123.938 E7.29127
G1 X164.910 Y121.768 E7.40524
G1 X163.957 Y120.245 E7.49540
G1 X163.328 Y119.597 E7.54076
G1 X163.028 Y119.174 E7.56675
G1 E3.56675 F2400.00000
G92 E0
G1 Z0.450 F4800.000
G1 X161.439 Y117.870
G1 Z0.350
G1 E4.00000 F2400.00000
G1 F1500.000
G1 X159.337 Y116.830 E4.11770
G1 X158.235 Y116.699 E4.17341
G1 X136.948 Y116.699 E5.24169
G1 X134.921 Y117.123 E5.34562
G1 X132.864 Y118.291 E5.46436
G1 X130.862 Y120.288 E5.60629
G1 X130.151 Y121.427 E5.67366
G1 X129.469 Y123.159 F4800.000
G1 F1500.000
G1 X129.269 Y123.857 E5.71010
G1 X129.237 Y127.243 E5.88005
G1 X118.640 Y127.243 E6.41190
G1 X117.725 Y127.588 F4800.000
G1 F1500.000
G1 X129.580 Y127.588 E7.00683
G1 X129.607 Y123.930 E7.19045
G1 X129.872 Y123.008 E7.23860
G1 X130.678 Y121.229 F4800.000
G1 F1500.000
G1 X131.143 Y120.489 E7.28247
G1 X133.055 Y118.580 E7.41804
G1 X135.068 Y117.436 E7.53424
G1 X136.966 Y117.044 E7.63150
G1 X158.224 Y117.044 E8.69838
G1 X159.267 Y117.169 E8.75107
G1 X160.750 Y117.903 E8.83415
G1 E4.83415 F2400.00000
G92 E0
G1 Z0.450 F4800.000
G1 X162.590 Y119.195
G1 Z0.350
G1 E4.00000 F2400.00000
G1 F1500.000
G1 X162.705 Y119.311 E4.00822
G1 X163.061 Y119.818 E4.03930
G1 X163.675 Y120.445 E4.08335
G1 X164.588 Y121.892 E4.16917
G1 X165.243 Y124.016 E4.28073
G1 X165.277 Y126.220 E4.39138
G1 X169.489 Y126.220 E4.60280
G1 X169.528 Y121.851 E4.82208
G1 X170.059 Y120.109 E4.91348
G1 X170.902 Y118.793 E4.99194
G1 X172.260 Y117.346 F4800.000
G1 F1500.000
G1 X172.942 Y116.674 E5.03999
G1 X174.779 Y115.571 E5.14753
G1 X176.735 Y115.111 E5.24836
G1 X198.264 Y115.114 E6.32879
G1 X199.971 Y115.497 E6.41660
G1 X201.464 Y116.310 E6.50191
G1 X202.524 Y117.288 E6.57430
G1 X202.974 Y117.910 E6.61280
G1 X203.711 Y118.680 E6.66629
G1 X204.529 Y120.050 E6.74638
G1 X204.564 Y120.170 E6.75266
G1 X205.122 Y122.031 F4800.000
G1 F1500.000
G1 X205.150 Y122.122 E6.75747
G1 X205.190 Y128.214 E7.06316
G1 X216.774 Y128.247 E7.64448
G1 E3.64448 F2400.00000
G92 E0
G1 Z0.450 F4800.000
G1 X219.720 Y128.255
G1 Z0.350
G1 E4.00000 F2400.00000
G1 F1500.000
G1 X223.265 Y128.265 E4.17794
G1 X224.780 Y128.699 E4.25701
G1 X226.134 Y129.505 E4.33607
G1 X227.138 Y130.453 E4.40539
G1 X227.514 Y130.982 E4.43796
G1 X228.020 Y131.488 E4.47384
G1 X228.979 Y132.616 E4.54816
G1 X229.731 Y134.163 E4.63447
G1 X230.074 Y135.835 E4.72016
G1 X230.065 Y149.369 E5.39935
G1 X230.092 Y149.671 E5.41458
G1 X230.057 Y150.854 E5.47397
G1 X229.684 Y152.366 E5.55215
G1 X228.958 Y153.741 E5.63016
G1 X225.657 Y156.982 E5.86233
G1 X224.078 Y157.743 E5.95029
G1 X222.406 Y158.068 E6.03578
G1 X217.076 Y158.068 E6.30328
G1 E2.30328 F2400.00000
G92 E0
G1 Z0.450 F4800.000
G1 X212.893 Y158.068
G1 Z0.350
G1 E4.00000 F2400.00000
G1 F1500.000
G1 X205.182 Y158.068 E4.38700
G1 X205.145 Y159.884 E4.47814
G1 X204.837 Y160.883 E4.53060
G1 X203.990 Y162.640 F4800.000
G1 F1500.000
G1 X203.640 Y163.179 E4.56286
G1 X201.646 Y165.160 E4.70389
G1 X200.204 Y166.053 E4.78902
G1 X198.617 Y166.551 E4.87252
G1 X176.356 Y166.648 E5.98972
G1 X174.386 Y166.128 E6.09198
G1 X173.840 Y165.791 E6.12418
G1 E2.12418 F2400.00000
G92 E0
G1 Z0.450 F4800.000
G1 X172.182 Y164.492
G1 Z0.350
G1 E4.00000 F2400.00000
G1 F1500.000
G1 X172.071 Y164.385 E4.00774
G1 X171.688 Y163.839 E4.04120
G1 X170.953 Y163.068 E4.09464
G1 X170.170 Y161.768 E4.17080
G1 X169.541 Y159.745 E4.27713
G1 X169.494 Y156.078 E4.46116
G1 X165.283 Y156.078 E4.67250
G1 X165.214 Y162.017 E4.97059
G1 X164.683 Y163.655 E5.05701
G1 X163.872 Y164.896 E5.13140
G1 X162.509 Y166.343 F4800.000
G1 F1500.000
G1 X161.869 Y166.979 E5.17665
G1 X160.327 Y167.975 E5.26879
G1 X158.069 Y168.580 E5.38612
G1 X136.462 Y168.580 E6.47050
G1 X134.582 Y168.105 E6.56783
G1 X132.990 Y167.124 E6.66168
G1 X132.166 Y166.312 E6.71970
G1 X131.793 Y165.780 E6.75230
G1 X131.080 Y165.036 E6.80402
G1 X130.698 Y164.385 E6.84191
G1 X129.924 Y162.592 F4800.000
G1 F1500.000
G1 X129.616 Y161.537 E6.89709
G1 X129.580 Y157.442 E7.10261
G1 X116.903 Y157.404 E7.73878
G1 E3.73878 F2400.00000
G92 E0
G1 Z0.450 F4800.000
G1 X113.154 Y157.393
G1 Z0.350
G1 E4.00000 F2400.00000
G1 F1500.000
G1 X108.008 Y157.378 E4.25826
G1 X106.848 Y157.057 E4.31868
G1 X105.746 Y156.522 E4.38014
G1 X104.330 Y155.309 E4.47375
G1 X103.852 Y154.661 E4.51416
G1 X102.595 Y153.323 E4.60626
G1 X101.683 Y151.632 E4.70271
G1 X101.342 Y150.160 E4.77853
G1 X101.296 Y148.805 E4.84658
G1 X101.305 Y136.280 E5.47512
G1 X101.277 Y135.943 E5.49213
G1 X101.331 Y134.667 E5.55624
G1 X101.708 Y133.233 E5.63062
G1 X102.392 Y131.946 E5.70379
G1 X104.988 Y129.222 E5.89260
G1 X106.879 Y128.066 E6.00385
G1 X108.937 Y127.588 E6.10988
G1 X113.816 Y127.588 E6.35471
G1 X112.901 Y127.933 F4800.000
G1 F1500.000
G1 X108.957 Y127.933 E6.55265
G1 X106.985 Y128.396 E6.65430
G1 X105.222 Y129.476 E6.75809
G1 X102.659 Y132.166 E6.94456
G1 X102.023 Y133.375 E7.01313
G1 X101.670 Y134.735 E7.08362
G1 X101.622 Y135.945 E7.14439
G1 X101.650 Y136.265 E7.16053
G1 X101.640 Y148.797 E7.78944
G1 X101.682 Y150.100 E7.85488
G1 X101.999 Y151.490 E7.92642
G1 X102.862 Y153.104 E8.01829
G1 X104.118 Y154.441 E8.11034
G1 X104.571 Y155.061 E8.14887
G1 X105.918 Y156.223 E8.23814
G1 X106.955 Y156.729 E8.29609
G1 X108.078 Y157.040 E8.35453
G1 X112.295 Y157.051 E8.56617
G1 E4.56617 F2400.00000
G92 E0
G1 Z0.450 F4800.000
G1 X116.041 Y157.061
G1 Z0.350
G1 E4.00000 F2400.00000
G1 F1500.000
G1 X129.922 Y157.098 E4.69664
G1 X129.954 Y161.463 E4.91574
G1 X130.331 Y162.754 E4.98324
G1 E0.98324 F2400.00000
G92 E0
G1 Z0.450 F4800.000
G1 X131.219 Y164.593
G1 Z0.350
G1 E4.00000 F2400.00000
G1 F1500.000
G1 X131.367 Y164.843 E4.01457
G1 X132.061 Y165.561 E4.06469
G1 X132.421 Y166.079 E4.09637
G1 X133.189 Y166.841 E4.15069
G1 X134.693 Y167.777 E4.23960
G1 X136.484 Y168.235 E4.33236
G1 X158.046 Y168.235 E5.41447
G1 X160.211 Y167.649 E5.52702
G1 X161.639 Y166.722 E5.61249
G1 X161.995 Y166.368 E5.63765
G1 E1.63765 F2400.00000
G92 E0
G1 Z0.450 F4800.000
G1 X163.452 Y164.917
G1 Z0.350
G1 E4.00000 F2400.00000
G1 F1500.000
G1 X164.363 Y163.526 E4.08346
G1 X164.870 Y161.987 E4.16478
G1 X164.942 Y155.733 E4.47863
G1 X169.836 Y155.733 E4.72422
G1 X169.878 Y159.666 E4.92162
G1 X170.493 Y161.645 E5.02562
G1 X171.238 Y162.872 E5.09765
G1 X171.956 Y163.619 E5.14966
G1 X172.324 Y164.149 E5.18204
G1 X172.652 Y164.469 E5.20502
G1 E1.20502 F2400.00000
G92 E0
G1 Z0.450 F4800.000
G1 X174.435 Y165.762
G1 Z0.350
G1 E4.00000 F2400.00000
G1 F1500.000
G1 X174.500 Y165.802 E4.00382
G1 X176.378 Y166.303 E4.10135
G1 X198.538 Y166.215 E5.21351
G1 X200.080 Y165.730 E5.29460
G1 X201.447 Y164.878 E5.37548
G1 X203.361 Y162.974 E5.51094
G1 X203.459 Y162.826 E5.51987
G1 E1.51987 F2400.00000
G92 E0
G1 Z0.450 F4800.000
G1 X204.433 Y161.024
G1 Z0.350
G1 E4.00000 F2400.00000
G1 F1500.000
G1 X204.808 Y159.806 E4.06397
G1 X204.841 Y157.723 E4.16850
G1 X213.880 Y157.723 E4.62212
G1 E0.62212 F2400.00000
G92 E0
G1 Z0.450 F4800.000
G1 X218.063 Y157.723
G1 Z0.350
G1 E4.00000 F2400.00000
G1 F1500.000
G1 X222.389 Y157.723 E4.21711
G1 X223.989 Y157.409 E4.29896
G1 X225.481 Y156.684 E4.38218
G1 X228.665 Y153.556 E4.60620
G1 X229.369 Y152.224 E4.68179
G1 X229.717 Y150.791 E4.75584
G1 X229.747 Y149.673 E4.81196
G1 X229.720 Y149.385 E4.82647
G1 X229.729 Y135.853 E5.50559
G1 X229.397 Y134.254 E5.58752
G1 X228.679 Y132.787 E5.66949
G1 X227.763 Y131.717 E5.74021
G1 X227.249 Y131.205 E5.77662
G1 X226.887 Y130.691 E5.80815
G1 X225.940 Y129.790 E5.87376
G1 X224.663 Y129.025 E5.94848
