; generated by PrusaSlicer 2.2.0+win64 on 2020-12-05 at 02:10:33 UTC

; 

; external perimeters extrusion width = 0.45mm
; perimeters extrusion width = 0.45mm
; infill extrusion width = 0.45mm
; solid infill extrusion width = 0.45mm
; top infill extrusion width = 0.40mm
; support material extrusion width = 0.38mm
; first layer extrusion width = 0.42mm

M201 X500 Y500 Z100 E5000 ; sets maximum accelerations, mm/sec^2
M203 X500 Y500 Z10 E60 ; sets maximum feedrates, mm/sec
M204 P500 R1000 T500 ; sets acceleration (P, T) and retract acceleration (R), mm/sec^2
M205 X8.00 Y8.00 Z0.40 E5.00 ; sets the jerk limits, mm/sec
M205 S0 T0 ; sets the minimum extruding and travel feed rate, mm/sec
M107
G90 ; use absolute coordinates
M83 ; extruder relative mode
M104 S215 ; set extruder temp
M140 S60 ; set bed temp
M190 S60 ; wait for bed temp
M109 S215 ; wait for extruder temp
G28 ; home all
G1 Z2 F240
G1 X2 Y10 F3000
G1 Z0.28 F240
G92 E0.0
G1 Y190 E15.0 F1500.0 ; intro line
G1 X2.3 F5000
G1 Y10 E30 F1200.0 ; intro line
G92 E0.0
G21 ; set units to millimeters
G90 ; use absolute coordinates
M83 ; use relative distances for extrusion
; Filament gcode
;BEFORE_LAYER_CHANGE
;0.2


G1 E-2.00000 F3600.00000
G1 Z0.200 F9000.000
;AFTER_LAYER_CHANGE
;0.2
G1 Z0.400
G1 X93.833 Y91.686
G1 Z0.200
G1 E2.00000 F2400.00000
G1 F1200.000
G1 X94.496 Y91.030 E0.02924
G1 X95.262 Y90.498 E0.02924
G1 X96.109 Y90.107 E0.02924
G1 X97.010 Y89.868 E0.02924
G1 X97.939 Y89.788 E0.02924
G1 X110.144 Y89.960 E0.38272
G1 X111.411 Y90.146 E0.04014
G1 X112.281 Y90.465 E0.02906
G1 X122.692 Y95.430 E0.36166
G1 X123.709 Y96.121 E0.03853
G1 X124.539 Y97.019 E0.03836
G1 X124.958 Y97.689 E0.02477
G1 X125.273 Y98.413 E0.02477
G1 X125.480 Y99.176 E0.02477
G1 X125.572 Y99.960 E0.02477
G1 X125.572 Y120.424 E0.64163
G1 X125.387 Y121.610 E0.03764
G1 X124.944 Y122.726 E0.03764
G1 X124.264 Y123.716 E0.03764
G1 X123.377 Y124.533 E0.03782
G1 X122.272 Y125.157 E0.03978
G1 X121.052 Y125.504 E0.03978
G1 X102.648 Y127.872 E0.58179
G1 X95.608 Y127.875 E0.22075
G1 X94.646 Y127.776 E0.03032
G1 X93.685 Y127.495 E0.03139
G1 X92.794 Y127.040 E0.03139
G1 X92.001 Y126.428 E0.03139
G1 X91.333 Y125.675 E0.03157
G1 X90.925 Y125.026 E0.02405
G1 X90.616 Y124.330 E0.02387
G1 X90.406 Y123.592 E0.02405
G1 X90.304 Y122.832 E0.02405
G1 X90.299 Y109.134 E0.42950
G1 X92.646 Y94.189 E0.47434
G1 X92.894 Y93.290 E0.02924
G1 X93.294 Y92.447 E0.02924
G1 X93.799 Y91.735 E0.02736
G1 E-1.40000 F3600.00000
G1 F7200.000
G1 X94.496 Y91.030 E-0.47109
G1 X94.667 Y90.911 E-0.09891
G1 E-0.03000 F3600.00000
G1 Z0.400 F9000.000
G1 X111.884 Y98.498
G1 Z0.200
G1 E2.00000 F2400.00000
G1 F1200.000
G1 X120.502 Y98.498 E0.27022
G1 X120.959 Y98.639 E0.01500
G1 X121.136 Y98.743 E0.00641
G1 X121.652 Y99.259 E0.02289
G1 X121.756 Y99.436 E0.00641
G1 X121.897 Y99.893 E0.01500
G1 X121.897 Y120.497 E0.64605
G1 X121.756 Y120.954 E0.01500
G1 X121.652 Y121.131 E0.00641
G1 X121.136 Y121.647 E0.02289
G1 X120.959 Y121.751 E0.00641
G1 X120.502 Y121.892 E0.01500
G1 X104.344 Y121.892 E0.50662
G1 X104.335 Y122.863 E0.03044
G1 X104.286 Y123.058 E0.00633
G1 X104.134 Y123.379 E0.01111
G1 X103.528 Y123.985 E0.02689
G1 X103.207 Y124.137 E0.01114
G1 X102.922 Y124.195 E0.00912
G1 X102.115 Y124.184 E0.02532
G1 X101.943 Y124.214 E0.00547
G1 X100.702 Y124.214 E0.03891
G1 X100.573 Y124.191 E0.00410
G1 X100.444 Y124.214 E0.00410
G1 X99.193 Y124.214 E0.03923
G1 X99.065 Y124.191 E0.00410
G1 X98.936 Y124.214 E0.00410
G1 X97.685 Y124.214 E0.03923
G1 X97.556 Y124.191 E0.00410
G1 X97.428 Y124.214 E0.00410
G1 X96.187 Y124.214 E0.03891
G1 X96.015 Y124.184 E0.00547
G1 X95.207 Y124.195 E0.02532
G1 X94.923 Y124.137 E0.00912
G1 X94.601 Y123.985 E0.01116
G1 X94.030 Y123.433 E0.02489
G1 X93.927 Y123.257 E0.00640
G1 X93.785 Y122.800 E0.01500
G1 X93.785 Y109.131 E0.42858
G1 X93.825 Y108.875 E0.00812
G1 X94.086 Y108.306 E0.01963
G1 X94.517 Y107.845 E0.01979
G1 X95.140 Y107.527 E0.02194
G1 X95.447 Y107.472 E0.00979
G1 X96.674 Y107.472 E0.03844
G1 X96.802 Y107.494 E0.00410
G1 X96.931 Y107.472 E0.00410
G1 X98.183 Y107.472 E0.03927
G1 X98.503 Y107.524 E0.01016
G1 X98.503 Y104.622 E0.09098
G1 X97.626 Y104.613 E0.02752
G1 X97.298 Y104.532 E0.01058
G1 X96.876 Y104.319 E0.01483
G1 X96.351 Y103.794 E0.02326
G1 X96.139 Y103.374 E0.01476
G1 X96.063 Y103.093 E0.00912
G1 X96.070 Y94.736 E0.26202
G1 X96.189 Y94.404 E0.01108
G1 X96.342 Y94.168 E0.00882
G1 X96.759 Y93.751 E0.01846
G1 X97.183 Y93.528 E0.01502
G1 X97.470 Y93.467 E0.00922
G1 X98.277 Y93.479 E0.02531
G1 X98.451 Y93.449 E0.00552
G1 X99.713 Y93.453 E0.03958
G1 X99.825 Y93.470 E0.00357
G1 X99.948 Y93.449 E0.00391
G1 X101.199 Y93.449 E0.03920
G1 X101.327 Y93.472 E0.00410
G1 X101.456 Y93.449 E0.00410
G1 X102.707 Y93.449 E0.03923
G1 X102.835 Y93.472 E0.00410
G1 X102.964 Y93.449 E0.00410
G1 X104.215 Y93.449 E0.03923
G1 X104.344 Y93.472 E0.00410
G1 X104.472 Y93.449 E0.00410
G1 X105.724 Y93.449 E0.03923
G1 X105.852 Y93.472 E0.00410
G1 X105.981 Y93.449 E0.00410
G1 X107.232 Y93.449 E0.03923
G1 X107.360 Y93.472 E0.00410
G1 X107.489 Y93.449 E0.00410
G1 X108.740 Y93.449 E0.03923
G1 X108.869 Y93.472 E0.00410
G1 X108.997 Y93.449 E0.00410
G1 X110.226 Y93.449 E0.03852
G1 X110.482 Y93.488 E0.00812
G1 X111.051 Y93.749 E0.01964
G1 X111.493 Y94.161 E0.01894
G1 X111.715 Y94.504 E0.01279
G1 X111.852 Y94.888 E0.01278
G1 X111.883 Y98.438 E0.11133
G1 X111.508 Y98.875 F9000.000
G1 F1200.000
G1 X120.471 Y98.875 E0.28100
G1 X120.817 Y98.989 E0.01144
G1 X120.917 Y99.051 E0.00369
G1 X121.344 Y99.478 E0.01893
G1 X121.406 Y99.578 E0.00369
G1 X121.520 Y99.924 E0.01144
G1 X121.520 Y120.466 E0.64406
G1 X121.406 Y120.812 E0.01144
G1 X121.344 Y120.912 E0.00369
G1 X120.917 Y121.339 E0.01893
G1 X120.817 Y121.401 E0.00369
G1 X120.471 Y121.515 E0.01144
G1 X103.967 Y121.515 E0.51745
G1 X103.963 Y122.799 E0.04028
G1 X103.936 Y122.917 E0.00378
G1 X103.807 Y123.188 E0.00942
G1 X103.338 Y123.658 E0.02083
G1 X103.067 Y123.786 E0.00939
G1 X102.908 Y123.818 E0.00509
G1 X102.079 Y123.806 E0.02598
G1 X101.923 Y123.837 E0.00500
G1 X100.725 Y123.837 E0.03754
G1 X100.573 Y123.804 E0.00488
G1 X100.421 Y123.837 E0.00488
G1 X99.217 Y123.837 E0.03774
G1 X99.065 Y123.804 E0.00488
G1 X98.912 Y123.837 E0.00488
G1 X97.709 Y123.837 E0.03774
G1 X97.556 Y123.804 E0.00488
G1 X97.404 Y123.837 E0.00488
G1 X96.207 Y123.837 E0.03754
G1 X96.050 Y123.806 E0.00500
G1 X95.222 Y123.818 E0.02598
G1 X95.063 Y123.786 E0.00509
G1 X94.791 Y123.658 E0.00942
G1 X94.338 Y123.214 E0.01988
G1 X94.276 Y123.115 E0.00366
G1 X94.163 Y122.769 E0.01144
G1 X94.163 Y109.147 E0.42709
G1 X94.192 Y108.963 E0.00584
G1 X94.412 Y108.497 E0.01618
G1 X94.764 Y108.132 E0.01588
G1 X95.279 Y107.878 E0.01800
G1 X95.461 Y107.849 E0.00579
G1 X96.650 Y107.849 E0.03728
G1 X96.802 Y107.882 E0.00488
G1 X96.954 Y107.849 E0.00488
G1 X98.158 Y107.849 E0.03774
G1 X98.311 Y107.882 E0.00488
G1 X98.463 Y107.849 E0.00488
G1 X98.880 Y107.849 E0.01309
G1 X98.880 Y104.246 E0.11298
G1 X97.688 Y104.241 E0.03737
G1 X97.447 Y104.185 E0.00778
G1 X97.073 Y103.996 E0.01314
G1 X96.674 Y103.597 E0.01767
G1 X96.485 Y103.223 E0.01314
G1 X96.434 Y103.023 E0.00646
G1 X96.436 Y94.833 E0.25681
G1 X96.537 Y94.552 E0.00935
G1 X96.623 Y94.421 E0.00492
G1 X97.003 Y94.040 E0.01687
G1 X97.328 Y93.876 E0.01141
G1 X97.484 Y93.845 E0.00501
G1 X98.313 Y93.857 E0.02597
G1 X98.470 Y93.826 E0.00502
G1 X99.692 Y93.830 E0.03831
G1 X99.830 Y93.856 E0.00441
G1 X99.971 Y93.826 E0.00453
G1 X101.175 Y93.826 E0.03775
G1 X101.327 Y93.859 E0.00488
G1 X101.479 Y93.826 E0.00488
G1 X102.683 Y93.826 E0.03774
G1 X102.835 Y93.859 E0.00488
G1 X102.988 Y93.826 E0.00488
G1 X104.192 Y93.826 E0.03774
G1 X104.344 Y93.859 E0.00488
G1 X104.496 Y93.826 E0.00488
G1 X105.700 Y93.826 E0.03774
G1 X105.852 Y93.859 E0.00488
G1 X106.004 Y93.826 E0.00488
G1 X107.208 Y93.826 E0.03774
G1 X107.360 Y93.859 E0.00488
G1 X107.513 Y93.826 E0.00488
G1 X108.716 Y93.826 E0.03774
G1 X108.869 Y93.859 E0.00488
G1 X109.021 Y93.826 E0.00488
G1 X110.210 Y93.826 E0.03728
G1 X110.394 Y93.856 E0.00584
G1 X110.861 Y94.076 E0.01618
G1 X111.215 Y94.417 E0.01542
G1 X111.367 Y94.652 E0.00877
G1 X111.486 Y94.984 E0.01108
G1 X111.508 Y98.815 E0.12012
G1 X111.132 Y99.252 F9000.000
G1 F1200.000
G1 X120.436 Y99.252 E0.29171
G1 X120.690 Y99.352 E0.00856
G1 X121.061 Y99.732 E0.01666
G1 X121.143 Y99.959 E0.00757
G1 X121.143 Y120.431 E0.64186
G1 X121.043 Y120.685 E0.00856
G1 X120.690 Y121.038 E0.01566
G1 X120.436 Y121.138 E0.00856
G1 X103.590 Y121.138 E0.52819
G1 X103.583 Y122.780 E0.05148
G1 X103.480 Y122.998 E0.00757
G1 X103.147 Y123.331 E0.01477
G1 X102.928 Y123.434 E0.00759
G1 X102.037 Y123.429 E0.02793
G1 X101.899 Y123.460 E0.00444
G1 X100.754 Y123.460 E0.03589
G1 X100.573 Y123.411 E0.00588
G1 X100.392 Y123.460 E0.00588
G1 X99.246 Y123.460 E0.03592
G1 X99.065 Y123.411 E0.00588
G1 X98.883 Y123.460 E0.00588
G1 X97.738 Y123.460 E0.03592
G1 X97.556 Y123.411 E0.00588
G1 X97.375 Y123.460 E0.00588
G1 X96.230 Y123.460 E0.03589
G1 X96.092 Y123.429 E0.00444
G1 X95.235 Y123.441 E0.02689
G1 X94.982 Y123.331 E0.00863
G1 X94.639 Y122.988 E0.01522
G1 X94.540 Y122.733 E0.00856
G1 X94.540 Y109.165 E0.42544
G1 X94.559 Y109.056 E0.00345
G1 X94.736 Y108.692 E0.01270
G1 X95.006 Y108.422 E0.01199
G1 X95.370 Y108.245 E0.01270
G1 X95.478 Y108.226 E0.00345
G1 X96.621 Y108.226 E0.03582
G1 X96.802 Y108.274 E0.00588
G1 X96.984 Y108.226 E0.00588
G1 X98.129 Y108.226 E0.03592
G1 X98.311 Y108.274 E0.00588
G1 X98.492 Y108.226 E0.00588
G1 X99.257 Y108.226 E0.02400
G1 X99.257 Y103.774 E0.13958
G1 X98.885 Y103.868 E0.01204
G1 X97.744 Y103.868 E0.03576
G1 X97.593 Y103.836 E0.00484
G1 X97.270 Y103.673 E0.01136
G1 X96.997 Y103.400 E0.01208
G1 X96.833 Y103.075 E0.01144
G1 X96.806 Y102.960 E0.00369
G1 X96.802 Y94.929 E0.25180
G1 X96.902 Y94.675 E0.00856
G1 X97.245 Y94.332 E0.01522
G1 X97.497 Y94.222 E0.00863
G1 X98.355 Y94.234 E0.02689
G1 X98.492 Y94.203 E0.00443
G1 X99.666 Y94.207 E0.03680
G1 X99.837 Y94.246 E0.00548
G1 X100.000 Y94.203 E0.00528
G1 X101.146 Y94.203 E0.03594
G1 X101.327 Y94.252 E0.00588
G1 X101.508 Y94.203 E0.00588
G1 X102.654 Y94.203 E0.03592
G1 X102.835 Y94.252 E0.00588
G1 X103.017 Y94.203 E0.00588
G1 X104.163 Y94.203 E0.03592
G1 X104.344 Y94.252 E0.00588
G1 X104.525 Y94.203 E0.00588
G1 X105.671 Y94.203 E0.03592
G1 X105.852 Y94.252 E0.00588
G1 X106.033 Y94.203 E0.00588
G1 X107.179 Y94.203 E0.03592
G1 X107.360 Y94.252 E0.00588
G1 X107.542 Y94.203 E0.00588
G1 X108.687 Y94.203 E0.03592
G1 X108.869 Y94.252 E0.00588
G1 X109.050 Y94.203 E0.00588
G1 X110.192 Y94.203 E0.03582
G1 X110.301 Y94.222 E0.00345
G1 X110.665 Y94.400 E0.01270
G1 X110.934 Y94.669 E0.01193
G1 X111.020 Y94.800 E0.00492
G1 X111.120 Y95.081 E0.00936
G1 X111.132 Y99.192 E0.12891
G1 E-1.40000 F3600.00000
G1 F7200.000
G1 X112.332 Y99.200 E-0.57000
G1 E-0.03000 F3600.00000
G1 Z0.400 F9000.000
G1 X105.852 Y94.652
G1 Z0.200
G1 E2.00000 F2400.00000
G1 F1200.000
G1 X106.069 Y94.580 E0.00717
G1 X107.143 Y94.580 E0.03368
G1 X107.360 Y94.652 E0.00717
G1 X107.578 Y94.580 E0.00717
G1 X108.652 Y94.580 E0.03368
G1 X108.869 Y94.652 E0.00717
G1 X109.086 Y94.580 E0.00717
G1 X110.172 Y94.580 E0.03405
G1 X110.422 Y94.690 E0.00856
G1 X110.655 Y94.923 E0.01032
G1 X110.754 Y95.177 E0.00856
G1 X110.754 Y99.629 E0.13960
G1 X120.394 Y99.629 E0.30224
G1 X120.463 Y99.658 E0.00235
G1 X120.737 Y99.932 E0.01215
G1 X120.766 Y100.001 E0.00235
G1 X120.766 Y120.389 E0.63923
G1 X120.737 Y120.458 E0.00235
G1 X120.463 Y120.732 E0.01215
G1 X120.394 Y120.761 E0.00235
G1 X103.213 Y120.761 E0.53870
G1 X103.213 Y122.692 E0.06054
G1 X103.184 Y122.761 E0.00235
G1 X102.910 Y123.035 E0.01215
G1 X102.842 Y123.063 E0.00231
G1 X101.984 Y123.051 E0.02690
G1 X101.869 Y123.082 E0.00375
G1 X100.790 Y123.082 E0.03383
G1 X100.573 Y123.011 E0.00717
G1 X100.356 Y123.082 E0.00717
G1 X99.282 Y123.082 E0.03368
G1 X99.065 Y123.011 E0.00717
G1 X98.848 Y123.082 E0.00717
G1 X97.773 Y123.082 E0.03368
G1 X97.556 Y123.011 E0.00717
G1 X97.339 Y123.082 E0.00717
G1 X96.260 Y123.082 E0.03383
G1 X96.145 Y123.051 E0.00375
G1 X95.287 Y123.063 E0.02690
G1 X95.219 Y123.035 E0.00231
G1 X94.945 Y122.761 E0.01215
G1 X94.917 Y122.692 E0.00235
G1 X94.923 Y109.154 E0.42448
G1 X95.026 Y108.935 E0.00757
G1 X95.249 Y108.712 E0.00988
G1 X95.499 Y108.603 E0.00856
G1 X96.585 Y108.603 E0.03405
G1 X96.802 Y108.675 E0.00717
G1 X97.019 Y108.603 E0.00717
G1 X98.093 Y108.603 E0.03368
G1 X98.311 Y108.675 E0.00717
G1 X98.528 Y108.603 E0.00717
G1 X99.634 Y108.603 E0.03470
G1 X99.634 Y103.491 E0.16029
G1 X99.282 Y103.491 E0.01105
G1 X99.065 Y103.419 E0.00717
G1 X98.848 Y103.491 E0.00717
G1 X97.730 Y103.484 E0.03504
G1 X97.512 Y103.381 E0.00757
G1 X97.289 Y103.158 E0.00988
G1 X97.179 Y102.908 E0.00856
G1 X97.179 Y94.971 E0.24885
G1 X97.208 Y94.902 E0.00235
G1 X97.482 Y94.628 E0.01215
G1 X97.550 Y94.600 E0.00231
G1 X98.408 Y94.612 E0.02690
G1 X98.523 Y94.580 E0.00375
G1 X99.613 Y94.580 E0.03419
G1 X99.811 Y94.655 E0.00663
G1 X100.036 Y94.580 E0.00741
G1 X101.110 Y94.580 E0.03368
G1 X101.327 Y94.652 E0.00717
G1 X101.544 Y94.580 E0.00717
G1 X102.618 Y94.580 E0.03368
G1 X102.835 Y94.652 E0.00717
G1 X103.053 Y94.580 E0.00717
G1 X104.127 Y94.580 E0.03368
G1 X104.344 Y94.652 E0.00717
G1 X104.561 Y94.580 E0.00717
G1 X105.635 Y94.580 E0.03368
G1 X105.795 Y94.633 E0.00529
G1 E-1.40000 F3600.00000
G1 F7200.000
G1 X106.069 Y94.580 E-0.13260
G1 X106.990 Y94.580 E-0.43740
G1 E-0.03000 F3600.00000
G1 Z0.400 F9000.000
G1 X99.819 Y95.178
G1 Z0.200
G1 E2.00000 F2400.00000
G1 F1200.000
G1 X100.011 Y94.986 E0.00852
G1 X100.080 Y94.957 E0.00235
G1 X101.066 Y94.957 E0.03090
G1 X101.135 Y94.986 E0.00235
G1 X101.327 Y95.178 E0.00852
G1 X101.519 Y94.986 E0.00852
G1 X101.589 Y94.957 E0.00235
G1 X102.574 Y94.957 E0.03090
G1 X102.643 Y94.986 E0.00235
G1 X102.835 Y95.178 E0.00852
G1 X103.028 Y94.986 E0.00852
G1 X103.097 Y94.957 E0.00235
G1 X104.082 Y94.957 E0.03090
G1 X104.152 Y94.986 E0.00235
G1 X104.344 Y95.178 E0.00852
G1 X104.536 Y94.986 E0.00852
G1 X104.605 Y94.957 E0.00235
G1 X105.591 Y94.957 E0.03090
G1 X105.660 Y94.986 E0.00235
G1 X105.852 Y95.178 E0.00852
G1 X106.044 Y94.986 E0.00852
G1 X106.114 Y94.957 E0.00235
G1 X107.099 Y94.957 E0.03090
G1 X107.168 Y94.986 E0.00235
G1 X107.360 Y95.178 E0.00852
G1 X107.553 Y94.986 E0.00852
G1 X107.622 Y94.957 E0.00235
G1 X108.607 Y94.957 E0.03090
G1 X108.677 Y94.986 E0.00235
G1 X108.869 Y95.178 E0.00852
G1 X109.061 Y94.986 E0.00852
G1 X109.130 Y94.957 E0.00235
G1 X110.116 Y94.957 E0.03090
G1 X110.185 Y94.986 E0.00235
G1 X110.348 Y95.150 E0.00725
G1 X110.377 Y95.219 E0.00235
G1 X110.377 Y100.006 E0.15011
G1 X120.278 Y100.006 E0.31044
G1 X120.389 Y100.117 E0.00490
G1 X120.389 Y120.273 E0.63198
G1 X120.278 Y120.384 E0.00490
G1 X102.836 Y120.384 E0.54690
G1 X102.836 Y122.576 E0.06874
G1 X102.725 Y122.686 E0.00490
G1 X102.192 Y122.686 E0.01673
G1 X102.036 Y122.530 E0.00692
G1 X101.889 Y122.677 E0.00649
G1 X101.820 Y122.705 E0.00235
G1 X100.834 Y122.705 E0.03090
G1 X100.765 Y122.677 E0.00235
G1 X100.573 Y122.485 E0.00852
G1 X100.381 Y122.677 E0.00852
G1 X100.312 Y122.705 E0.00235
G1 X99.326 Y122.705 E0.03090
G1 X99.257 Y122.677 E0.00235
G1 X99.065 Y122.485 E0.00852
G1 X98.873 Y122.677 E0.00852
G1 X98.803 Y122.705 E0.00235
G1 X97.818 Y122.705 E0.03090
G1 X97.749 Y122.677 E0.00235
G1 X97.556 Y122.485 E0.00852
G1 X97.364 Y122.677 E0.00852
G1 X97.295 Y122.705 E0.00235
G1 X96.309 Y122.705 E0.03090
G1 X96.240 Y122.677 E0.00235
G1 X96.094 Y122.530 E0.00649
G1 X95.938 Y122.686 E0.00692
G1 X95.404 Y122.686 E0.01673
G1 X95.294 Y122.576 E0.00490
G1 X95.294 Y109.241 E0.41809
G1 X95.323 Y109.172 E0.00235
G1 X95.486 Y109.009 E0.00725
G1 X95.555 Y108.980 E0.00235
G1 X96.541 Y108.980 E0.03090
G1 X96.610 Y109.009 E0.00235
G1 X96.802 Y109.201 E0.00852
G1 X96.994 Y109.009 E0.00852
G1 X97.064 Y108.980 E0.00235
G1 X98.049 Y108.980 E0.03090
G1 X98.118 Y109.009 E0.00235
G1 X98.311 Y109.201 E0.00852
G1 X98.503 Y109.009 E0.00852
G1 X98.572 Y108.980 E0.00235
G1 X99.557 Y108.980 E0.03090
G1 X99.627 Y109.009 E0.00235
G1 X100.011 Y109.393 E0.01706
G1 X100.011 Y103.114 E0.19690
G1 X99.326 Y103.114 E0.02149
G1 X99.257 Y103.085 E0.00235
G1 X99.065 Y102.893 E0.00852
