; generated by PrusaSlicer 2.2.0+win64 on 2020-12-04 at 20:38:23 UTC

; 

; external perimeters extrusion width = 0.45mm
; perimeters extrusion width = 0.45mm
; infill extrusion width = 0.45mm
; solid infill extrusion width = 0.45mm
; top infill extrusion width = 0.40mm
; first layer extrusion width = 0.42mm

M201 X500 Y500 Z100 E5000 ; sets maximum accelerations, mm/sec^2
M203 X500 Y500 Z10 E60 ; sets maximum feedrates, mm/sec
M204 P500 R1000 T500 ; sets acceleration (P, T) and retract acceleration (R), mm/sec^2
M205 X8.00 Y8.00 Z0.40 E5.00 ; sets the jerk limits, mm/sec
M205 S0 T0 ; sets the minimum extruding and travel feed rate, mm/sec
M107
G90 ; use absolute coordinates
M83 ; extruder relative mode
M104 S215 ; set extruder temp
M140 S50 ; set bed temp
M190 S50 ; wait for bed temp
M109 S215 ; wait for extruder temp
G28 ; home all
G1 Z2 F240
G1 X2 Y10 F3000
G1 Z0.28 F240
G92 E0.0
G1 Y190 E15.0 F1500.0 ; intro line
G1 X2.3 F5000
G1 Y10 E30 F1200.0 ; intro line
G92 E0.0
G21 ; set units to millimeters
G90 ; use absolute coordinates
M83 ; use relative distances for extrusion
; Filament gcode
;BEFORE_LAYER_CHANGE
;0.2


G1 E-5.00000 F3600.00000
G1 Z0.200 F9000.000
;AFTER_LAYER_CHANGE
;0.2
G1 X64.331 Y92.528
G1 E5.00000 F2400.00000
G1 F1200.000
G1 X64.673 Y91.980 E0.02024
G1 X65.152 Y91.542 E0.02036
G1 X65.732 Y91.250 E0.02036
G1 X66.366 Y91.127 E0.02024
G1 X153.504 Y91.123 E2.73215
G1 X154.267 Y91.250 E0.02426
G1 X154.952 Y91.618 E0.02437
G1 X155.481 Y92.187 E0.02437
G1 X155.798 Y92.892 E0.02426
G1 X155.877 Y93.468 E0.01823
G1 X155.877 Y98.538 E0.15895
G1 X155.693 Y99.416 E0.02813
G1 X139.877 Y124.971 E0.94228
G1 X138.891 Y126.063 E0.04615
G1 X137.699 Y126.813 E0.04415
G1 X136.249 Y127.233 E0.04735
G1 X108.633 Y128.873 E0.86739
G1 X78.466 Y128.877 E0.94588
G1 X77.744 Y128.754 E0.02296
G1 X77.091 Y128.414 E0.02308
G1 X76.621 Y127.956 E0.02060
G1 X76.294 Y127.386 E0.02060
G1 X64.285 Y96.863 E1.02842
G1 X64.127 Y96.133 E0.02343
G1 X64.127 Y93.367 E0.08673
G1 X64.317 Y92.586 E0.02520
G1 E-3.50000 F3600.00000
G1 F7200.000
G1 X64.673 Y91.980 E-0.33381
G1 X65.152 Y91.542 E-0.30842
G1 X65.732 Y91.250 E-0.30842
G1 X66.366 Y91.127 E-0.30663
G1 X66.719 Y91.127 E-0.16772
G1 E-0.07500 F3600.00000
G1 X65.543 Y100.574 F9000.000
G1 E5.00000 F2400.00000
G1 F1200.000
G1 X64.698 Y100.372 E0.02724
G1 X64.368 Y100.221 E0.01137
G1 X63.041 Y99.235 E0.05184
G1 X62.192 Y97.964 E0.04793
G1 X61.787 Y96.483 E0.04814
G1 X61.787 Y93.059 E0.10735
G1 X62.090 Y91.743 E0.04236
G1 X62.759 Y90.588 E0.04186
G1 X63.669 Y89.704 E0.03978
G1 X64.729 Y89.096 E0.03832
G1 X65.990 Y88.787 E0.04071
G1 X153.986 Y88.790 E2.75905
G1 X154.935 Y88.974 E0.03029
G1 X155.843 Y89.365 E0.03101
G1 X157.051 Y90.379 E0.04947
G1 X157.712 Y91.310 E0.03578
G1 X158.117 Y92.382 E0.03594
G1 X158.215 Y99.002 E0.20759
G1 X157.847 Y100.405 E0.04545
G1 X157.210 Y101.440 E0.03811
G1 X156.376 Y102.266 E0.03682
G1 X155.448 Y102.829 E0.03404
G1 X154.434 Y103.152 E0.03337
G1 X153.598 Y103.160 E0.02620
G1 X153.152 Y103.165 F9000.000
G1 F1200.000
G1 X149.205 Y103.204 E0.12377
G1 X146.623 Y113.713 E0.33930
G1 X146.331 Y114.901 F9000.000
G1 F1200.000
G1 X145.847 Y116.875 E0.06374
G1 X145.000 Y118.185 E0.04890
G1 X143.966 Y119.038 E0.04203
G1 X143.691 Y119.167 E0.00954
G1 X143.066 Y119.460 F9000.000
G1 F1200.000
G1 X142.978 Y119.502 E0.00306
G1 X142.699 Y119.575 E0.00904
G1 X142.786 Y119.912 E0.01092
G1 X142.917 Y120.418 F9000.000
G1 F1200.000
G1 X143.056 Y120.955 E0.01742
G1 X143.097 Y122.650 E0.05315
G1 X142.540 Y124.944 E0.07401
G1 X141.587 Y126.597 E0.05984
G1 X140.230 Y127.985 E0.06086
G1 X138.567 Y128.984 E0.06083
G1 X136.713 Y129.532 E0.06061
G1 X134.934 Y129.607 E0.05581
G1 X133.224 Y129.281 E0.05459
G1 X131.300 Y128.367 E0.06679
G1 X130.578 Y127.759 E0.02961
G1 X130.159 Y127.406 F9000.000
G1 F1200.000
G1 X129.934 Y127.216 E0.00923
G1 X128.874 Y125.780 E0.05596
G1 X128.104 Y123.867 E0.06467
G1 X127.876 Y121.788 E0.06558
G1 X128.176 Y119.868 E0.06093
G1 X128.889 Y118.193 E0.05706
G1 X129.728 Y117.093 E0.04339
G1 X129.448 Y116.400 E0.02341
G1 X129.280 Y115.633 E0.02463
G1 X129.271 Y114.621 E0.03174
G1 X130.679 Y108.582 E0.19441
G1 X129.968 Y108.702 E0.02262
G1 X115.627 Y108.711 E0.44964
G1 X113.103 Y127.641 E0.59878
G1 X112.718 Y128.442 E0.02787
G1 X112.530 Y128.831 F9000.000
G1 F1200.000
G1 X112.269 Y129.373 E0.01887
G1 X111.360 Y130.265 E0.03993
G1 X110.756 Y130.662 E0.02266
G1 X109.026 Y131.214 E0.05695
G1 X101.690 Y131.176 E0.23003
G1 X100.935 Y130.991 E0.02435
G1 X100.226 Y130.679 E0.02429
G1 X99.430 Y130.111 E0.03067
G1 X98.512 Y129.063 E0.04368
G1 X98.308 Y128.686 F9000.000
G1 F1200.000
G1 X98.083 Y128.263 E0.01501
G1 X97.826 Y127.384 E0.02873
G1 X97.767 Y126.360 E0.03217
G1 X98.633 Y119.436 E0.21879
G1 X98.299 Y119.361 E0.01074
G1 X95.347 Y128.370 E0.29725
G1 X95.142 Y128.686 E0.01182
G1 X94.898 Y129.063 F9000.000
G1 F1200.000
G1 X94.480 Y129.709 E0.02411
G1 X93.151 Y130.713 E0.05223
G1 X91.472 Y131.213 E0.05494
G1 X78.002 Y131.213 E0.42233
G1 X76.540 Y130.812 E0.04753
G1 X75.257 Y129.937 E0.04870
G1 X74.916 Y129.602 E0.01498
G1 X73.966 Y127.889 E0.06142
G1 X71.803 Y116.487 E0.36388
G1 E-3.50000 F3600.00000
G1 F7200.000
G1 X72.362 Y119.435 E-1.42500
G1 E-0.07500 F3600.00000
G1 X71.426 Y114.499 F9000.000
G1 E5.00000 F2400.00000
G1 F1200.000
G1 X68.940 Y101.390 E0.41835
G1 X65.990 Y100.682 E0.09512
G1 X65.822 Y100.253 F9000.000
G1 F1200.000
G1 X69.265 Y101.080 E0.11104
G1 X72.167 Y116.382 E0.48834
G1 E-3.50000 F3600.00000
G1 F7200.000
G1 X71.608 Y113.435 E-1.42500
G1 E-0.07500 F3600.00000
G1 X72.544 Y118.370 F9000.000
G1 E5.00000 F2400.00000
G1 F1200.000
G1 X74.331 Y127.789 E0.30058
G1 X75.201 Y129.354 E0.05615
G1 X75.486 Y129.637 E0.01259
G1 X76.673 Y130.458 E0.04524
G1 X78.028 Y130.836 E0.04412
G1 X91.445 Y130.836 E0.42066
G1 X92.953 Y130.390 E0.04932
G1 X94.183 Y129.474 E0.04809
G1 X94.452 Y129.064 E0.01538
G1 X94.698 Y128.686 F9000.000
G1 F1200.000
G1 X94.997 Y128.229 E0.01714
G1 X99.158 Y115.526 E0.41910
G1 X99.492 Y115.601 E0.01074
G1 X98.144 Y126.389 E0.34087
G1 X98.201 Y127.339 E0.02984
G1 X98.439 Y128.137 E0.02610
G1 X98.734 Y128.686 E0.01955
G1 X99.006 Y129.063 F9000.000
G1 F1200.000
G1 X99.667 Y129.818 E0.03146
G1 X100.398 Y130.342 E0.02820
G1 X101.044 Y130.630 E0.02218
G1 X101.715 Y130.799 E0.02170
G1 X108.998 Y130.837 E0.22836
G1 X110.572 Y130.332 E0.05183
G1 X111.110 Y129.982 E0.02012
G1 X111.982 Y129.127 E0.03829
G1 X112.112 Y128.856 E0.00944
G1 X112.299 Y128.467 F9000.000
G1 F1200.000
G1 X112.733 Y127.562 E0.03147
G1 X115.297 Y108.335 E0.60819
G1 X129.951 Y108.325 E0.45946
G1 X130.728 Y108.189 E0.02475
G1 X131.203 Y107.997 E0.01606
G1 X129.643 Y114.684 E0.21531
G1 X129.653 Y115.571 E0.02781
G1 X129.813 Y116.304 E0.02350
G1 X130.069 Y116.929 E0.02118
G1 X130.187 Y117.115 E0.00691
G1 X129.226 Y118.364 E0.04944
G1 X128.545 Y119.951 E0.05413
G1 X128.254 Y121.774 E0.05787
G1 X128.463 Y123.752 E0.06238
G1 X129.192 Y125.576 E0.06159
G1 X130.224 Y126.974 E0.05448
G1 X130.701 Y127.374 E0.01952
G1 X131.122 Y127.727 F9000.000
G1 F1200.000
G1 X131.523 Y128.063 E0.01641
G1 X133.318 Y128.915 E0.06231
G1 X134.983 Y129.233 E0.05314
G1 X136.672 Y129.156 E0.05301
G1 X138.435 Y128.630 E0.05770
G1 X140.013 Y127.675 E0.05783
G1 X141.300 Y126.352 E0.05786
G1 X142.199 Y124.780 E0.05679
G1 X142.720 Y122.635 E0.06922
G1 X142.680 Y120.987 E0.05168
G1 X142.646 Y120.856 E0.00423
G1 X142.513 Y120.354 F9000.000
G1 F1200.000
G1 X142.232 Y119.287 E0.03459
G1 X142.841 Y119.150 E0.01957
G1 X143.426 Y118.879 E0.02020
G1 X144.185 Y118.368 F9000.000
G1 F1200.000
G1 X144.738 Y117.912 E0.02247
G1 X145.488 Y116.754 E0.04326
G1 X145.688 Y115.941 E0.02626
G1 X145.979 Y114.753 F9000.000
G1 F1200.000
G1 X148.908 Y102.830 E0.38497
G1 X153.387 Y102.785 E0.14042
G1 X153.833 Y102.781 F9000.000
G1 F1200.000
G1 X154.400 Y102.775 E0.01779
G1 X155.309 Y102.478 E0.02999
G1 X156.126 Y101.982 E0.02996
G1 X156.929 Y101.187 E0.03543
G1 X157.491 Y100.280 E0.03345
G1 X157.837 Y98.981 E0.04216
G1 X157.752 Y92.482 E0.20377
G1 X157.389 Y91.506 E0.03266
G1 X156.789 Y90.651 E0.03277
G1 X155.666 Y89.699 E0.04613
G1 X154.841 Y89.340 E0.02823
G1 X153.967 Y89.167 E0.02791
G1 X66.014 Y89.164 E2.75773
G1 X64.847 Y89.455 E0.03769
G1 X63.880 Y90.017 E0.03509
G1 X63.042 Y90.838 E0.03677
G1 X62.432 Y91.906 E0.03855
G1 X62.164 Y93.080 E0.03778
G1 X62.164 Y96.457 E0.10588
G1 X62.546 Y97.833 E0.04476
G1 X63.335 Y98.996 E0.04405
G1 X64.575 Y99.905 E0.04822
G1 X64.803 Y100.009 E0.00787
G1 X65.374 Y100.146 E0.01841
G1 X65.653 Y99.825 F9000.000
G1 F1200.000
G1 X69.590 Y100.770 E0.12695
G1 X72.908 Y118.265 E0.55833
G1 E-3.50000 F3600.00000
G1 F7200.000
G1 X72.349 Y115.318 E-1.42500
G1 E-0.07500 F3600.00000
G1 X73.285 Y120.254 F9000.000
G1 E5.00000 F2400.00000
G1 F1200.000
G1 X74.696 Y127.689 E0.23728
G1 X75.487 Y129.107 E0.05093
G1 X75.717 Y129.339 E0.01024
G1 X76.808 Y130.104 E0.04176
G1 X78.055 Y130.459 E0.04066
G1 X91.418 Y130.459 E0.41899
G1 X92.755 Y130.068 E0.04368
G1 X93.931 Y129.192 E0.04597
G1 X94.014 Y129.064 E0.00480
G1 X94.259 Y128.686 F9000.000
G1 F1200.000
G1 X94.646 Y128.088 E0.02234
G1 X100.017 Y111.692 E0.54099
G1 X100.352 Y111.767 E0.01074
G1 X98.520 Y126.419 E0.46298
G1 X98.569 Y127.254 E0.02623
G1 X98.781 Y127.978 E0.02366
G1 X99.124 Y128.625 E0.02295
G1 X99.178 Y128.686 E0.00254
G1 X99.508 Y129.063 F9000.000
G1 F1200.000
G1 X99.936 Y129.552 E0.02040
G1 X100.599 Y130.023 E0.02551
G1 X101.180 Y130.278 E0.01987
G1 X101.783 Y130.428 E0.01950
G1 X108.970 Y130.460 E0.22532
G1 X110.389 Y130.002 E0.04677
G1 X110.860 Y129.699 E0.01756
G1 X111.695 Y128.880 E0.03665
G1 X111.881 Y128.492 F9000.000
G1 F1200.000
G1 X112.363 Y127.483 E0.03507
G1 X114.967 Y107.958 E0.61761
G1 X129.933 Y107.948 E0.46927
G1 X130.636 Y107.823 E0.02239
G1 X131.747 Y107.330 E0.03808
G1 X130.020 Y114.705 E0.23747
G1 X130.026 Y115.512 E0.02531
G1 X130.169 Y116.177 E0.02133
G1 X130.408 Y116.762 E0.01984
G1 X130.661 Y117.120 E0.01375
G1 X129.562 Y118.537 E0.05620
G1 X128.913 Y120.035 E0.05121
G1 X128.631 Y121.761 E0.05481
G1 X128.824 Y123.638 E0.05917
G1 X129.510 Y125.373 E0.05851
G1 X130.483 Y126.700 E0.05159
G1 X131.249 Y127.341 E0.03132
G1 X131.670 Y127.694 F9000.000
G1 F1200.000
G1 X131.747 Y127.758 E0.00314
G1 X133.414 Y128.550 E0.05785
G1 X134.989 Y128.855 E0.05030
G1 X136.631 Y128.781 E0.05156
G1 X138.303 Y128.276 E0.05475
G1 X139.796 Y127.366 E0.05482
G1 X141.011 Y126.108 E0.05486
G1 X141.858 Y124.617 E0.05375
G1 X142.342 Y122.619 E0.06445
G1 X142.313 Y121.394 E0.03841
G1 X142.243 Y120.791 F9000.000
G1 F1200.000
G1 X141.887 Y119.457 E0.04328
G1 X141.621 Y118.952 E0.01790
G1 X142.060 Y118.936 E0.01376
G1 X142.705 Y118.798 E0.02067
G1 X143.527 Y118.423 E0.02834
G1 X143.892 Y118.126 E0.01474
G1 E-3.50000 F3600.00000
G1 F7200.000
G1 X143.527 Y118.423 E-0.22329
G1 X142.705 Y118.798 E-0.42936
G1 X142.060 Y118.936 E-0.31318
G1 X141.621 Y118.952 E-0.20843
G1 X141.867 Y119.419 E-0.25074
G1 E-0.07500 F3600.00000
G1 X145.336 Y115.793 F9000.000
G1 E5.00000 F2400.00000
G1 F1200.000
G1 X148.612 Y102.455 E0.43065
G1 X153.617 Y102.413 E0.15693
G1 X154.063 Y102.409 F9000.000
G1 F1200.000
G1 X154.312 Y102.407 E0.00783
G1 X155.135 Y102.143 E0.02709
G1 X155.879 Y101.697 E0.02720
G1 X156.623 Y100.967 E0.03267
G1 X157.134 Y100.153 E0.03015
G1 X157.460 Y98.958 E0.03882
G1 X157.387 Y92.583 E0.19990
G1 X157.044 Y91.660 E0.03088
G1 X156.525 Y90.921 E0.02831
G1 X155.488 Y90.033 E0.04282
G1 X154.746 Y89.705 E0.02545
G1 X153.948 Y89.544 E0.02550
G1 X66.038 Y89.541 E2.75638
G1 X64.967 Y89.813 E0.03463
G1 X64.092 Y90.330 E0.03186
G1 X63.327 Y91.087 E0.03377
G1 X62.774 Y92.066 E0.03525
G1 X62.541 Y93.101 E0.03326
G1 X62.541 Y96.432 E0.10444
G1 X62.876 Y97.647 E0.03951
G1 X63.628 Y98.756 E0.04202
G1 X64.779 Y99.588 E0.04454
G1 X64.908 Y99.647 E0.00444
G1 X65.206 Y99.718 E0.00959
G1 X65.485 Y99.397 F9000.000
G1 F1200.000
G1 X69.915 Y100.460 E0.14286
G1 X73.649 Y120.149 E0.62832
G1 E-3.50000 F3600.00000
G1 F7200.000
G1 X73.090 Y117.201 E-1.42500
G1 E-0.07500 F3600.00000
G1 X74.026 Y122.137 F9000.000
G1 E5.00000 F2400.00000
G1 F1200.000
G1 X75.060 Y127.588 E0.17397
G1 X75.775 Y128.862 E0.04579
G1 X75.951 Y129.043 E0.00792
G1 X76.944 Y129.752 E0.03826
G1 X78.082 Y130.082 E0.03714
G1 X91.390 Y130.082 E0.41726
G1 X92.614 Y129.717 E0.04004
G1 X93.476 Y129.064 E0.03392
G1 X93.821 Y128.687 F9000.000
G1 F1200.000
G1 X94.295 Y127.949 E0.02750
G1 X100.877 Y107.857 E0.66289
G1 X101.211 Y107.932 E0.01074
G1 X98.896 Y126.449 E0.58509
G1 X98.937 Y127.169 E0.02262
G1 X99.137 Y127.853 E0.02234
G1 X99.446 Y128.427 E0.02042
G1 X99.674 Y128.686 E0.01084
G1 X100.007 Y129.063 F9000.000
G1 F1200.000
G1 X100.203 Y129.285 E0.00931
G1 X100.799 Y129.703 E0.02281
G1 X101.314 Y129.925 E0.01758
G1 X101.851 Y130.056 E0.01733
G1 X108.940 Y130.083 E0.22227
G1 X110.247 Y129.652 E0.04316
G1 X110.609 Y129.417 E0.01354
G1 X111.121 Y128.914 E0.02249
G1 X111.463 Y128.516 F9000.000
G1 F1200.000
G1 X111.993 Y127.404 E0.03864
G1 X114.637 Y107.581 E0.62704
G1 X129.917 Y107.571 E0.47912
G1 X130.505 Y107.468 E0.01870
G1 X131.345 Y107.095 E0.02883
G1 X132.062 Y106.530 E0.02862
G1 X132.288 Y106.673 E0.00839
G1 X130.393 Y114.767 E0.26065
G1 X130.402 Y115.486 E0.02254
G1 X130.533 Y116.079 E0.01901
G1 X130.747 Y116.595 E0.01754
G1 X131.171 Y117.174 E0.02249
G1 X130.951 Y117.362 E0.00905
G1 X129.898 Y118.710 E0.05364
G1 X129.281 Y120.121 E0.04829
G1 X129.009 Y121.749 E0.05175
G1 X129.185 Y123.525 E0.05596
G1 X129.829 Y125.170 E0.05539
G1 X130.774 Y126.458 E0.05008
G1 X131.796 Y127.309 E0.04171
G1 X132.387 Y127.652 F9000.000
G1 F1200.000
G1 X133.509 Y128.184 E0.03893
G1 X135.038 Y128.480 E0.04884
G1 X136.589 Y128.405 E0.04870
G1 X138.169 Y127.923 E0.05181
G1 X139.577 Y127.058 E0.05182
G1 X140.723 Y125.864 E0.05186
G1 X141.517 Y124.455 E0.05072
G1 X141.965 Y122.602 E0.05976
G1 X141.952 Y121.977 E0.01959
G1 X141.937 Y121.284 F9000.000
G1 F1200.000
G1 X141.933 Y121.094 E0.00598
G1 X141.529 Y119.578 E0.04919
G1 X140.977 Y118.573 E0.03594
G1 X142.002 Y118.563 E0.03212
G1 X142.606 Y118.433 E0.01937
G1 X143.310 Y118.114 E0.02426
G1 X144.144 Y117.445 E0.03350
G1 X144.771 Y116.509 E0.03532
G1 X148.316 Y102.079 E0.46589
G1 X153.847 Y102.042 E0.17341
G1 X154.308 Y102.013 F9000.000
G1 F1200.000
G1 X154.999 Y101.790 E0.02275
G1 X155.632 Y101.411 E0.02315
G1 X156.318 Y100.745 E0.02998
G1 X156.779 Y100.023 E0.02685
G1 X157.083 Y98.935 E0.03544
G1 X157.022 Y92.681 E0.19608
G1 X156.720 Y91.854 E0.02761
G1 X156.259 Y91.190 E0.02534
G1 X155.308 Y90.365 E0.03948
G1 X154.648 Y90.070 E0.02266
G1 X153.929 Y89.921 E0.02304
G1 X66.062 Y89.918 E2.75499
G1 X65.089 Y90.171 E0.03151
G1 X64.307 Y90.640 E0.02861
G1 X63.612 Y91.335 E0.03079
G1 X63.117 Y92.225 E0.03195
G1 X62.918 Y93.121 E0.02879
G1 X62.918 Y96.406 E0.10298
G1 X63.230 Y97.514 E0.03609
G1 X63.919 Y98.514 E0.03808
G1 X64.982 Y99.270 E0.04090
G1 X65.037 Y99.290 E0.00184
G1 X65.316 Y98.969 F9000.000
G1 F1200.000
G1 X70.240 Y100.151 E0.15878
G1 X74.390 Y122.032 E0.69831
G1 E-3.50000 F3600.00000
G1 F7200.000
G1 X73.831 Y119.085 E-1.42500
G1 E-0.07500 F3600.00000
G1 X74.767 Y124.020 F9000.000
G1 E5.00000 F2400.00000
G1 F1200.000
G1 X75.425 Y127.487 E0.11065
G1 X76.064 Y128.619 E0.04075
G1 X76.188 Y128.749 E0.00563
G1 X77.084 Y129.400 E0.03473
G1 X78.110 Y129.705 E0.03356
G1 X91.362 Y129.705 E0.41549
G1 X92.470 Y129.367 E0.03633
G1 X92.862 Y129.064 E0.01555
G1 X93.352 Y128.687 F9000.000
G1 F1200.000
G1 X93.419 Y128.635 E0.00266
G1 X93.944 Y127.809 E0.03067
G1 X101.736 Y104.023 E0.78481
G1 X102.070 Y104.098 E0.01074
G1 X99.273 Y126.479 E0.70720
G1 X99.306 Y127.086 E0.01906
G1 X99.481 Y127.695 E0.01987
G1 X99.745 Y128.196 E0.01775
G1 X100.173 Y128.686 E0.02041
G1 X100.541 Y129.063 F9000.000
G1 F1200.000
G1 X100.969 Y129.366 E0.01642
G1 X101.419 Y129.563 E0.01543
G1 X101.918 Y129.684 E0.01610
G1 X108.909 Y129.705 E0.21919
G1 X110.102 Y129.303 E0.03949
G1 X110.358 Y129.135 E0.00958
G1 X110.548 Y128.949 E0.00834
G1 X110.958 Y128.546 F9000.000
G1 F1200.000
G1 X111.119 Y128.389 E0.00705
G1 X111.624 Y127.325 E0.03692
G1 X114.306 Y107.204 E0.63647
G1 X129.902 Y107.194 E0.48899
