; generated by PrusaSlicer 2.2.0+win64 on 2020-12-05 at 02:22:20 UTC

; 

; external perimeters extrusion width = 0.45mm
; perimeters extrusion width = 0.45mm
; infill extrusion width = 0.45mm
; solid infill extrusion width = 0.45mm
; top infill extrusion width = 0.40mm
; support material extrusion width = 0.38mm
; first layer extrusion width = 0.42mm

M201 X500 Y500 Z100 E5000 ; sets maximum accelerations, mm/sec^2
M203 X500 Y500 Z10 E60 ; sets maximum feedrates, mm/sec
M204 P500 R1000 T500 ; sets acceleration (P, T) and retract acceleration (R), mm/sec^2
M205 X8.00 Y8.00 Z0.40 E5.00 ; sets the jerk limits, mm/sec
M205 S0 T0 ; sets the minimum extruding and travel feed rate, mm/sec
M107
G90 ; use absolute coordinates
M83 ; extruder relative mode
M104 S215 ; set extruder temp
M140 S60 ; set bed temp
M190 S60 ; wait for bed temp
M109 S215 ; wait for extruder temp
G28 ; home all
G1 Z2 F240
G1 X2 Y10 F3000
G1 Z0.28 F240
G92 E0.0
G1 Y190 E15.0 F1500.0 ; intro line
G1 X2.3 F5000
G1 Y10 E30 F1200.0 ; intro line
G92 E0.0
G21 ; set units to millimeters
G90 ; use absolute coordinates
M83 ; use relative distances for extrusion
; Filament gcode
;BEFORE_LAYER_CHANGE
;0.2


G1 E-2.00000 F3600.00000
G1 Z0.200 F9000.000
;AFTER_LAYER_CHANGE
;0.2
G1 Z0.400
G1 X101.333 Y105.137
G1 Z0.200
G1 E2.00000 F2400.00000
G1 F1200.000
G1 X102.101 Y104.603 E0.02933
G1 X104.243 Y103.444 E0.07638
G1 X105.047 Y103.096 E0.02747
G1 X105.895 Y102.873 E0.02747
G1 X108.989 Y102.576 E0.09747
G1 X110.293 Y102.728 E0.04116
G1 X112.558 Y103.291 E0.07317
G1 X113.429 Y103.615 E0.02914
G1 X122.991 Y109.121 E0.34596
G1 X123.652 Y109.592 E0.02544
G1 X124.240 Y110.151 E0.02544
G1 X126.500 Y112.701 E0.10685
G1 X127.148 Y113.669 E0.03654
G1 X127.619 Y114.857 E0.04005
G1 X127.815 Y116.113 E0.03987
G1 X127.774 Y127.905 E0.36972
G1 X127.438 Y129.235 E0.04301
G1 X126.801 Y130.443 E0.04282
G1 X125.892 Y131.470 E0.04301
G1 X124.766 Y132.254 E0.04301
G1 X123.452 Y132.757 E0.04411
G1 X122.056 Y132.926 E0.04411
G1 X111.381 Y132.748 E0.33475
G1 X110.304 Y132.586 E0.03414
G1 X109.277 Y132.224 E0.03414
G1 X108.299 Y131.648 E0.03562
G1 X107.448 Y130.886 E0.03580
G1 X99.791 Y122.339 E0.35980
G1 X98.404 Y120.569 E0.07049
G1 X97.950 Y119.848 E0.02673
G1 X97.585 Y119.006 E0.02877
G1 X97.360 Y118.122 E0.02859
G1 X97.076 Y115.587 E0.08000
G1 X97.067 Y114.717 E0.02729
G1 X97.297 Y112.132 E0.08135
G1 X97.432 Y111.374 E0.02414
G1 X98.207 Y109.024 E0.07760
G1 X98.730 Y107.989 E0.03636
G1 X99.332 Y107.205 E0.03099
G1 X101.291 Y105.180 E0.08833
G1 X101.561 Y105.441 F9000.000
G1 F1200.000
G1 X102.297 Y104.925 E0.02820
G1 X104.421 Y103.777 E0.07569
G1 X105.177 Y103.450 E0.02584
G1 X105.975 Y103.242 E0.02584
G1 X108.990 Y102.954 E0.09498
G1 X110.211 Y103.096 E0.03853
G1 X112.456 Y103.654 E0.07253
G1 X113.282 Y103.962 E0.02763
G1 X122.793 Y109.442 E0.34419
G1 X123.409 Y109.880 E0.02369
G1 X123.957 Y110.400 E0.02369
G1 X126.199 Y112.928 E0.10595
G1 X126.798 Y113.814 E0.03353
G1 X127.250 Y114.939 E0.03800
G1 X127.439 Y116.136 E0.03800
G1 X127.405 Y127.818 E0.36628
G1 X127.099 Y129.067 E0.04032
G1 X126.508 Y130.203 E0.04014
G1 X125.666 Y131.167 E0.04014
G1 X124.620 Y131.904 E0.04014
G1 X123.379 Y132.387 E0.04174
G1 X122.057 Y132.549 E0.04174
G1 X111.412 Y132.372 E0.33383
G1 X110.399 Y132.221 E0.03210
G1 X109.433 Y131.881 E0.03210
G1 X108.517 Y131.340 E0.03336
G1 X107.725 Y130.630 E0.03336
G1 X100.079 Y122.096 E0.35924
G1 X98.715 Y120.355 E0.06937
G1 X98.300 Y119.703 E0.02423
G1 X97.950 Y118.907 E0.02727
G1 X97.733 Y118.065 E0.02727
G1 X97.452 Y115.562 E0.07896
G1 X97.443 Y114.744 E0.02566
G1 X97.795 Y111.476 E0.10303
G1 X98.554 Y109.173 E0.07603
G1 X99.048 Y108.192 E0.03443
G1 X99.612 Y107.457 E0.02906
G1 X101.519 Y105.485 E0.08603
G1 E-1.40000 F3600.00000
G1 F7200.000
G1 X102.297 Y104.925 E-0.45517
G1 X102.510 Y104.810 E-0.11483
G1 E-0.03000 F3600.00000
G1 Z0.400 F9000.000
G1 X110.000 Y118.377
G1 Z0.200
G1 E2.00000 F2400.00000
G1 F1200.000
G1 X110.000 Y119.086 E0.02222
G1 X110.268 Y119.043 E0.00852
G1 X110.754 Y118.796 E0.01709
G1 X110.754 Y118.054 E0.02326
G1 X111.508 Y116.886 E0.04360
G1 X111.508 Y118.369 E0.04651
G1 X112.262 Y117.615 E0.03344
G1 X112.262 Y114.031 E0.11236
G1 X112.955 Y114.031 E0.02172
G1 X113.017 Y114.418 E0.01229
G1 X113.017 Y116.580 E0.06776
G1 E-1.40000 F3600.00000
G1 F7200.000
G1 X113.017 Y115.380 E-0.57000
G1 E-0.03000 F3600.00000
G1 Z0.400 F9000.000
G1 X110.000 Y121.322
G1 Z0.200
G1 E2.00000 F2400.00000
G1 F1200.000
G1 X110.000 Y124.665 E0.10484
G1 X110.754 Y124.665 E0.02365
G1 X110.754 Y121.421 E0.10171
G1 X111.002 Y121.388 E0.00783
G1 X111.508 Y121.180 E0.01718
G1 X111.508 Y124.665 E0.10929
G1 X111.694 Y124.665 E0.00583
G1 X111.694 Y127.002 E0.07328
G1 X112.262 Y127.002 E0.01782
G1 X112.262 Y120.869 E0.19231
G1 X112.483 Y120.784 E0.00740
G1 X112.604 Y120.690 E0.00480
G1 X113.017 Y120.061 E0.02359
G1 X113.017 Y127.002 E0.21763
G1 X113.771 Y127.002 E0.02365
G1 X113.771 Y118.913 E0.25363
G1 X114.525 Y117.665 E0.04574
G1 X114.525 Y127.002 E0.29278
G1 X115.279 Y127.002 E0.02365
G1 X115.279 Y114.031 E0.40670
G1 X116.033 Y114.031 E0.02365
G1 X116.033 Y127.002 E0.40670
G1 X116.787 Y127.002 E0.02365
G1 X116.787 Y114.031 E0.40670
G1 X117.542 Y114.031 E0.02365
G1 X117.542 Y127.002 E0.40670
G1 X118.296 Y127.002 E0.02365
G1 X118.296 Y114.031 E0.40670
G1 X119.050 Y114.031 E0.02365
G1 X119.050 Y127.002 E0.40670
G1 X119.804 Y127.002 E0.02365
G1 X119.804 Y114.031 E0.40670
G1 X119.991 Y114.031 E0.00587
G1 X119.991 Y116.368 E0.07328
G1 X120.558 Y116.368 E0.01778
G1 X120.558 Y127.002 E0.33342
G1 X121.312 Y127.002 E0.02365
G1 X121.312 Y116.368 E0.33342
G1 X122.067 Y116.368 E0.02365
G1 X122.067 Y127.172 E0.33874
G1 E-1.40000 F3600.00000
G1 F7200.000
G1 X122.067 Y125.972 E-0.57000
G1 E-0.03000 F3600.00000
G1 Z0.400 F9000.000
G1 X112.122 Y120.205
G1 Z0.200
G1 E2.00000 F2400.00000
G1 F1200.000
G1 X110.808 Y120.745 E0.04454
G1 X109.007 Y120.914 E0.05673
G1 X107.190 Y120.560 E0.05803
G1 X105.551 Y119.748 E0.05736
G1 X104.350 Y118.485 E0.05465
G1 X103.243 Y117.066 E0.05643
G1 X103.029 Y115.091 E0.06229
G1 X103.224 Y112.988 E0.06623
G1 X103.779 Y111.338 E0.05457
G1 X105.136 Y109.889 E0.06224
G1 X106.995 Y108.808 E0.06742
G1 X108.893 Y108.606 E0.05986
G1 X110.939 Y109.040 E0.06557
G1 X112.581 Y110.016 E0.05990
G1 X113.738 Y111.401 E0.05658
G1 X113.947 Y113.096 E0.05355
G1 X114.084 Y115.100 E0.06297
G1 X114.084 Y117.091 E0.06242
G1 X113.364 Y118.314 E0.04451
G1 X112.155 Y120.155 E0.06904
G1 X111.762 Y120.031 F9000.000
G1 X111.819 Y119.004
G1 F1200.000
G1 X110.478 Y119.687 E0.04721
G1 X108.990 Y119.923 E0.04722
G1 X107.486 Y119.678 E0.04778
G1 X106.162 Y119.004 E0.04660
G1 X105.097 Y117.939 E0.04721
G1 X104.413 Y116.597 E0.04721
G1 X104.178 Y115.110 E0.04721
G1 X104.413 Y113.623 E0.04721
G1 X105.097 Y112.281 E0.04721
G1 X106.162 Y111.216 E0.04722
G1 X107.522 Y110.530 E0.04778
G1 X108.990 Y110.297 E0.04660
G1 X110.478 Y110.533 E0.04721
G1 X111.819 Y111.217 E0.04721
G1 X112.884 Y112.281 E0.04721
G1 X113.568 Y113.623 E0.04721
G1 X113.803 Y115.110 E0.04721
G1 X113.568 Y116.597 E0.04721
G1 X112.884 Y117.939 E0.04721
G1 X111.862 Y118.961 E0.04533
G1 X111.861 Y119.401 F9000.000
G1 X112.667 Y118.689
G1 F1200.000
G1 X111.871 Y119.900 E0.04545
G1 X110.717 Y120.375 E0.03912
G1 X109.026 Y120.533 E0.05326
G1 X107.312 Y120.199 E0.05474
G1 X105.778 Y119.440 E0.05367
G1 X104.636 Y118.239 E0.05197
G1 X103.607 Y116.919 E0.05249
G1 X103.408 Y115.088 E0.05774
G1 X103.595 Y113.066 E0.06366
G1 X104.110 Y111.536 E0.05062
G1 X105.352 Y110.210 E0.05697
G1 X107.115 Y109.174 E0.06411
G1 X108.868 Y108.988 E0.05525
G1 X110.800 Y109.396 E0.06191
G1 X112.333 Y110.308 E0.05592
G1 X113.377 Y111.558 E0.05108
G1 X113.517 Y112.693 E0.03588
G1 X113.193 Y112.057 E0.02240
G1 X112.044 Y110.908 E0.05096
G1 X110.596 Y110.170 E0.05096
G1 X108.990 Y109.916 E0.05096
G1 X107.405 Y110.167 E0.05032
G1 X105.938 Y110.907 E0.05152
G1 X104.788 Y112.057 E0.05099
G1 X104.050 Y113.505 E0.05096
G1 X103.796 Y115.110 E0.05096
G1 X104.050 Y116.715 E0.05096
G1 X104.788 Y118.163 E0.05096
G1 X105.937 Y119.312 E0.05096
G1 X107.367 Y120.041 E0.05032
G1 X108.989 Y120.305 E0.05152
G1 X110.596 Y120.050 E0.05099
G1 X112.044 Y119.312 E0.05096
G1 X112.625 Y118.731 E0.02577
G1 X112.786 Y118.543 F9000.000
G1 F1200.000
G1 X113.139 Y118.102 E0.01077
G1 X113.517 Y117.413 E0.01728
G1 X113.895 Y116.723 E0.01976
G1 X113.713 Y117.349 F9000.000
G1 F1200.000
G1 X113.822 Y116.668 E0.00567
G1 X113.872 Y116.027 E0.00529
G1 E-1.40000 F3600.00000
G1 F7200.000
G1 X113.822 Y116.668 E-0.30549
G1 X113.734 Y117.218 E-0.26451
G1 E-0.03000 F3600.00000
G1 Z0.400 F9000.000
G1 X113.781 Y113.556
G1 Z0.200
G1 E2.00000 F2400.00000
G1 F1200.000
G1 X113.572 Y112.874 E0.01576
G1 X113.209 Y111.732 F9000.000
G1 F1200.000
G1 X112.211 Y110.645 E0.01884
G1 X112.466 Y110.762 F9000.000
G1 F1200.000
G1 X111.156 Y110.039 E0.04023
G1 X110.796 Y110.145 F9000.000
G1 F1200.000
G1 X110.212 Y109.561 E0.02621
G1 X109.529 Y109.417 E0.02213
G1 X109.883 Y109.771 E0.01587
G1 X109.242 Y109.669 E0.02056
G1 X108.848 Y109.275 E0.01768
G1 X108.360 Y109.326 E0.01554
G1 X108.708 Y109.674 E0.01559
G1 X108.242 Y109.748 E0.01494
G1 X107.873 Y109.378 E0.01657
G1 X107.385 Y109.430 E0.01554
G1 X107.777 Y109.822 E0.01756
G1 X107.313 Y109.897 E0.01490
G1 X106.991 Y109.575 E0.01442
G1 X106.652 Y109.774 E0.01249
G1 X106.955 Y110.077 E0.01358
G1 X106.596 Y110.258 E0.01272
G1 X106.312 Y109.974 E0.01274
G1 X105.972 Y110.173 E0.01249
G1 X106.238 Y110.439 E0.01190
G1 X105.879 Y110.620 E0.01272
G1 X105.633 Y110.373 E0.01106
G1 X105.531 Y110.433 E0.00375
G1 X105.348 Y110.628 E0.00846
G1 X105.583 Y110.862 E0.01052
G1 X105.313 Y111.132 E0.01208
G1 X105.087 Y110.906 E0.01012
G1 X104.827 Y111.184 E0.01209
G1 X105.044 Y111.401 E0.00973
G1 X104.774 Y111.671 E0.01208
G1 X104.566 Y111.463 E0.00933
G1 X104.358 Y111.684 E0.00962
G1 X104.331 Y111.767 E0.00276
G1 X104.648 Y112.084 E0.01421
G1 X104.197 Y112.417 F9000.000
G1 F1200.000
G1 X104.047 Y112.774 E0.01046
G1 X103.897 Y113.130 E0.00903
G1 X103.870 Y113.226 E0.00196
G1 X103.842 Y113.322 E0.00165
G1 X103.814 Y113.418 E0.00134
G1 X103.742 Y113.975 E0.00575
G1 X103.675 Y114.514 E0.00382
G1 X103.721 Y116.002 F9000.000
G1 F1200.000
G1 X103.828 Y116.795 E0.00507
G1 X103.996 Y117.074 E0.00206
G1 E-1.40000 F3600.00000
G1 F7200.000
G1 X103.828 Y116.795 E-0.15448
G1 X103.721 Y116.002 E-0.38019
G1 E-0.06533 F3600.00000
G1 Z0.400 F9000.000
G1 X111.552 Y119.801
G1 Z0.200
G1 E2.00000 F2400.00000
G1 F1200.000
G1 X111.763 Y119.688 E0.00127
M106 S255
;BEFORE_LAYER_CHANGE
;0.4


G1 E-1.40000 F3600.00000
G1 F7200.000
G1 X111.552 Y119.801 E-0.11345
G1 E-0.48655 F3600.00000
G1 Z0.400 F9000.000
;AFTER_LAYER_CHANGE
;0.4
G1 Z0.600
G1 X108.299 Y131.648
G1 Z0.400
G1 E2.00000 F2400.00000
G1 F1049
G1 X107.448 Y130.886 E0.03580
G1 X99.791 Y122.339 E0.35980
G1 X98.404 Y120.569 E0.07049
G1 X97.950 Y119.848 E0.02673
G1 X97.585 Y119.006 E0.02877
G1 X97.360 Y118.122 E0.02859
G1 X97.076 Y115.587 E0.08000
G1 X97.067 Y114.717 E0.02729
G1 X97.297 Y112.132 E0.08135
G1 X97.432 Y111.374 E0.02414
G1 X98.207 Y109.024 E0.07760
G1 X98.730 Y107.989 E0.03636
G1 X99.332 Y107.205 E0.03099
G1 X101.333 Y105.137 E0.09021
G1 X102.101 Y104.603 E0.02933
G1 X104.243 Y103.444 E0.07638
G1 X105.047 Y103.096 E0.02747
G1 X105.895 Y102.873 E0.02747
G1 X108.989 Y102.576 E0.09747
G1 X110.293 Y102.728 E0.04116
G1 X112.558 Y103.291 E0.07317
G1 X113.429 Y103.615 E0.02914
G1 X122.991 Y109.121 E0.34596
G1 X123.652 Y109.592 E0.02544
G1 X124.240 Y110.151 E0.02544
G1 X126.500 Y112.701 E0.10685
G1 X127.148 Y113.669 E0.03654
G1 X127.619 Y114.857 E0.04005
G1 X127.815 Y116.113 E0.03987
G1 X127.774 Y127.905 E0.36972
G1 X127.438 Y129.235 E0.04301
G1 X126.801 Y130.443 E0.04282
G1 X125.892 Y131.470 E0.04301
G1 X124.766 Y132.254 E0.04301
G1 X123.452 Y132.757 E0.04411
G1 X122.056 Y132.926 E0.04411
G1 X111.381 Y132.748 E0.33475
G1 X110.304 Y132.586 E0.03414
G1 X109.277 Y132.224 E0.03414
G1 X108.350 Y131.678 E0.03374
G1 X108.541 Y131.355 F9000.000
G1 F1049
G1 X107.725 Y130.630 E0.03422
G1 X100.079 Y122.096 E0.35924
G1 X98.715 Y120.355 E0.06937
G1 X98.300 Y119.703 E0.02423
G1 X97.950 Y118.907 E0.02727
G1 X97.733 Y118.065 E0.02727
G1 X97.452 Y115.562 E0.07896
G1 X97.443 Y114.744 E0.02566
G1 X97.795 Y111.476 E0.10303
G1 X98.554 Y109.173 E0.07603
G1 X99.048 Y108.192 E0.03443
G1 X99.612 Y107.457 E0.02906
G1 X101.578 Y105.424 E0.08867
G1 X102.297 Y104.925 E0.02745
G1 X104.421 Y103.777 E0.07569
G1 X105.177 Y103.450 E0.02584
G1 X105.975 Y103.242 E0.02584
G1 X108.990 Y102.954 E0.09498
G1 X110.211 Y103.096 E0.03853
G1 X112.456 Y103.654 E0.07253
G1 X113.282 Y103.962 E0.02763
G1 X122.793 Y109.442 E0.34419
G1 X123.409 Y109.880 E0.02369
G1 X123.957 Y110.400 E0.02369
G1 X126.199 Y112.928 E0.10595
G1 X126.798 Y113.814 E0.03353
G1 X127.250 Y114.939 E0.03800
G1 X127.439 Y116.136 E0.03800
G1 X127.405 Y127.818 E0.36628
G1 X127.099 Y129.067 E0.04032
G1 X126.508 Y130.203 E0.04014
G1 X125.666 Y131.167 E0.04014
G1 X124.620 Y131.904 E0.04014
G1 X123.379 Y132.387 E0.04174
G1 X122.057 Y132.549 E0.04174
G1 X111.412 Y132.372 E0.33383
G1 X110.399 Y132.221 E0.03210
G1 X109.433 Y131.881 E0.03210
G1 X108.593 Y131.385 E0.03059
G1 E-1.40000 F3600.00000
G1 F7200.000
G1 X107.725 Y130.630 E-0.54642
G1 X107.692 Y130.593 E-0.02358
G1 E-0.03000 F3600.00000
G1 Z0.600 F9000.000
G1 X112.412 Y119.008
G1 Z0.400
G1 E2.00000 F2400.00000
G1 F1049
G1 X111.846 Y119.869 E0.03488
G1 X110.708 Y120.334 E0.04161
G1 X109.028 Y120.492 E0.05713
G1 X107.326 Y120.161 E0.05869
G1 X105.804 Y119.408 E0.05747
G1 X104.630 Y118.170 E0.05775
G1 X103.640 Y116.902 E0.05447
G1 X103.444 Y115.087 E0.06179
G1 X103.641 Y112.887 E0.07473
G1 X104.135 Y111.418 E0.05247
G1 X105.262 Y110.214 E0.05583
G1 X105.314 Y110.215 E0.00174
G1 X107.086 Y109.174 E0.06958
G1 X108.714 Y108.996 E0.05544
G1 X110.777 Y109.429 E0.07136
G1 X112.308 Y110.339 E0.06028
G1 X113.339 Y111.573 E0.05444
G1 X113.448 Y112.458 E0.03016
G1 X113.230 Y112.030 E0.01624
G1 X112.070 Y110.871 E0.05549
G1 X110.610 Y110.127 E0.05549
G1 X108.990 Y109.870 E0.05549
G1 X107.371 Y110.127 E0.05549
G1 X105.910 Y110.871 E0.05549
G1 X104.751 Y112.030 E0.05549
G1 X104.007 Y113.491 E0.05549
G1 X103.750 Y115.110 E0.05549
G1 X104.007 Y116.729 E0.05549
G1 X104.751 Y118.190 E0.05549
G1 X105.910 Y119.349 E0.05549
G1 X107.371 Y120.094 E0.05549
G1 X108.990 Y120.350 E0.05549
G1 X110.610 Y120.094 E0.05549
G1 X112.070 Y119.349 E0.05549
G1 X112.370 Y119.050 E0.01432
G1 X111.828 Y119.016 F9000.000
G1 F1049
G1 X110.482 Y119.702 E0.05113
G1 X108.990 Y119.938 E0.05113
G1 X107.499 Y119.702 E0.05113
G1 X106.153 Y119.016 E0.05113
G1 X105.085 Y117.948 E0.05113
G1 X104.399 Y116.602 E0.05113
G1 X104.163 Y115.110 E0.05113
G1 X104.399 Y113.618 E0.05113
G1 X105.085 Y112.272 E0.05113
G1 X106.153 Y111.204 E0.05113
G1 X107.499 Y110.519 E0.05113
G1 X108.990 Y110.282 E0.05113
G1 X110.482 Y110.519 E0.05113
G1 X111.828 Y111.204 E0.05113
G1 X112.896 Y112.272 E0.05113
G1 X113.582 Y113.618 E0.05113
G1 X113.818 Y115.110 E0.05113
G1 X113.582 Y116.602 E0.05113
G1 X112.896 Y117.948 E0.05113
G1 X111.871 Y118.973 E0.04910
G1 X111.870 Y119.414 F9000.000
G1 X112.117 Y120.198
G1 F1049
G1 X110.807 Y120.734 E0.04793
G1 X109.008 Y120.902 E0.06116
G1 X107.194 Y120.550 E0.06252
G1 X105.559 Y119.741 E0.06177
G1 X104.321 Y118.436 E0.06086
G1 X103.248 Y117.061 E0.05906
G1 X103.035 Y115.090 E0.06708
G1 X103.239 Y112.803 E0.07772
G1 X103.777 Y111.205 E0.05709
G1 X105.089 Y109.804 E0.06494
G1 X105.206 Y109.806 E0.00398
G1 X106.972 Y108.769 E0.06933
G1 X108.887 Y108.567 E0.06517
G1 X108.941 Y108.632 E0.00286
G1 X110.958 Y109.062 E0.06979
G1 X112.576 Y110.025 E0.06372
G1 X113.729 Y111.404 E0.06087
G1 X113.936 Y113.097 E0.05771
G1 X114.069 Y115.101 E0.06798
G1 X114.069 Y117.088 E0.06726
G1 X113.357 Y118.311 E0.04793
G1 X112.150 Y120.148 E0.07438
G1 X111.757 Y120.023 F9000.000
G1 X112.541 Y118.850
G1 F1049
G1 X112.917 Y118.387 E0.01400
G1
G1 X113.140 Y118.108 E0.00520
G1
G1 X113.503 Y117.443 E0.01309
G1
G1 X113.866 Y116.777 E0.01532
G1 X113.841 Y116.428 F9000.000
G1 F1049
G1 X113.822 Y116.673 E0.00180
G1 X113.726 Y117.273 E0.00446
