;FLAVOR:Marlin
;TIME:4400
;Filament used: 170.496m
;Layer height: 0.2
;MINX:92.25
;MINY:92.752
;MINZ:0.2
;MAXX:142.75
;MAXY:142.248
;MAXZ:32.8
;Generated with Cura_SteamEngine 4.8.0
M140 S60
M105
M190 S60
M104 S210
M105
M109 S210
M82 ;absolute extrusion mode
; Ender 3 Custom Start G-code
G92 E0 ; Reset Extruder
G28 ; Home all axes
G1 Z2.0 F3000 ; Move Z Axis up little to prevent scratching of Heat Bed
G1 X0.1 Y20 Z0.3 F5000.0 ; Move to start position
G1 X0.1 Y200.0 Z0.3 F1500.0 E15 ; Draw the first line
G1 X0.4 Y200.0 Z0.3 F5000.0 ; Move to side a little
G1 X0.4 Y20 Z0.3 F1500.0 E30 ; Draw the second line
G92 E0 ; Reset Extruder
G1 Z2.0 F3000 ; Move Z Axis up little to prevent scratching of Heat Bed
G1 X5 Y20 Z0.3 F5000.0 ; Move over to prevent blob squish
G92 E0
G92 E0
G1 F1500 E-6.5
;LAYER_COUNT:164
;LAYER:0
M107
G0 F6000 X101.339 Y97.571 Z0.2
;TYPE:SKIRT
G1 F1500 E0
G1 F1200 X101.609 Y97.292 E0.98868
G1 X102.29 Y96.647 E3.3772
G1 X102.713 Y96.296 E4.77691
G1 X102.938 Y96.119 E5.5059
G1 X103.699 Y95.572 E7.89244
G1 X104.504 Y95.09 E10.28173
G1 X105.46 Y94.631 E12.98221
G1 X105.755 Y94.509 E13.79513
G1 X106.061 Y94.387 E14.634
G1 X106.946 Y94.077 E17.0219
G1 X107.855 Y93.844 E19.41148
G1 X108.78 Y93.689 E21.79981
G1 X109.966 Y93.606 E24.82732
G1 X110.851 Y93.594 E27.08116
G1 X124.154 Y93.593 E60.95698
G1 X124.997 Y93.604 E63.10384
G1 X125.933 Y93.658 E65.49131
G1 X126.861 Y93.791 E67.87859
G1 X127.775 Y94.003 E70.26786
G1 X128.988 Y94.417 E73.53169
G1 X129.508 Y94.629 E74.96168
G1 X130.36 Y95.02 E77.34884
G1 X131.177 Y95.482 E79.73891
G1 X131.95 Y96.012 E82.12559
G1 X132.676 Y96.605 E84.51267
G1 X133.038 Y96.942 E85.77211
G1 X133.245 Y97.144 E86.50863
G1 X133.469 Y97.37 E87.31892
G1 X133.646 Y97.553 E87.96724
G1 X134.268 Y98.254 E90.35372
G1 X134.829 Y99.006 E92.74283
G1 X135.328 Y99.81 E95.15248
G1 X135.819 Y100.687 E97.71192
G1 X141.166 Y110.581 E126.35066
G1 X141.491 Y111.204 E128.14001
G1 X141.889 Y112.054 E130.53005
G1 X142.213 Y112.934 E132.91801
G1 X142.478 Y113.915 E135.50564
G1 X142.642 Y114.838 E137.89286
G1 X142.735 Y115.975 E140.79787
G1 X142.745 Y116.312 E141.65641
G1 X142.75 Y116.646 E142.50703
G1 X142.748 Y118.193 E146.44644
G1 X142.739 Y118.829 E148.06616
G1 X142.686 Y119.765 E150.45349
G1 X142.553 Y120.693 E152.84076
G1 X142.341 Y121.607 E155.23004
G1 X142.053 Y122.5 E157.61938
G1 X141.526 Y123.696 E160.94752
G1 X141.022 Y124.678 E163.75829
G1 X140.914 Y124.884 E164.35058
G1 X135.678 Y134.573 E192.39568
G1 X135.357 Y135.147 E194.0704
G1 X134.864 Y135.945 E196.45901
G1 X134.306 Y136.699 E198.84765
G1 X133.686 Y137.402 E201.23458
G1 X133.437 Y137.661 E202.14947
G1 X133.212 Y137.888 E202.96337
G1 X133.05 Y138.047 E203.5414
G1 X132.353 Y138.674 E205.92876
G1 X131.606 Y139.241 E208.31689
G1 X130.813 Y139.741 E210.70414
G1 X129.796 Y140.255 E213.60588
G1 X129.622 Y140.332 E214.09041
G1 X129.256 Y140.486 E215.10157
G1 X128.951 Y140.608 E215.93807
G1 X128.066 Y140.919 E218.32681
G1 X127.158 Y141.153 E220.71456
G1 X126.234 Y141.31 E223.10123
G1 X125.035 Y141.394 E226.16194
G1 X124.149 Y141.406 E228.41833
G1 X110.683 Y141.406 E262.70922
G1 X110.003 Y141.396 E264.44101
G1 X109.067 Y141.342 E266.82848
G1 X108.139 Y141.209 E269.21576
G1 X107.225 Y140.997 E271.60503
G1 X106.012 Y140.583 E274.86886
G1 X105.492 Y140.371 E276.29885
G1 X104.64 Y139.98 E278.68601
G1 X103.823 Y139.518 E281.07608
G1 X103.05 Y138.988 E283.46276
G1 X102.324 Y138.395 E285.84983
G1 X101.962 Y138.058 E287.10928
G1 X101.755 Y137.856 E287.8458
G1 X101.531 Y137.63 E288.65609
G1 X101.355 Y137.448 E289.30081
G1 X100.732 Y136.746 E291.69088
G1 X100.171 Y135.995 E294.07795
G1 X99.675 Y135.195 E296.47491
G1 X99.271 Y134.477 E298.57285
G1 X93.898 Y124.537 E327.34612
G1 X93.517 Y123.812 E329.43172
G1 X93.118 Y122.964 E331.81823
G1 X92.792 Y122.085 E334.20557
G1 X92.542 Y121.181 E336.59399
G1 X92.37 Y120.259 E338.98235
G1 X92.265 Y119.021 E342.14621
G1 X92.255 Y118.672 E343.0353
G1 X92.25 Y118.357 E343.83754
G1 X92.251 Y116.844 E347.69036
G1 X92.261 Y116.14 E349.48326
G1 X92.314 Y115.203 E351.87313
G1 X92.447 Y114.275 E354.26041
G1 X92.659 Y113.361 E356.64968
G1 X92.947 Y112.469 E359.0366
G1 X93.442 Y111.336 E362.18509
G1 X93.589 Y111.045 E363.0153
G1 X93.729 Y110.776 E363.78752
G1 X99.316 Y100.439 E393.70926
G1 X99.636 Y99.865 E395.38274
G1 X100.127 Y99.066 E397.77084
G1 X100.685 Y98.312 E400.15949
G1 X101.339 Y97.571 E402.67625
G0 F6000 X101.627 Y97.85
G1 F1200 X101.897 Y97.571 E403.66493
G1 X102.565 Y96.937 E406.01016
G1 X102.96 Y96.611 E407.31434
G1 X103.185 Y96.434 E408.04334
G1 X103.933 Y95.897 E410.38814
G1 X104.724 Y95.426 E412.73245
G1 X105.616 Y95 E415.24966
G1 X105.903 Y94.881 E416.04083
G1 X106.209 Y94.759 E416.8797
G1 X107.079 Y94.455 E419.22649
G1 X107.971 Y94.228 E421.57035
G1 X108.879 Y94.08 E423.91307
G1 X109.972 Y94.006 E426.70274
G1 X110.851 Y93.994 E428.9413
G1 X124.154 Y93.993 E462.81712
G1 X124.991 Y94.004 E464.9487
G1 X125.91 Y94.058 E467.29295
G1 X126.821 Y94.191 E469.63739
G1 X127.717 Y94.402 E471.98145
G1 X128.837 Y94.787 E474.9973
G1 X129.357 Y94.999 E476.42729
G1 X130.193 Y95.384 E478.77105
G1 X130.993 Y95.839 E481.11468
G1 X131.751 Y96.362 E483.45978
G1 X132.758 Y97.229 E486.84357
G1 X132.965 Y97.431 E487.58008
G1 X133.181 Y97.648 E488.35976
G1 X133.358 Y97.831 E489.00807
G1 X133.969 Y98.52 E491.35311
G1 X134.518 Y99.259 E493.69742
G1 X134.979 Y100.006 E495.93272
G1 X135.467 Y100.877 E498.4751
G1 X140.811 Y110.766 E527.099
G1 X141.136 Y111.389 E528.88835
G1 X141.526 Y112.223 E531.23285
G1 X141.842 Y113.088 E533.57794
G1 X142.088 Y114.002 E535.98825
G1 X142.248 Y114.908 E538.33106
G1 X142.335 Y115.987 E541.08762
G1 X142.345 Y116.324 E541.94617
G1 X142.35 Y116.646 E542.76623
G1 X142.348 Y118.187 E546.69036
G1 X142.339 Y118.823 E548.31008
G1 X142.286 Y119.742 E550.65418
G1 X142.153 Y120.653 E552.99862
G1 X141.942 Y121.549 E555.34268
G1 X141.654 Y122.424 E557.68844
G1 X141.17 Y123.513 E560.72311
G1 X140.666 Y124.495 E563.53387
G1 X140.562 Y124.693 E564.10339
G1 X135.329 Y134.378 E592.1359
G1 X135.008 Y134.952 E593.81062
G1 X134.524 Y135.735 E596.15468
G1 X133.974 Y136.473 E598.49847
G1 X133.397 Y137.124 E600.71366
G1 X133.148 Y137.383 E601.62856
G1 X132.932 Y137.602 E602.41185
G1 X132.77 Y137.761 E602.98988
G1 X132.086 Y138.377 E605.3339
G1 X131.35 Y138.931 E607.67972
G1 X130.57 Y139.419 E610.02268
G1 X129.635 Y139.889 E612.68753
G1 X129.461 Y139.966 E613.17206
G1 X129.108 Y140.115 E614.14777
G1 X128.803 Y140.237 E614.98427
G1 X127.934 Y140.541 E617.32866
G1 X127.042 Y140.769 E619.67315
G1 X126.134 Y140.919 E622.01669
G1 X125.028 Y140.994 E624.83957
G1 X124.149 Y141.006 E627.07813
G1 X110.689 Y141.006 E661.35374
G1 X110.009 Y140.996 E663.08553
G1 X109.09 Y140.942 E665.42978
G1 X108.179 Y140.809 E667.77422
G1 X107.283 Y140.598 E670.11827
G1 X106.163 Y140.213 E673.13413
G1 X105.643 Y140.001 E674.56412
G1 X104.807 Y139.616 E676.90788
G1 X104.007 Y139.161 E679.2515
G1 X103.249 Y138.638 E681.59661
G1 X102.242 Y137.771 E684.98039
G1 X102.035 Y137.569 E685.71691
G1 X101.818 Y137.352 E686.49838
G1 X101.642 Y137.17 E687.1431
G1 X101.031 Y136.481 E689.48813
G1 X100.483 Y135.741 E691.83297
G1 X100.024 Y134.999 E694.05476
G1 X99.533 Y134.123 E696.61198
G1 X94.186 Y124.228 E725.25296
G1 X93.871 Y123.627 E726.98087
G1 X93.48 Y122.794 E729.32414
G1 X93.162 Y121.93 E731.66859
G1 X92.92 Y121.041 E734.01479
G1 X92.757 Y120.135 E736.35894
G1 X92.664 Y119.01 E739.2335
G1 X92.654 Y118.661 E740.12258
G1 X92.65 Y118.357 E740.89678
G1 X92.651 Y116.849 E744.73687
G1 X92.661 Y116.145 E746.52977
G1 X92.714 Y115.226 E748.87388
G1 X92.847 Y114.315 E751.21831
G1 X93.058 Y113.419 E753.56237
G1 X93.346 Y112.545 E755.90571
G1 X93.799 Y111.517 E758.76639
G1 X93.946 Y111.226 E759.59659
G1 X94.081 Y110.966 E760.34261
G1 X99.666 Y100.633 E790.25297
G1 X99.986 Y100.059 E791.92644
G1 X100.468 Y99.276 E794.26784
G1 X101.017 Y98.537 E796.61215
G1 X101.627 Y97.85 E798.95168
G0 F6000 X101.914 Y98.128
G1 F1200 X102.184 Y97.849 E799.94036
G1 X102.84 Y97.228 E802.24063
G1 X103.208 Y96.925 E803.45451
G1 X103.433 Y96.748 E804.18351
G1 X104.166 Y96.222 E806.48094
G1 X104.944 Y95.762 E808.78249
G1 X105.771 Y95.368 E811.11522
G1 X106.051 Y95.252 E811.887
G1 X106.357 Y95.13 E812.72587
G1 X107.21 Y94.833 E815.02592
G1 X108.086 Y94.613 E817.32591
G1 X108.978 Y94.471 E819.62597
G1 X109.979 Y94.406 E822.18036
G1 X110.851 Y94.394 E824.4011
G1 X124.154 Y94.393 E858.27691
G1 X124.985 Y94.404 E860.39322
G1 X125.887 Y94.457 E862.69411
G1 X126.78 Y94.59 E864.9932
G1 X127.658 Y94.801 E867.29266
G1 X128.686 Y95.158 E870.0638
G1 X129.206 Y95.37 E871.49379
G1 X130.026 Y95.747 E873.79202
G1 X130.81 Y96.196 E876.09269
G1 X131.551 Y96.712 E878.39206
G1 X132.479 Y97.515 E881.51707
G1 X132.686 Y97.717 E882.25358
G1 X132.894 Y97.926 E883.00445
G1 X133.071 Y98.109 E883.65276
G1 X133.669 Y98.785 E885.95107
G1 X134.206 Y99.512 E888.25263
G1 X134.631 Y100.202 E890.31627
G1 X135.034 Y100.919 E892.41073
G1 X140.386 Y110.819 E921.06896
G1 X140.781 Y111.574 E923.23878
G1 X141.163 Y112.393 E925.54005
G1 X141.471 Y113.242 E927.83988
G1 X141.697 Y114.088 E930.06975
G1 X141.854 Y114.978 E932.37111
G1 X141.936 Y115.998 E934.9769
G1 X141.946 Y116.335 E935.83544
G1 X141.95 Y116.645 E936.62491
G1 X141.948 Y118.181 E940.53631
G1 X141.939 Y118.817 E942.15603
G1 X141.886 Y119.719 E944.45692
G1 X141.754 Y120.612 E946.75563
G1 X141.543 Y121.49 E949.0551
G1 X141.256 Y122.346 E951.35414
G1 X140.815 Y123.33 E954.10001
G1 X140.311 Y124.312 E956.91078
G1 X140.21 Y124.503 E957.46097
G1 X134.979 Y134.183 E985.47985
G1 X134.658 Y134.757 E987.15457
G1 X134.183 Y135.524 E989.45193
G1 X133.642 Y136.247 E991.7514
G1 X133.109 Y136.847 E993.79508
G1 X132.86 Y137.106 E994.70998
G1 X132.652 Y137.317 E995.46447
G1 X132.49 Y137.476 E996.0425
G1 X131.818 Y138.079 E998.34166
G1 X131.095 Y138.621 E1000.64266
G1 X130.327 Y139.096 E1002.94219
G1 X129.473 Y139.523 E1005.37357
G1 X129.299 Y139.6 E1005.8581
G1 X128.959 Y139.743 E1006.79737
G1 X128.654 Y139.865 E1007.63387
G1 X127.802 Y140.163 E1009.93235
G1 X126.926 Y140.385 E1012.23359
G1 X126.034 Y140.528 E1014.53405
G1 X125.022 Y140.594 E1017.11656
G1 X124.149 Y140.606 E1019.33985
G1 X110.695 Y140.606 E1053.60018
G1 X110.015 Y140.596 E1055.33197
G1 X109.113 Y140.543 E1057.63286
G1 X108.22 Y140.41 E1059.93195
G1 X107.342 Y140.199 E1062.23141
G1 X106.314 Y139.842 E1065.00255
G1 X105.794 Y139.63 E1066.43254
G1 X104.974 Y139.253 E1068.73077
G1 X104.19 Y138.804 E1071.03144
G1 X103.449 Y138.288 E1073.3308
G1 X102.521 Y137.485 E1076.45582
G1 X102.314 Y137.283 E1077.19233
G1 X102.106 Y137.074 E1077.9432
G1 X101.93 Y136.892 E1078.58791
G1 X101.331 Y136.215 E1080.88981
G1 X100.795 Y135.489 E1083.18782
G1 X100.373 Y134.803 E1085.23877
G1 X99.884 Y133.932 E1087.7824
G1 X94.541 Y124.042 E1116.40733
G1 X94.226 Y123.441 E1118.13524
G1 X93.842 Y122.623 E1120.43636
G1 X93.533 Y121.775 E1122.73467
G1 X93.299 Y120.903 E1125.03376
G1 X93.144 Y120.013 E1127.33424
G1 X93.064 Y118.998 E1129.92693
G1 X93.054 Y118.649 E1130.81601
G1 X93.05 Y118.357 E1131.55966
G1 X93.051 Y116.855 E1135.38447
G1 X93.061 Y116.151 E1137.17737
G1 X93.114 Y115.25 E1139.47571
G1 X93.246 Y114.356 E1141.77695
G1 X93.457 Y113.478 E1144.07641
G1 X93.745 Y112.622 E1146.37627
G1 X94.156 Y111.697 E1148.95381
G1 X94.303 Y111.406 E1149.78402
G1 X94.433 Y111.156 E1150.50156
G1 X100.015 Y100.828 E1180.39709
G1 X100.335 Y100.254 E1182.07056
G1 X100.809 Y99.486 E1184.36875
G1 X101.35 Y98.762 E1186.67026
G1 X101.914 Y98.128 E1188.8311
G1 F1500 E1182.3311
;MESH:low-poly-pot-designed-by-additae.stl
G0 F6000 X108.816 Y104.691
G0 X109.585 Y105.456
G0 X104.022 Y116.49
G0 X104.022 Y118.51
G0 X109.869 Y129.331
G0 X110.088 Y129.552
G0 X124.746 Y129.806
;TYPE:WALL-INNER
G1 F1500 E1188.8311
G1 F1200 X110.256 Y129.807 E1225.72958
G1 X109.991 Y129.697 E1226.46023
G1 X109.73 Y129.434 E1227.40377
G1 X103.85 Y118.555 E1258.89446
G1 X103.85 Y116.445 E1264.26753
G1 X109.729 Y105.567 E1295.75478
G1 X109.99 Y105.304 E1296.69832
G1 X110.254 Y105.194 E1297.42661
G1 X124.744 Y105.193 E1334.32509
G1 X125.009 Y105.303 E1335.05573
G1 X125.27 Y105.566 E1335.99927
G1 X131.15 Y116.445 E1367.48997
G1 X131.149 Y118.554 E1372.86049
G1 X125.271 Y129.433 E1404.34877
G1 X125.01 Y129.696 E1405.29231
G1 X124.746 Y129.806 E1406.0206
G0 F6000 X124.826 Y130.206
;TYPE:WALL-OUTER
G1 F1200 X110.176 Y130.207 E1443.32652
G1 X109.763 Y130.035 E1444.46577
G1 X109.406 Y129.676 E1445.75503
G1 X103.45 Y118.656 E1477.65362
G1 X103.45 Y116.344 E1483.54108
G1 X109.405 Y105.325 E1515.43621
G1 X109.762 Y104.966 E1516.72547
G1 X110.174 Y104.794 E1517.86238
G1 X124.824 Y104.793 E1555.16829
G1 X125.237 Y104.965 E1556.30755
G1 X125.594 Y105.324 E1557.59681
G1 X131.55 Y116.344 E1589.49539
G1 X131.549 Y118.655 E1595.38031
G1 X125.595 Y129.675 E1627.27647
G1 X125.238 Y130.034 E1628.56573
G1 X124.826 Y130.206 E1629.70263
G0 F6000 X124.74 Y129.775
G0 X124.668 Y129.416
;TYPE:SKIN
G1 F1200 X110.336 Y129.417 E1666.19877
G1 X110.212 Y129.365 E1666.54118
G1 X110.045 Y129.197 E1667.14439
G1 X104.24 Y118.457 E1698.23289
G1 X104.24 Y116.543 E1703.10685
G1 X110.044 Y105.804 E1734.1919
G1 X110.212 Y105.634 E1734.80052
G1 X110.332 Y105.584 E1735.13156
G1 X124.664 Y105.583 E1771.6277
G1 X124.788 Y105.635 E1771.97011
G1 X124.955 Y105.803 E1772.57332
G1 X130.76 Y116.543 E1803.66182
G1 X130.759 Y118.456 E1808.53323
G1 X124.956 Y129.196 E1839.61931
G1 X124.788 Y129.366 E1840.22793
G1 X124.668 Y129.416 E1840.55898
G0 F6000 X124.774 Y129.674
G0 X110.587 Y129.697
G0 X110.587 Y129.255
G1 F1200 X109.873 Y128.541 E1843.13028
G0 F6000 X109.486 Y128.749
G0 X108.82 Y127.517
G0 X109.207 Y127.309
G1 F1200 X111.153 Y129.255 E1850.13834
G0 F6000 X111.719 Y129.255
G1 F1200 X108.542 Y126.078 E1861.57956
G0 F6000 X108.155 Y126.286
G0 X107.49 Y125.055
G0 X107.876 Y124.847
G1 F1200 X112.285 Y129.255 E1877.45574
G0 F6000 X112.85 Y129.255
G1 F1200 X107.211 Y123.616 E1897.76327
G0 F6000 X106.824 Y123.824
G0 X106.159 Y122.593
G0 X106.546 Y122.385
G1 F1200 X113.416 Y129.255 E1922.50397
G0 F6000 X113.982 Y129.255
G1 F1200 X105.88 Y121.154 E1951.67962
G0 F6000 X105.494 Y121.362
G0 X104.828 Y120.13
G0 X105.214 Y119.922
G1 F1200 X114.547 Y129.255 E1985.29023
G0 F6000 X115.113 Y129.255
G1 F1200 X104.549 Y118.691 E2023.33399
G0 F6000 X104.4 Y117.976
G1 F1200 X115.679 Y129.255 E2063.95266
G0 F6000 X116.244 Y129.255
G1 F1200 X104.4 Y117.41 E2106.60785
G0 F6000 X104.4 Y116.845
G1 F1200 X116.81 Y129.255 E2151.29955
G0 F6000 X117.376 Y129.255
G1 F1200 X104.506 Y116.385 E2197.64783
G0 F6000 X104.704 Y116.018
G1 F1200 X117.941 Y129.255 E2245.31778
G0 F6000 X118.507 Y129.255
G1 F1200 X104.903 Y115.651 E2294.3094
G0 F6000 X105.101 Y115.283
G1 F1200 X119.073 Y129.255 E2344.62627
G0 F6000 X119.638 Y129.255
G1 F1200 X105.3 Y114.916 E2396.26302
G0 F6000 X105.498 Y114.549
G1 F1200 X120.204 Y129.255 E2449.22322
G0 F6000 X120.77 Y129.255
G1 F1200 X105.696 Y114.182 E2503.5069
G0 F6000 X105.895 Y113.815
G1 F1200 X121.335 Y129.255 E2559.11043
G0 F6000 X121.901 Y129.255
G1 F1200 X106.094 Y113.448 E2616.03563
G0 F6000 X106.292 Y113.08
G1 F1200 X122.467 Y129.255 E2674.2861
G0 F6000 X123.033 Y129.255
G1 F1200 X106.49 Y112.713 E2733.86003
G0 F6000 X106.689 Y112.346
G1 F1200 X123.598 Y129.255 E2794.75382
G0 F6000 X124.164 Y129.255
G1 F1200 X106.888 Y111.979 E2856.96928
G0 F6000 X107.086 Y111.611
G1 F1200 X124.7 Y129.225 E2920.40197
G0 F6000 X124.936 Y128.896
G1 F1200 X107.285 Y111.244 E2983.9697
G0 F6000 X107.483 Y110.877
G1 F1200 X125.134 Y128.528 E3047.53563
G0 F6000 X125.333 Y128.161
G1 F1200 X107.681 Y110.51 E3111.10337
G0 F6000 X107.88 Y110.143
G1 F1200 X125.531 Y127.793 E3174.6675
G0 F6000 X125.729 Y127.427
G1 F1200 X108.079 Y109.776 E3238.23163
G0 F6000 X108.277 Y109.408
G1 F1200 X125.928 Y127.06 E3301.79937
G0 F6000 X126.126 Y126.692
G1 F1200 X108.475 Y109.041 E3365.3653
G0 F6000 X108.674 Y108.674
G1 F1200 X126.325 Y126.325 E3428.93123
G0 F6000 X126.523 Y125.957
G1 F1200 X108.872 Y108.306 E3492.49717
G0 F6000 X109.071 Y107.939
G1 F1200 X126.722 Y125.59 E3556.0631
G0 F6000 X126.92 Y125.223
G1 F1200 X109.269 Y107.572 E3619.62903
