;FLAVOR:Marlin
;TIME:5708
;Filament used: 226.117m
;Layer height: 0.2
;MINX:83.79
;MINY:98.783
;MINZ:0.2
;MAXX:151.218
;MAXY:136.218
;MAXZ:46
;Generated with Cura_SteamEngine 4.8.0
M140 S60
M105
M190 S60
M104 S210
M105
M109 S210
M82 ;absolute extrusion mode
; Ender 3 Custom Start G-code
G92 E0 ; Reset Extruder
G28 ; Home all axes
G1 Z2.0 F3000 ; Move Z Axis up little to prevent scratching of Heat Bed
G1 X0.1 Y20 Z0.3 F5000.0 ; Move to start position
G1 X0.1 Y200.0 Z0.3 F1500.0 E15 ; Draw the first line
G1 X0.4 Y200.0 Z0.3 F5000.0 ; Move to side a little
G1 X0.4 Y20 Z0.3 F1500.0 E30 ; Draw the second line
G92 E0 ; Reset Extruder
G1 Z2.0 F3000 ; Move Z Axis up little to prevent scratching of Heat Bed
G1 X5 Y20 Z0.3 F5000.0 ; Move over to prevent blob squish
G92 E0
G92 E0
G1 F1500 E-6.5
;LAYER_COUNT:230
;LAYER:0
M107
G0 F6000 X88.53 Y107.129 Z0.2
;TYPE:SKIRT
G1 F1500 E0
G1 F1200 X89.62 Y106.284 E3.51204
G1 X89.945 Y106.063 E4.51286
G1 X91.125 Y105.364 E8.00535
G1 X91.444 Y105.201 E8.91758
G1 X92.707 Y104.652 E12.42449
G1 X92.953 Y104.563 E13.09066
G1 X94.203 Y104.193 E16.41028
G1 X94.62 Y104.096 E17.50051
G1 X95.37 Y103.949 E19.44671
G1 X96.357 Y103.792 E21.99168
G1 X128.819 Y99.106 E105.51231
G1 X129.035 Y99.077 E106.06729
G1 X130.549 Y98.889 E109.95227
G1 X131.086 Y98.836 E111.32637
G1 X131.287 Y98.821 E111.83964
G1 X131.824 Y98.794 E113.20882
G1 X132.097 Y98.787 E113.90424
G1 X132.408 Y98.783 E114.69626
G1 X132.786 Y98.784 E115.65883
G1 X133.292 Y98.797 E116.94778
G1 X133.559 Y98.81 E117.62849
G1 X134.061 Y98.846 E118.91011
G1 X134.473 Y98.885 E119.96395
G1 X134.877 Y98.931 E120.99937
G1 X135.104 Y98.961 E121.58245
G1 X135.661 Y99.049 E123.01843
G1 X136.132 Y99.136 E124.23811
G1 X136.793 Y99.279 E125.96027
G1 X137.066 Y99.347 E126.6767
G1 X137.582 Y99.485 E128.03687
G1 X138.212 Y99.676 E129.71326
G1 X138.661 Y99.827 E130.91955
G1 X138.931 Y99.921 E131.64758
G1 X139.128 Y99.993 E132.18169
G1 X139.781 Y100.256 E133.97434
G1 X140.197 Y100.439 E135.13164
G1 X140.477 Y100.567 E135.91563
G1 X140.686 Y100.666 E136.50453
G1 X141.256 Y100.956 E138.13308
G1 X141.618 Y101.154 E139.18379
G1 X141.916 Y101.324 E140.05744
G1 X142.137 Y101.454 E140.71035
G1 X142.65 Y101.775 E142.25136
G1 X143.026 Y102.025 E143.40117
G1 X143.326 Y102.231 E144.32787
G1 X143.532 Y102.378 E144.97231
G1 X144.01 Y102.74 E146.4992
G1 X144.314 Y102.983 E147.49025
G1 X144.594 Y103.214 E148.4146
G1 X144.794 Y103.385 E149.08467
G1 X145.254 Y103.801 E150.66401
G1 X145.584 Y104.117 E151.82749
G1 X145.821 Y104.351 E152.67561
G1 X145.994 Y104.527 E153.30405
G1 X146.424 Y104.991 E154.91498
G1 X146.685 Y105.289 E155.92374
G1 X146.888 Y105.527 E156.72031
G1 X147.036 Y105.706 E157.31176
G1 X147.449 Y106.239 E159.02881
G1 X147.744 Y106.644 E160.30472
G1 X147.904 Y106.868 E161.0057
G1 X148.038 Y107.062 E161.60611
G1 X148.409 Y107.638 E163.3508
G1 X148.606 Y107.965 E164.32294
G1 X148.75 Y108.21 E165.04661
G1 X148.88 Y108.439 E165.71716
G1 X149.201 Y109.049 E167.47246
G1 X149.397 Y109.451 E168.61134
G1 X149.548 Y109.772 E169.51468
G1 X149.691 Y110.091 E170.4049
G1 X149.907 Y110.609 E171.83406
G1 X149.987 Y110.815 E172.3968
G1 X150.128 Y111.199 E173.43849
G1 X150.245 Y111.537 E174.3493
G1 X150.342 Y111.832 E175.14008
G1 X150.41 Y112.048 E175.71674
G1 X150.592 Y112.693 E177.42335
G1 X150.725 Y113.227 E178.82471
G1 X150.859 Y113.837 E180.4151
G1 X150.895 Y114.027 E180.90754
G1 X150.944 Y114.308 E181.6339
G1 X151.006 Y114.689 E182.61687
G1 X151.059 Y115.051 E183.54852
G1 X151.103 Y115.405 E184.45691
G1 X151.126 Y115.622 E185.01259
G1 X151.161 Y116.024 E186.04015
G1 X151.187 Y116.401 E187.00245
G1 X151.206 Y116.757 E187.91029
G1 X151.215 Y117.077 E188.72549
G1 X151.218 Y117.295 E189.28067
G1 X151.218 Y117.601 E190.05989
G1 X151.213 Y117.956 E190.96398
G1 X151.185 Y118.601 E192.60801
G1 X151.154 Y119.026 E193.69314
G1 X151.128 Y119.321 E194.44726
G1 X151.104 Y119.561 E195.06147
G1 X151.018 Y120.221 E196.75635
G1 X150.943 Y120.685 E197.95325
G1 X150.894 Y120.967 E198.68212
G1 X150.855 Y121.174 E199.21851
G1 X150.705 Y121.85 E200.9818
G1 X150.593 Y122.29 E202.13798
G1 X150.508 Y122.605 E202.96881
G1 X150.447 Y122.818 E203.53302
G1 X150.259 Y123.412 E205.11958
G1 X150.115 Y123.825 E206.23337
G1 X150.01 Y124.112 E207.01158
G1 X149.918 Y124.354 E207.67086
G1 X149.662 Y124.97 E209.36956
G1 X149.495 Y125.34 E210.40328
G1 X149.371 Y125.605 E211.14832
G1 X149.252 Y125.851 E211.8442
G1 X148.935 Y126.457 E213.58575
G1 X148.716 Y126.846 E214.72252
G1 X148.536 Y127.155 E215.63316
G1 X148.425 Y127.338 E216.17819
G1 X148.108 Y127.83 E217.66859
G1 X147.855 Y128.201 E218.8121
G1 X147.645 Y128.499 E219.74044
G1 X147.506 Y128.689 E220.33993
G1 X147.132 Y129.171 E221.89349
G1 X146.835 Y129.533 E223.08586
G1 X146.627 Y129.779 E223.90621
G1 X146.479 Y129.949 E224.48018
G1 X146.044 Y130.42 E226.11284
G1 X145.768 Y130.702 E227.11765
G1 X145.527 Y130.941 E227.98196
G1 X145.324 Y131.136 E228.69876
G1 X144.849 Y131.567 E230.33205
G1 X144.547 Y131.825 E231.34351
G1 X144.278 Y132.047 E232.23167
G1 X144.057 Y132.224 E232.95268
G1 X143.587 Y132.58 E234.45411
G1 X143.245 Y132.825 E235.52541
G1 X142.973 Y133.014 E236.36885
G1 X142.775 Y133.147 E236.97624
G1 X142.208 Y133.503 E238.6811
G1 X141.799 Y133.743 E239.88868
G1 X141.517 Y133.903 E240.71432
G1 X141.329 Y134.006 E241.2602
G1 X140.775 Y134.29 E242.84552
G1 X140.393 Y134.472 E243.92304
G1 X140.062 Y134.623 E244.84949
G1 X139.771 Y134.75 E245.65801
G1 X139.258 Y134.958 E247.06765
G1 X138.98 Y135.063 E247.82438
G1 X138.572 Y135.209 E248.92786
G1 X138.242 Y135.319 E249.81366
G1 X137.785 Y135.46 E251.03153
G1 X137.519 Y135.536 E251.736
G1 X137.052 Y135.658 E252.96511
G1 X136.65 Y135.754 E254.01758
G1 X136.226 Y135.847 E255.12296
G1 X135.993 Y135.893 E255.72774
G1 X135.473 Y135.982 E257.07116
G1 X135.061 Y136.043 E258.13175
G1 X134.674 Y136.094 E259.12576
G1 X134.415 Y136.123 E259.78942
G1 X133.83 Y136.172 E261.28432
G1 X133.383 Y136.198 E262.42452
G1 X132.778 Y136.217 E263.9659
G1 X132.45 Y136.218 E264.80115
G1 X132.121 Y136.214 E265.63901
G1 X131.785 Y136.205 E266.49493
G1 X131.388 Y136.187 E267.50692
G1 X131.277 Y136.18 E267.79014
G1 X130.627 Y136.12 E269.45239
G1 X129.073 Y135.929 E273.4394
G1 X128.843 Y135.898 E274.03038
G1 X96.113 Y131.172 E358.24102
G1 X95.519 Y131.078 E359.77246
G1 X95.139 Y131.011 E360.75504
G1 X94.784 Y130.942 E361.67596
G1 X93.552 Y130.628 E364.91352
G1 X93.146 Y130.499 E365.99832
G1 X91.878 Y130.007 E369.4618
G1 X91.639 Y129.897 E370.13178
G1 X90.804 Y129.469 E372.52114
G1 X90.395 Y129.225 E373.73391
G1 X90.084 Y129.03 E374.66866
G1 X89.013 Y128.266 E378.01875
G1 X88.716 Y128.026 E378.99112
G1 X88.013 Y127.406 E381.37804
G1 X87.662 Y127.054 E382.64389
G1 X87.484 Y126.867 E383.30132
G1 X86.635 Y125.86 E386.65538
G1 X86.403 Y125.549 E387.64342
G1 X85.637 Y124.373 E391.21733
G1 X85.473 Y124.082 E392.06793
G1 X84.889 Y122.879 E395.47324
G1 X84.761 Y122.569 E396.32729
G1 X84.326 Y121.302 E399.73854
G1 X84.245 Y121.009 E400.51264
G1 X83.96 Y119.65 E404.04859
G1 X83.907 Y119.283 E404.99284
G1 X83.797 Y117.949 E408.40138
G1 X83.79 Y117.626 E409.22408
G1 X83.846 Y116.25 E412.73094
G1 X83.88 Y115.923 E413.56813
G1 X84.017 Y114.996 E415.95435
G1 X84.119 Y114.519 E417.19648
G1 X84.205 Y114.157 E418.14396
G1 X84.586 Y112.895 E421.50088
G1 X84.694 Y112.602 E422.29607
G1 X85.232 Y111.377 E425.70309
G1 X85.379 Y111.091 E426.52196
G1 X86.088 Y109.902 E430.04715
G1 X86.284 Y109.616 E430.93006
G1 X87.13 Y108.533 E434.4296
G1 X87.374 Y108.258 E435.36579
G1 X88.327 Y107.308 E438.7924
G1 X88.53 Y107.129 E439.4816
G0 F6000 X88.794 Y107.429
G1 F1200 X89.845 Y106.615 E442.86678
G1 X90.17 Y106.394 E443.86761
G1 X91.307 Y105.72 E447.23344
G1 X91.626 Y105.557 E448.14566
G1 X92.843 Y105.028 E451.52484
G1 X93.089 Y104.939 E452.19101
G1 X94.293 Y104.583 E455.38819
G1 X94.71 Y104.486 E456.47842
G1 X95.434 Y104.344 E458.3572
G1 X96.415 Y104.188 E460.88669
G1 X128.877 Y99.502 E544.40732
G1 X129.085 Y99.474 E544.94176
G1 X130.599 Y99.286 E548.82674
G1 X131.116 Y99.234 E550.14992
G1 X131.317 Y99.219 E550.66318
G1 X131.834 Y99.193 E551.98137
G1 X132.107 Y99.186 E552.67679
G1 X132.407 Y99.183 E553.44077
G1 X132.785 Y99.184 E554.40335
G1 X133.272 Y99.197 E555.64392
G1 X133.539 Y99.21 E556.32464
G1 X134.023 Y99.244 E557.56017
G1 X134.435 Y99.283 E558.61401
G1 X134.825 Y99.327 E559.61344
G1 X135.052 Y99.357 E560.19652
G1 X135.588 Y99.442 E561.57848
G1 X136.059 Y99.529 E562.79817
G1 X136.696 Y99.667 E564.4579
G1 X136.969 Y99.735 E565.17433
G1 X137.478 Y99.871 E566.51596
G1 X138.085 Y100.055 E568.13113
G1 X138.534 Y100.206 E569.33742
G1 X138.794 Y100.297 E570.03889
G1 X138.991 Y100.369 E570.573
G1 X139.62 Y100.622 E572.29945
G1 X140.036 Y100.805 E573.45675
G1 X140.306 Y100.928 E574.21228
G1 X140.515 Y101.027 E574.80119
G1 X141.064 Y101.307 E576.37053
G1 X141.426 Y101.505 E577.42124
G1 X141.713 Y101.668 E578.26172
G1 X141.934 Y101.798 E578.91464
G1 X142.429 Y102.108 E580.40193
G1 X142.805 Y102.358 E581.55174
G1 X143.093 Y102.557 E582.44317
G1 X143.299 Y102.704 E583.08761
G1 X143.76 Y103.052 E584.55846
G1 X144.064 Y103.295 E585.54951
G1 X144.334 Y103.518 E586.44125
G1 X144.534 Y103.689 E587.11132
G1 X144.977 Y104.09 E588.63294
G1 X145.307 Y104.406 E589.79642
G1 X145.535 Y104.631 E590.61212
G1 X145.708 Y104.807 E591.24057
G1 X146.123 Y105.254 E592.79378
G1 X146.384 Y105.552 E593.80254
G1 X146.579 Y105.782 E594.5704
G1 X146.727 Y105.961 E595.16184
G1 X147.126 Y106.474 E596.8168
G1 X147.421 Y106.879 E598.09271
G1 X147.575 Y107.096 E598.77031
G1 X147.709 Y107.29 E599.37072
G1 X148.067 Y107.844 E601.05039
G1 X148.264 Y108.171 E602.02252
G1 X148.402 Y108.408 E602.7209
G1 X148.532 Y108.637 E603.39145
G1 X148.842 Y109.225 E605.08413
G1 X149.038 Y109.627 E606.22301
G1 X149.183 Y109.936 E607.0922
G1 X149.326 Y110.255 E607.98241
G1 X149.534 Y110.754 E609.35908
G1 X149.614 Y110.96 E609.92182
G1 X149.75 Y111.33 E610.92565
G1 X149.867 Y111.668 E611.83647
G1 X149.961 Y111.952 E612.59825
G1 X150.029 Y112.168 E613.1749
G1 X150.204 Y112.789 E614.81786
G1 X150.337 Y113.323 E616.21922
G1 X150.466 Y113.912 E617.75465
G1 X150.502 Y114.102 E618.24709
G1 X150.549 Y114.372 E618.94498
G1 X150.611 Y114.753 E619.92795
G1 X150.663 Y115.106 E620.83655
G1 X150.705 Y115.447 E621.71146
G1 X150.728 Y115.664 E622.26715
G1 X150.762 Y116.052 E623.25897
G1 X150.788 Y116.429 E624.22127
G1 X150.806 Y116.774 E625.101
G1 X150.815 Y117.082 E625.88565
G1 X150.818 Y117.3 E626.44083
G1 X150.818 Y117.595 E627.19205
G1 X150.813 Y117.95 E628.09614
G1 X150.786 Y118.572 E629.68154
G1 X150.755 Y118.997 E630.76667
G1 X150.73 Y119.281 E631.49266
G1 X150.706 Y119.521 E632.10687
G1 X150.623 Y120.157 E633.74016
G1 X150.548 Y120.621 E634.93706
G1 X150.501 Y120.893 E635.63997
G1 X150.462 Y121.1 E636.17636
G1 X150.317 Y121.752 E637.87723
G1 X150.205 Y122.192 E639.03341
G1 X150.123 Y122.495 E639.83275
G1 X150.062 Y122.708 E640.39695
G1 X149.881 Y123.28 E641.92472
G1 X149.737 Y123.693 E643.03851
G1 X149.636 Y123.97 E643.78932
G1 X149.544 Y124.212 E644.44859
G1 X149.297 Y124.806 E646.08676
G1 X149.13 Y125.176 E647.12049
G1 X149.011 Y125.431 E647.83707
G1 X148.892 Y125.677 E648.53294
G1 X148.587 Y126.261 E650.21069
G1 X148.368 Y126.65 E651.34746
G1 X148.194 Y126.947 E652.224
G1 X148.083 Y127.13 E652.76903
G1 X147.778 Y127.605 E654.2065
G1 X147.525 Y127.976 E655.35
G1 X147.322 Y128.263 E656.24518
G1 X147.183 Y128.453 E656.84467
G1 X146.823 Y128.917 E658.34016
G1 X146.526 Y129.279 E659.53254
G1 X146.326 Y129.516 E660.32223
G1 X146.178 Y129.686 E660.8962
G1 X145.758 Y130.14 E662.47114
G1 X145.482 Y130.422 E663.47595
G1 X145.25 Y130.652 E664.30785
G1 X145.047 Y130.847 E665.02465
G1 X144.589 Y131.262 E666.59851
G1 X144.287 Y131.52 E667.60997
G1 X144.028 Y131.735 E668.46714
G1 X143.807 Y131.912 E669.18816
G1 X143.354 Y132.255 E670.63508
G1 X143.012 Y132.5 E671.70639
G1 X142.75 Y132.682 E672.51874
G1 X142.552 Y132.815 E673.12613
G1 X142.006 Y133.158 E674.7681
G1 X141.597 Y133.398 E675.97568
G1 X141.325 Y133.552 E676.77163
G1 X141.137 Y133.655 E677.31751
G1 X140.603 Y133.928 E678.84473
G1 X140.221 Y134.11 E679.92225
G1 X139.902 Y134.256 E680.81561
G1 X139.611 Y134.383 E681.62414
G1 X139.116 Y134.584 E682.9846
G1 X138.838 Y134.689 E683.74133
G1 X138.445 Y134.829 E684.8037
G1 X138.115 Y134.939 E685.6895
G1 X137.675 Y135.075 E686.86225
G1 X137.409 Y135.151 E687.56672
G1 X136.959 Y135.269 E688.75138
G1 X136.557 Y135.365 E689.80385
G1 X136.148 Y135.454 E690.86973
G1 X135.915 Y135.5 E691.47451
G1 X135.414 Y135.587 E692.76939
G1 X135.002 Y135.648 E693.82998
G1 X134.63 Y135.696 E694.78512
G1 X134.371 Y135.725 E695.44878
G1 X133.807 Y135.773 E696.89019
G1 X133.36 Y135.799 E698.03039
G1 X132.776 Y135.817 E699.51824
G1 X132.448 Y135.818 E700.35348
G1 X132.132 Y135.814 E701.15824
G1 X131.796 Y135.805 E702.01416
G1 X131.413 Y135.788 E702.99042
G1 X131.302 Y135.781 E703.27364
G1 X130.676 Y135.723 E704.87457
G1 X129.122 Y135.532 E708.86157
G1 X128.9 Y135.502 E709.43203
G1 X96.175 Y130.777 E793.62971
G1 X95.581 Y130.683 E795.16114
G1 X95.216 Y130.618 E796.10523
G1 X94.861 Y130.549 E797.02614
G1 X93.673 Y130.246 E800.14821
G1 X93.267 Y130.117 E801.23301
G1 X92.045 Y129.644 E804.56978
G1 X91.806 Y129.534 E805.23976
G1 X90.607 Y128.886 E808.71036
G1 X90.296 Y128.691 E809.64512
G1 X89.265 Y127.955 E812.87087
G1 X88.968 Y127.715 E813.84325
G1 X88.277 Y127.105 E816.1904
G1 X87.952 Y126.778 E817.36442
G1 X87.774 Y126.591 E818.02185
G1 X86.956 Y125.621 E821.253
G1 X86.724 Y125.31 E822.24103
G1 X85.986 Y124.176 E825.68641
G1 X85.822 Y123.885 E826.53702
G1 X85.258 Y122.726 E829.81928
G1 X85.13 Y122.416 E830.67334
G1 X84.711 Y121.195 E833.96057
G1 X84.63 Y120.902 E834.73467
G1 X84.356 Y119.593 E838.14026
G1 X84.303 Y119.226 E839.08451
G1 X84.196 Y117.941 E842.36806
G1 X84.189 Y117.618 E843.19077
G1 X84.244 Y116.292 E846.5703
G1 X84.278 Y115.965 E847.40749
G1 X84.508 Y114.611 E850.90481
G1 X84.594 Y114.249 E851.85229
G1 X84.961 Y113.033 E855.08677
G1 X85.069 Y112.74 E855.88196
G1 X85.587 Y111.56 E859.16358
G1 X85.734 Y111.274 E859.98245
G1 X86.418 Y110.128 E863.38099
G1 X86.614 Y109.842 E864.2639
G1 X87.429 Y108.799 E867.63457
G1 X87.673 Y108.524 E868.57076
G1 X88.591 Y107.608 E871.87312
G1 X88.794 Y107.429 E872.56232
G0 F6000 X89.059 Y107.729
G1 F1200 X90.069 Y106.945 E875.81819
G1 X90.394 Y106.724 E876.81901
G1 X91.489 Y106.076 E880.05908
G1 X91.808 Y105.913 E880.9713
G1 X92.979 Y105.404 E884.22275
G1 X93.225 Y105.315 E884.88892
G1 X94.384 Y104.972 E887.96683
G1 X94.801 Y104.875 E889.05706
G1 X95.497 Y104.739 E890.86293
G1 X96.472 Y104.584 E893.37692
G1 X128.934 Y99.898 E976.89756
G1 X129.134 Y99.871 E977.41147
G1 X130.648 Y99.683 E981.29645
G1 X131.146 Y99.633 E982.57097
G1 X131.347 Y99.618 E983.08424
G1 X131.845 Y99.593 E984.35398
G1 X132.118 Y99.586 E985.0494
G1 X132.406 Y99.583 E985.78282
G1 X132.784 Y99.584 E986.7454
G1 X133.253 Y99.596 E987.94009
G1 X133.52 Y99.609 E988.6208
G1 X133.985 Y99.642 E989.80789
G1 X134.397 Y99.681 E990.86173
G1 X134.772 Y99.724 E991.82292
G1 X134.999 Y99.754 E992.406
G1 X135.516 Y99.836 E993.73898
G1 X135.987 Y99.923 E994.95866
G1 X136.599 Y100.055 E996.55295
G1 X136.872 Y100.123 E997.26938
G1 X137.373 Y100.257 E998.59001
G1 X137.957 Y100.434 E1000.14396
G1 X138.406 Y100.585 E1001.35025
G1 X138.853 Y100.745 E1002.55925
G1 X139.459 Y100.988 E1004.22186
G1 X139.875 Y101.171 E1005.37916
G1 X140.134 Y101.29 E1006.10498
G1 X140.343 Y101.389 E1006.69389
G1 X140.872 Y101.658 E1008.20514
G1 X141.234 Y101.856 E1009.25584
G1 X141.511 Y102.013 E1010.06664
G1 X141.732 Y102.143 E1010.71956
G1 X142.208 Y102.441 E1012.14963
G1 X142.584 Y102.691 E1013.29943
G1 X142.861 Y102.882 E1014.15623
G1 X143.067 Y103.029 E1014.80067
G1 X143.511 Y103.365 E1016.21857
G1 X143.815 Y103.608 E1017.20962
G1 X144.074 Y103.822 E1018.06516
G1 X144.274 Y103.993 E1018.73524
G1 X144.701 Y104.379 E1020.20101
G1 X145.031 Y104.695 E1021.36449
G1 X145.25 Y104.912 E1022.14958
G1 X145.423 Y105.088 E1022.77802
G1 X145.822 Y105.518 E1024.27179
G1 X146.083 Y105.816 E1025.28054
G1 X146.271 Y106.036 E1026.01746
G1 X146.419 Y106.215 E1026.60891
