;FLAVOR:Marlin
;TIME:6893
;Filament used: 260.909m
;Layer height: 0.2
;MINX:85.9
;MINY:74.9
;MINZ:0.2
;MAXX:149.1
;MAXY:160.1
;MAXZ:27.2
;ZOFFSETPROCESSED
;Generated with Cura_SteamEngine 4.8.0
M140 S60
M105
M190 S60
M104 S210
M105
M109 S210
M82 ;absolute extrusion mode
; Ender 3 Custom Start G-code
G92 E0 ; Reset Extruder
G28 ; Home all axes
G1 Z2.0 F3000 ; Move Z Axis up little to prevent scratching of Heat Bed
G1 X0.1 Y20 Z0.3 F5000.0 ; Move to start position
G1 X0.1 Y200.0 Z0.3 F1500.0 E15 ; Draw the first line
G1 X0.4 Y200.0 Z0.3 F5000.0 ; Move to side a little
G1 X0.4 Y20 Z0.3 F1500.0 E30 ; Draw the second line
G92 E0 ; Reset Extruder
G1 Z2.0 F3000 ; Move Z Axis up little to prevent scratching of Heat Bed
G1 X5 Y20 Z0.3 F5000.0 ; Move over to prevent blob squish
G92 E0
G92 E0
G1 F1500 E-6.5
;LAYER_COUNT:135
;LAYER:0
M107
G1 F300 Z0.6 ;adjusted by z offset
G0 F6000 X88.88 Y83.144 Z0.6 ;adjusted by z offset
;TYPE:SKIRT
G1 F300 Z0.4 ;adjusted by z offset
G1 F1500 E0
G1 F1200 X89.074 Y82.94 E0.71688
G1 X89.336 Y82.674 E1.66764
G1 X93.649 Y78.362 E17.1981
G1 X94.136 Y77.891 E18.92334
G1 X94.825 Y77.28 E21.26837
G1 X95.564 Y76.731 E23.61269
G1 X96.348 Y76.249 E25.95625
G1 X97.171 Y75.836 E28.30108
G1 X98.027 Y75.497 E30.64558
G1 X98.909 Y75.233 E32.99003
G1 X99.811 Y75.046 E35.3358
G1 X101.147 Y74.916 E38.75396
G1 X101.523 Y74.906 E39.71178
G1 X102.062 Y74.9 E41.08441
G1 X132.793 Y74.9 E119.34026
G1 X133.645 Y74.911 E121.51004
G1 X134.564 Y74.964 E123.85415
G1 X135.475 Y75.097 E126.19858
G1 X136.371 Y75.308 E128.54264
G1 X137.246 Y75.596 E130.8884
G1 X138.092 Y75.959 E133.23266
G1 X138.903 Y76.394 E135.57618
G1 X139.674 Y76.898 E137.92178
G1 X140.677 Y77.715 E141.216
G1 X140.83 Y77.856 E141.74583
G1 X141.049 Y78.064 E142.51496
G1 X141.306 Y78.316 E143.43152
G1 X145.638 Y82.65 E159.03581
G1 X146.109 Y83.137 E160.76105
G1 X146.72 Y83.826 E163.10608
G1 X147.269 Y84.565 E165.4504
G1 X147.751 Y85.349 E167.79396
G1 X148.164 Y86.172 E170.13879
G1 X148.503 Y87.028 E172.48329
G1 X148.767 Y87.91 E174.82774
G1 X148.954 Y88.812 E177.17351
G1 X149.084 Y90.148 E180.59167
G1 X149.094 Y90.524 E181.54949
G1 X149.1 Y91.063 E182.92212
G1 X149.099 Y143.944 E317.58249
G1 X149.089 Y144.646 E319.3703
G1 X149.036 Y145.565 E321.7144
G1 X148.903 Y146.476 E324.05883
G1 X148.692 Y147.372 E326.40289
G1 X148.404 Y148.247 E328.74865
G1 X148.041 Y149.093 E331.09291
G1 X147.606 Y149.904 E333.43643
G1 X147.102 Y150.675 E335.78203
G1 X146.261 Y151.704 E339.16619
G1 X146.12 Y151.856 E339.69415
G1 X145.926 Y152.06 E340.41103
G1 X145.745 Y152.245 E341.0701
G1 X141.368 Y156.621 E356.83103
G1 X140.874 Y157.1 E358.58326
G1 X140.186 Y157.712 E360.92808
G1 X139.447 Y158.261 E363.27239
G1 X138.664 Y158.745 E365.61646
G1 X137.841 Y159.158 E367.96129
G1 X136.986 Y159.499 E370.30531
G1 X136.104 Y159.764 E372.65049
G1 X135.203 Y159.952 E374.99428
G1 X133.853 Y160.084 E378.44842
G1 X133.477 Y160.094 E379.40623
G1 X132.938 Y160.1 E380.77887
G1 X102.056 Y160.099 E459.41924
G1 X101.354 Y160.089 E461.20705
G1 X100.435 Y160.036 E463.55115
G1 X99.524 Y159.903 E465.89559
G1 X98.628 Y159.692 E468.23964
G1 X97.753 Y159.404 E470.5854
G1 X96.907 Y159.041 E472.92966
G1 X96.096 Y158.606 E475.27318
G1 X95.325 Y158.102 E477.61879
G1 X94.296 Y157.261 E481.00294
G1 X94.144 Y157.12 E481.5309
G1 X93.936 Y156.922 E482.26218
G1 X93.664 Y156.654 E483.23455
G1 X89.362 Y152.351 E498.72899
G1 X88.891 Y151.864 E500.45424
G1 X88.28 Y151.175 E502.79927
G1 X87.731 Y150.436 E505.14358
G1 X87.249 Y149.652 E507.48715
G1 X86.836 Y148.829 E509.83198
G1 X86.497 Y147.973 E512.17648
G1 X86.233 Y147.091 E514.52093
G1 X86.046 Y146.189 E516.86669
G1 X85.916 Y144.853 E520.28486
G1 X85.906 Y144.477 E521.24267
G1 X85.9 Y143.938 E522.61531
G1 X85.901 Y91.056 E657.27822
G1 X85.911 Y90.354 E659.06603
G1 X85.964 Y89.435 E661.41013
G1 X86.097 Y88.524 E663.75456
G1 X86.308 Y87.628 E666.09862
G1 X86.596 Y86.753 E668.44438
G1 X86.959 Y85.907 E670.78864
G1 X87.394 Y85.096 E673.13216
G1 X87.898 Y84.325 E675.47777
G1 X88.739 Y83.296 E678.86192
G1 X88.88 Y83.144 E679.38988
G0 F6000 X89.173 Y83.416
G1 F1200 X89.36 Y83.22 E680.07971
G1 X89.619 Y82.956 E681.02149
G1 X93.927 Y78.649 E696.53394
G1 X94.414 Y78.178 E698.25918
G1 X95.09 Y77.58 E700.55749
G1 X95.817 Y77.043 E702.85905
G1 X96.588 Y76.573 E705.15843
G1 X97.398 Y76.173 E707.45887
G1 X98.24 Y75.847 E709.75811
G1 X99.107 Y75.596 E712.05656
G1 X99.994 Y75.423 E714.35785
G1 X101.161 Y75.316 E717.34206
G1 X101.528 Y75.306 E718.27696
G1 X102.062 Y75.3 E719.63687
G1 X132.793 Y75.3 E797.89272
G1 X133.639 Y75.311 E800.04722
G1 X134.541 Y75.364 E802.3481
G1 X135.434 Y75.496 E804.64682
G1 X136.313 Y75.707 E806.94876
G1 X137.169 Y75.995 E809.24861
G1 X137.996 Y76.357 E811.54747
G1 X138.788 Y76.791 E813.84724
G1 X139.538 Y77.294 E816.14685
G1 X140.406 Y78.009 E819.01053
G1 X140.559 Y78.15 E819.54036
G1 X140.77 Y78.35 E820.28068
G1 X140.934 Y78.51 E820.86413
G1 X145.351 Y82.928 E836.77272
G1 X145.822 Y83.415 E838.49797
G1 X146.42 Y84.091 E840.79627
G1 X146.957 Y84.818 E843.09784
G1 X147.427 Y85.589 E845.39722
G1 X147.827 Y86.399 E847.69766
G1 X148.153 Y87.241 E849.99689
G1 X148.404 Y88.108 E852.29535
G1 X148.577 Y88.995 E854.59664
G1 X148.684 Y90.162 E857.58084
G1 X148.694 Y90.529 E858.51575
G1 X148.7 Y91.063 E859.87565
G1 X148.699 Y143.938 E994.52074
G1 X148.689 Y144.64 E996.30854
G1 X148.636 Y145.542 E998.60943
G1 X148.504 Y146.435 E1000.90815
G1 X148.293 Y147.313 E1003.20761
G1 X148.005 Y148.169 E1005.50746
G1 X147.643 Y148.997 E1007.80865
G1 X147.209 Y149.789 E1010.10842
G1 X146.706 Y150.539 E1012.40803
G1 X145.968 Y151.432 E1015.3581
G1 X145.827 Y151.584 E1015.88605
G1 X145.64 Y151.78 E1016.57589
G1 X145.459 Y151.965 E1017.23496
G1 X141.089 Y156.334 E1032.97068
G1 X140.595 Y156.813 E1034.72291
G1 X139.92 Y157.412 E1037.02099
G1 X139.194 Y157.949 E1039.32051
G1 X138.423 Y158.42 E1041.62122
G1 X137.614 Y158.821 E1043.92051
G1 X136.773 Y159.149 E1046.21921
G1 X135.905 Y159.401 E1048.52082
G1 X135.019 Y159.575 E1050.8201
G1 X133.839 Y159.684 E1053.83774
G1 X133.472 Y159.694 E1054.77264
G1 X132.938 Y159.7 E1056.13255
G1 X102.062 Y159.699 E1134.75764
G1 X101.36 Y159.689 E1136.54545
G1 X100.458 Y159.636 E1138.84633
G1 X99.565 Y159.504 E1141.14505
G1 X98.687 Y159.293 E1143.44451
G1 X97.831 Y159.005 E1145.74436
G1 X97.003 Y158.643 E1148.04555
G1 X96.211 Y158.209 E1150.34532
G1 X95.461 Y157.706 E1152.64493
G1 X94.568 Y156.968 E1155.595
G1 X94.416 Y156.827 E1156.12295
G1 X94.216 Y156.636 E1156.82719
G1 X93.946 Y156.371 E1157.79057
G1 X89.649 Y152.073 E1173.267
G1 X89.178 Y151.586 E1174.99225
G1 X88.58 Y150.91 E1177.29055
G1 X88.043 Y150.183 E1179.59212
G1 X87.573 Y149.412 E1181.8915
G1 X87.173 Y148.602 E1184.19194
G1 X86.847 Y147.76 E1186.49117
G1 X86.596 Y146.893 E1188.78963
G1 X86.423 Y146.006 E1191.09092
G1 X86.316 Y144.839 E1194.07512
G1 X86.306 Y144.472 E1195.01003
G1 X86.3 Y143.938 E1196.36993
G1 X86.301 Y91.062 E1331.01756
G1 X86.311 Y90.36 E1332.80537
G1 X86.364 Y89.458 E1335.10626
G1 X86.496 Y88.565 E1337.40497
G1 X86.707 Y87.687 E1339.70444
G1 X86.995 Y86.831 E1342.00429
G1 X87.357 Y86.003 E1344.30548
G1 X87.791 Y85.211 E1346.60525
G1 X88.294 Y84.461 E1348.90486
G1 X89.032 Y83.568 E1351.85492
G1 X89.173 Y83.416 E1352.38288
G1 F1500 E1345.88288
G1 F300 Z0.6 ;adjusted by z offset
;MESH:OttoDIY_foot_V9.stl
G0 F6000 X127.561 Y96.403 Z0.6 ;adjusted by z offset
;TYPE:WALL-INNER
G1 F300 Z0.4 ;adjusted by z offset
G1 F1500 E1352.38288
G1 F1200 X127.374 Y96.403 E1352.85907
G1 X127.186 Y96.403 E1353.33781
G1 X127.055 Y96.411 E1353.67202
G1 X126.842 Y96.425 E1354.21559
G1 X126.826 Y96.428 E1354.25704
G1 X126.709 Y96.454 E1354.56225
G1 X126.43 Y96.518 E1355.29117
G1 X126.055 Y96.683 E1356.33445
G1 X125.72 Y96.929 E1357.39282
G1 X125.448 Y97.247 E1358.45842
G1 X125.253 Y97.613 E1359.51446
G1 X125.132 Y98.039 E1360.64217
G1 X125.09 Y98.468 E1361.73983
G1 X125.116 Y98.942 E1362.94868
G1 X125.206 Y99.39 E1364.11229
G1 X125.233 Y99.486 E1364.36624
G1 X125.379 Y99.868 E1365.40762
G1 X125.605 Y100.253 E1366.54445
G1 X125.875 Y100.655 E1367.7776
G1 X125.72 Y100.769 E1368.26756
G1 X125.448 Y101.087 E1369.33316
G1 X125.253 Y101.453 E1370.3892
G1 X125.132 Y101.879 E1371.51691
G1 X125.09 Y102.308 E1372.61457
G1 X125.116 Y102.782 E1373.82342
G1 X125.206 Y103.23 E1374.98703
G1 X125.233 Y103.326 E1375.24098
G1 X125.379 Y103.708 E1376.28236
G1 X125.605 Y104.093 E1377.41919
G1 X125.886 Y104.512 E1378.70389
G1 X125.831 Y104.572 E1378.91116
G1 X125.64 Y104.821 E1379.71029
G1 X125.447 Y105.151 E1380.6838
G1 X125.316 Y105.444 E1381.5011
G1 X125.217 Y105.763 E1382.35164
G1 X125.142 Y106.086 E1383.19604
G1 X125.105 Y106.413 E1384.03405
G1 X125.09 Y106.738 E1384.86254
G1 X125.105 Y107.061 E1385.68594
G1 X125.142 Y107.386 E1386.51889
G1 X125.217 Y107.708 E1387.3608
G1 X125.316 Y108.026 E1388.20892
G1 X125.451 Y108.325 E1389.04433
G1 X125.725 Y108.762 E1390.35779
G1 X125.984 Y109.069 E1391.3806
G1 X126.23 Y109.281 E1392.20756
G1 X126.434 Y109.431 E1392.85236
G1 X126.484 Y109.467 E1393.00925
G1 X126.507 Y109.479 E1393.07532
G1 X126.712 Y109.593 E1393.67263
G1 X126.571 Y109.657 E1393.72596
G1 X126.355 Y109.755 E1394.1088
G1 X126.303 Y109.787 E1394.26428
G1 X126.03 Y109.955 E1395.08055
G1 X125.685 Y110.265 E1396.26165
G1 X125.369 Y110.694 E1397.61846
G1 X125.166 Y111.191 E1398.98557
G1 X125.094 Y111.697 E1400.28706
G1 X125.1 Y112.052 E1401.19119
G1 X125.158 Y112.414 E1402.12477
G1 X125.276 Y112.789 E1403.12587
G1 X125.42 Y113.094 E1403.98475
G1 X125.478 Y113.181 E1404.25102
G1 X125.288 Y113.329 E1404.86431
G1 X125.17 Y113.823 E1406.15766
G1 X125.17 Y118.088 E1417.01839
G1 X128.324 Y118.088 E1425.04999
G1 X129.276 Y118.088 E1427.47424
G1 X128.404 Y118.47 E1428.71247
G1 X126.237 Y119.419 E1434.73665
G1 X123.81 Y118.262 E1441.5833
G1 X123.525 Y118.127 E1442.38635
G1 X123.525 Y118.442 E1442.84981
G1 X123.525 Y118.443 E1442.85236
G1 X123.526 Y120.382 E1447.78998
G1 X123.673 Y120.912 E1449.19057
G1 X124.082 Y121.225 E1450.50207
G1 X124.166 Y121.27 E1450.74473
G1 X131.278 Y124.287 E1470.41747
G1 X131.555 Y124.404 E1471.18319
G1 X131.555 Y124.104 E1471.62882
G1 X131.555 Y124.103 E1471.63137
G1 X131.555 Y122.158 E1476.58427
G1 X131.399 Y121.65 E1477.9375
G1 X130.984 Y121.307 E1479.30852
G1 X130.153 Y121.018 E1481.54897
G1 X130.152 Y121.017 E1481.55257
G1 X129.635 Y120.839 E1482.94494
G1 X130.147 Y120.645 E1483.68349
G1 X130.976 Y120.329 E1485.94269
G1 X131.376 Y120.031 E1487.21288
G1 X131.545 Y119.575 E1488.45126
G1 X131.555 Y119.394 E1488.91287
G1 X131.555 Y118.209 E1491.93045
G1 X131.555 Y118.169 E1492.03231
G1 X131.555 Y117.989 E1492.49068
G1 X131.887 Y118.169 E1493.08816
G1 X131.926 Y118.176 E1493.18244
G1 X132.333 Y118.253 E1494.23724
G1 X132.764 Y118.199 E1495.34335
G1 X132.998 Y118.113 E1495.9782
G1 X133.35 Y117.888 E1497.04203
G1 X133.64 Y117.556 E1498.16458
G1 X133.816 Y117.177 E1499.22868
G1 X133.889 Y116.736 E1500.36696
G1 X133.836 Y116.292 E1501.50562
G1 X133.656 Y115.884 E1502.6412
G1 X133.583 Y115.799 E1502.92652
G1 X133.371 Y115.552 E1503.75541
G1 X133.22 Y115.453 E1504.2152
G1 X133.371 Y115.453 E1504.24618
G1 X133.697 Y115.453 E1504.79345
G1 X133.855 Y115.453 E1505.19579
G1 X133.855 Y112.703 E1512.19861
G1 X131.79 Y112.703 E1517.45709
G1 X131.613 Y112.703 E1517.90781
G1 X131.59 Y112.703 E1517.96638
G1 X131.613 Y112.627 E1518.06669
G1 X131.629 Y112.451 E1518.38166
G1 X131.654 Y112.181 E1519.07215
G1 X131.637 Y111.811 E1520.01534
G1 X131.533 Y111.32 E1521.2934
G1 X131.388 Y110.947 E1522.31248
G1 X131.12 Y110.523 E1523.58979
G1 X130.869 Y110.236 E1524.5607
G1 X130.483 Y109.922 E1525.82779
G1 X130.305 Y109.811 E1526.36198
G1 X130.15 Y109.714 E1526.8276
G1 X129.984 Y109.645 E1527.28538
G1 X129.95 Y109.631 E1527.37901
G1 X129.998 Y109.609
G1 X130.059 Y109.571
G1 X130.213 Y109.474 E1527.72908
G1 X130.434 Y109.335 E1528.39391
G1 X130.688 Y109.123 E1529.23641
G1 X130.96 Y108.825 E1530.26384
G1 X131.244 Y108.386 E1531.59528
G1 X131.411 Y108.029 E1532.59892
G1 X131.51 Y107.706 E1533.4592
G1 X131.585 Y107.384 E1534.30111
G1 X131.62 Y107.06 E1535.13097
G1 X131.635 Y106.739 E1535.94928
G1 X131.622 Y106.415 E1536.77501
G1 X131.584 Y106.086 E1537.61837
G1 X131.511 Y105.765 E1538.45666
G1 X131.413 Y105.446 E1539.30646
G1 X131.279 Y105.146 E1540.14314
G1 X131.009 Y104.707 E1541.45556
G1 X130.951 Y104.636 E1541.68902
G1 X130.801 Y104.454 E1542.2896
G1 X130.615 Y104.278 E1542.94168
G1 X130.801 Y104.278 E1543.00744
G1 X131.037 Y104.278 E1543.45684
G1 X131.545 Y104.278 E1544.75045
G1 X131.545 Y102.993 E1548.02267
G1 X133.06 Y102.993 E1551.88059
G1 X133.06 Y101.496 E1555.69267
G1 X132.898 Y100.952 E1557.13807
G1 X132.451 Y100.682 E1558.46788
G1 X131.54 Y100.462 E1560.85441
G1 X131.471 Y100.445 E1561.03537
G1 X131.545 Y100.438 E1561.04727
G1 X131.545 Y99.153 E1564.3195
G1 X133.06 Y99.153 E1568.17741
G1 X133.06 Y97.656 E1571.98949
G1 X132.898 Y97.112 E1573.4349
G1 X132.451 Y96.842 E1574.76471
G1 X131.471 Y96.605 E1577.3322
G1 X131.29 Y95.673 E1579.74986
G1 X131.016 Y95.673 E1580.44759
G1 X130.96 Y95.673 E1580.5902
G1 X130.688 Y95.673 E1581.28284
G1 X130.64 Y95.673 E1581.40507
G1 X130.688 Y95.633
G1 X130.96 Y95.335 E1582.01653
G1 X130.99 Y95.288 E1582.14885
G1 X131.244 Y94.896 E1583.33831
G1 X131.411 Y94.539 E1584.34195
G1 X131.51 Y94.216 E1585.20223
G1 X131.585 Y93.894 E1586.04415
G1 X131.62 Y93.57 E1586.87401
G1 X131.635 Y93.249 E1587.69232
G1 X131.622 Y92.925 E1588.51804
G1 X131.584 Y92.596 E1589.3614
G1 X131.511 Y92.275 E1590.19969
G1 X131.413 Y91.956 E1591.04949
G1 X131.279 Y91.656 E1591.88618
G1 X131.009 Y91.217 E1593.19859
G1 X130.801 Y90.964 E1594.03263
G1 X130.572 Y90.747 E1594.836
G1 X130.324 Y90.551 E1595.64095
G1 X130.052 Y90.388 E1596.44844
G1 X129.77 Y90.253 E1597.24459
G1 X129.451 Y90.142 E1598.10469
G1 X129.124 Y90.06 E1598.96317
G1 X128.79 Y90.012 E1599.82243
G1 X128.459 Y89.992 E1600.66685
G1 X128.129 Y89.997 E1601.50729
G1 X127.791 Y90.03 E1602.37209
G1 X127.458 Y90.096 E1603.23656
G1 X127.128 Y90.192 E1604.11174
G1 X126.83 Y90.316 E1604.93366
G1 X126.55 Y90.464 E1605.74015
G1 X126.292 Y90.642 E1606.53834
G1 X126.045 Y90.848 E1607.35736
G1 X125.831 Y91.082 E1608.16484
G1 X125.64 Y91.331 E1608.96397
G1 X125.447 Y91.661 E1609.93748
G1 X125.316 Y91.954 E1610.75478
G1 X125.217 Y92.273 E1611.60532
G1 X125.142 Y92.596 E1612.44972
G1 X125.105 Y92.923 E1613.28773
G1 X125.09 Y93.248 E1614.11622
G1 X125.105 Y93.571 E1614.93962
G1 X125.142 Y93.896 E1615.77257
G1 X125.217 Y94.218 E1616.61448
G1 X125.316 Y94.536 E1617.4626
G1 X125.451 Y94.835 E1618.29801
G1 X125.725 Y95.272 E1619.61147
G1 X125.984 Y95.579 E1620.63428
G1 X126.23 Y95.791 E1621.46124
G1 X126.484 Y95.977 E1622.26293
G1 X126.653 Y96.07 E1622.75414
G1 X126.758 Y96.128 E1623.02646
G1 X126.939 Y96.21 E1623.36763
G1 X127.045 Y96.258 E1623.45396
G1 X127.214 Y96.31 E1623.63806
G1 X127.374 Y96.359 E1623.6955
G1 X127.561 Y96.403 E1623.7321
G0 F6000 X127.773 Y96.042
;TYPE:WALL-OUTER
G1 F1200 X128.075 Y96.075 E1624.50572
G1 X128.375 Y96.088 E1625.27038
G1 X128.674 Y96.074 E1626.03261
G1 X128.972 Y96.041 E1626.7961
G1 X129.264 Y95.973 E1627.55957
G1 X129.555 Y95.883 E1628.33522
G1 X129.807 Y95.767 E1629.04166
G1 X130.198 Y95.521 E1630.218
G1 X130.411 Y95.343 E1630.92487
G1 X130.642 Y95.09 E1631.79727
G1 X130.893 Y94.702 E1632.97402
G1 X131.037 Y94.395 E1633.83752
G1 X131.124 Y94.112 E1634.59146
G1 X131.19 Y93.827 E1635.33641
G1 X131.221 Y93.539 E1636.07403
G1 X131.235 Y93.248 E1636.81592
G1 X131.223 Y92.956 E1637.56012
G1 X131.189 Y92.664 E1638.30871
G1 X131.124 Y92.378 E1639.05558
G1 X131.038 Y92.096 E1639.80633
G1 X130.925 Y91.843 E1640.51193
G1 X130.683 Y91.45 E1641.68722
G1 X130.508 Y91.237 E1642.38921
G1 X130.31 Y91.05 E1643.08273
G1 X130.096 Y90.881 E1643.77712
G1 X129.862 Y90.741 E1644.4715
G1 X129.617 Y90.623 E1645.16398
G1 X129.337 Y90.526 E1645.91857
G1 X129.046 Y90.453 E1646.68255
G1 X128.749 Y90.41 E1647.44674
G1 X128.45 Y90.392 E1648.20952
G1 X128.151 Y90.397 E1648.97102
G1 X127.849 Y90.426 E1649.7436
G1 X127.553 Y90.485 E1650.51218
G1 X127.261 Y90.57 E1651.28662
G1 X127 Y90.678 E1652.0059
G1 X126.758 Y90.806 E1652.70304
