;FLAVOR:Marlin
;TIME:17681
;Filament used: 327.467m
;Layer height: 0.2
;MINX:75.333
;MINY:68.564
;MINZ:0.2
;MAXX:171.443
;MAXY:174.563
;MAXZ:30.2
;Generated with Cura_SteamEngine 4.8.0
M140 S60
M105
M190 S60
M104 S210
M105
M109 S210
M82 ;absolute extrusion mode
; Ender 3 Custom Start G-code
G92 E0 ; Reset Extruder
G28 ; Home all axes
G1 Z2.0 F3000 ; Move Z Axis up little to prevent scratching of Heat Bed
G1 X0.1 Y20 Z0.3 F5000.0 ; Move to start position
G1 X0.1 Y200.0 Z0.3 F1500.0 E15 ; Draw the first line
G1 X0.4 Y200.0 Z0.3 F5000.0 ; Move to side a little
G1 X0.4 Y20 Z0.3 F1500.0 E30 ; Draw the second line
G92 E0 ; Reset Extruder
G1 Z2.0 F3000 ; Move Z Axis up little to prevent scratching of Heat Bed
G1 X5 Y20 Z0.3 F5000.0 ; Move over to prevent blob squish
G92 E0
G92 E0
G1 F1500 E-6.5
;LAYER_COUNT:150
;LAYER:0
M107
G1 F300 Z0.4
G0 F6000 X78.526 Y80.227 Z0.4
;TYPE:SKIRT
G1 F300 Z0.2
G1 F1500 E0
G1 F1200 X79.214 Y79.589 E2.38934
G1 X79.953 Y79.013 E4.77529
G1 X80.739 Y78.501 E7.16402
G1 X81.566 Y78.058 E9.55307
G1 X82.428 Y77.688 E11.9418
G1 X83.318 Y77.392 E14.33022
G1 X84.23 Y77.173 E16.71863
G1 X85.157 Y77.032 E19.10637
G1 X86.033 Y76.972 E21.34231
G1 X86.354 Y76.963 E22.16005
G1 X86.662 Y76.959 E22.94443
G1 X87.777 Y76.96 E25.78376
G1 X88.574 Y76.971 E27.8135
G1 X89.142 Y76.993 E29.26098
G1 X91.75 Y77.117 E35.9097
G1 X94.244 Y77.166 E42.26185
G1 X96.806 Y77.142 E48.78621
G1 X99.282 Y77.05 E55.09564
G1 X101.778 Y76.886 E61.46536
G1 X104.316 Y76.647 E67.95692
G1 X106.8 Y76.341 E74.33019
G1 X109.294 Y75.963 E80.75364
G1 X111.791 Y75.512 E87.21508
G1 X114.209 Y75.006 E93.50584
G1 X116.676 Y74.414 E99.96635
G1 X119.124 Y73.753 E106.42338
G1 X121.51 Y73.037 E112.76695
G1 X123.93 Y72.234 E119.25983
G1 X126.275 Y71.382 E125.61325
G1 X128.596 Y70.464 E131.96913
G1 X129.945 Y69.882 E135.7104
G1 X131.033 Y69.427 E138.71348
G1 X131.913 Y69.102 E141.10233
G1 X133.13 Y68.787 E144.30352
G1 X134.056 Y68.642 E146.69029
G1 X134.976 Y68.577 E149.03889
G1 X135.294 Y68.568 E149.849
G1 X135.605 Y68.564 E150.64102
G1 X136.568 Y68.564 E153.09328
G1 X137.513 Y68.576 E155.49989
G1 X138.12 Y68.601 E157.04692
G1 X138.802 Y68.666 E158.79149
G1 X139.166 Y68.712 E159.72578
G1 X140.253 Y68.905 E162.53709
G1 X140.653 Y68.997 E163.58228
G1 X141.99 Y69.395 E167.13457
G1 X142.123 Y69.444 E167.4955
G1 X142.812 Y69.725 E169.39033
G1 X143.192 Y69.895 E170.45042
G1 X144.248 Y70.438 E173.47418
G1 X144.349 Y70.497 E173.77204
G1 X145.16 Y71.019 E176.22804
G1 X145.479 Y71.245 E177.22357
G1 X146.328 Y71.912 E179.97294
G1 X146.63 Y72.174 E180.99104
G1 X147.566 Y73.088 E184.32245
G1 X147.645 Y73.175 E184.6217
G1 X148.196 Y73.832 E186.80522
G1 X148.468 Y74.183 E187.936
G1 X149.132 Y75.141 E190.90422
G1 X149.195 Y75.243 E191.20951
G1 X149.679 Y76.113 E193.7447
G1 X149.893 Y76.542 E194.96552
G1 X150.354 Y77.601 E197.90667
G1 X150.391 Y77.7 E198.17581
G1 X150.708 Y78.69 E200.82291
G1 X150.84 Y79.18 E202.11516
G1 X150.988 Y79.797 E203.73091
G1 X151.232 Y80.973 E206.78935
G1 X151.362 Y81.642 E208.52481
G1 X151.904 Y84.073 E214.86729
G1 X152.521 Y86.51 E221.26887
G1 X153.211 Y88.945 E227.71369
G1 X153.967 Y91.349 E234.13099
G1 X154.794 Y93.742 E240.57835
G1 X155.678 Y96.078 E246.93862
G1 X156.628 Y98.397 E253.32021
G1 X157.652 Y100.701 E259.74067
G1 X158.899 Y103.3 E267.08133
G1 X160.025 Y105.475 E273.31813
G1 X161.264 Y107.71 E279.82554
G1 X162.536 Y109.86 E286.18689
G1 X163.888 Y112.004 E292.64142
G1 X165.286 Y114.087 E299.02963
G1 X166.776 Y116.179 E305.56995
G1 X167.645 Y117.341 E309.26489
G1 X168.474 Y118.431 E312.75212
G1 X169.01 Y119.201 E315.14119
G1 X169.493 Y120.044 E317.61526
G1 X169.747 Y120.536 E319.02524
G1 X170.142 Y121.387 E321.41436
G1 X170.58 Y122.669 E324.86422
G1 X170.633 Y122.862 E325.37388
G1 X170.749 Y123.322 E326.58193
G1 X170.965 Y124.27 E329.05787
G1 X171.048 Y124.666 E330.08818
G1 X171.18 Y125.328 E331.80714
G1 X171.328 Y126.297 E334.30329
G1 X171.375 Y126.732 E335.41746
G1 X171.413 Y127.162 E336.51671
G1 X171.443 Y128.1 E338.90653
G1 X171.36 Y129.341 E342.07377
G1 X171.293 Y129.862 E343.41141
G1 X171.275 Y129.987 E343.733
G1 X171.102 Y130.909 E346.12183
G1 X170.851 Y131.812 E348.50848
G1 X170.695 Y132.26 E349.71649
G1 X170.518 Y132.735 E351.00732
G1 X170.387 Y133.069 E351.92092
G1 X170.032 Y133.935 E354.30427
G1 X169.064 Y136.393 E361.0314
G1 X168.218 Y138.734 E367.37004
G1 X167.434 Y141.115 E373.75343
G1 X166.705 Y143.555 E380.23823
G1 X166.066 Y145.943 E386.53317
G1 X165.472 Y148.434 E393.0543
G1 X165.152 Y149.96 E397.02475
G1 X165.026 Y150.516 E398.47649
G1 X164.698 Y151.661 E401.50949
G1 X164.619 Y151.889 E402.12395
G1 X164.274 Y152.762 E404.51432
G1 X163.917 Y153.49 E406.57907
G1 X163.844 Y153.626 E406.97212
G1 X163.584 Y154.083 E408.31102
G1 X163.413 Y154.368 E409.15738
G1 X162.897 Y155.151 E411.5453
G1 X162.203 Y156.017 E414.37131
G1 X162.107 Y156.125 E414.73927
G1 X161.68 Y156.579 E416.32638
G1 X161.445 Y156.815 E417.17448
G1 X160.755 Y157.45 E419.56237
G1 X159.821 Y158.159 E422.54842
G1 X159.669 Y158.262 E423.01598
G1 X159.217 Y158.552 E424.38352
G1 X158.964 Y158.706 E425.13775
G1 X158.143 Y159.159 E427.52554
G1 X157.541 Y159.436 E429.21302
G1 X157.475 Y159.464 E429.39559
G1 X156.765 Y159.737 E431.33263
G1 X155.55 Y160.156 E434.60542
G1 X155.371 Y160.216 E435.08616
G1 X139.213 Y165.478 E478.35905
G1 X138.529 Y165.69 E480.18258
G1 X137.622 Y165.929 E482.57108
G1 X136.698 Y166.09 E484.95948
G1 X135.763 Y166.172 E487.34957
G1 X134.825 Y166.174 E489.73818
G1 X134.562 Y166.162 E490.4086
G1 X132.179 Y166.035 E496.48547
G1 X129.627 Y165.972 E502.98606
G1 X127.105 Y165.98 E509.40832
G1 X124.608 Y166.059 E515.77005
G1 X122.093 Y166.21 E522.18598
G1 X119.587 Y166.431 E528.59223
G1 X117.098 Y166.723 E534.97388
G1 X114.596 Y167.087 E541.41224
G1 X112.1 Y167.523 E547.8645
G1 X109.691 Y168.014 E554.12509
G1 X107.174 Y168.603 E560.70773
G1 X104.765 Y169.239 E567.05239
G1 X102.314 Y169.96 E573.55825
G1 X101.105 Y170.344 E576.7885
G1 X90.429 Y173.823 E605.38178
G1 X89.578 Y174.086 E607.64996
G1 X88.671 Y174.324 E610.03781
G1 X87.746 Y174.483 E612.42785
G1 X86.812 Y174.563 E614.81497
G1 X85.874 Y174.563 E617.20357
G1 X84.94 Y174.483 E619.59069
G1 X84.015 Y174.324 E621.98073
G1 X83.108 Y174.087 E624.36793
G1 X82.224 Y173.773 E626.75681
G1 X81.37 Y173.385 E629.14543
G1 X80.552 Y172.926 E631.53398
G1 X79.777 Y172.399 E633.92055
G1 X79.049 Y171.808 E636.30836
G1 X78.374 Y171.156 E638.69816
G1 X77.757 Y170.45 E641.08578
G1 X77.202 Y169.694 E643.47399
G1 X76.714 Y168.893 E645.86246
G1 X76.296 Y168.054 E648.24943
G1 X75.951 Y167.182 E650.63743
G1 X75.681 Y166.283 E653.02774
G1 X75.489 Y165.365 E655.41599
G1 X75.376 Y164.434 E657.80416
G1 X75.349 Y163.956 E659.02331
G1 X75.34 Y163.698 E659.6807
G1 X75.333 Y163.315 E660.65617
G1 X75.333 Y88.513 E851.1379
G1 X75.342 Y87.824 E852.89257
G1 X75.394 Y86.888 E855.27975
G1 X75.526 Y85.959 E857.66919
G1 X75.736 Y85.045 E860.05732
G1 X76.024 Y84.153 E862.44424
G1 X76.386 Y83.288 E864.83205
G1 X76.821 Y82.457 E867.22057
G1 X77.325 Y81.666 E869.60897
G1 X77.895 Y80.921 E871.99768
G1 X78.526 Y80.227 E874.38621
G0 F6000 X78.918 Y80.401
G1 F1200 X79.603 Y79.786 E876.73042
G1 X80.338 Y79.232 E879.07421
G1 X81.119 Y78.744 E881.41933
G1 X81.939 Y78.325 E883.76425
G1 X82.792 Y77.98 E886.10733
G1 X83.672 Y77.709 E888.45209
G1 X84.572 Y77.517 E890.79549
G1 X85.486 Y77.403 E893.14101
G1 X86.044 Y77.372 E894.56413
G1 X86.365 Y77.363 E895.38187
G1 X86.662 Y77.359 E896.13825
G1 X87.771 Y77.36 E898.96229
G1 X88.568 Y77.371 E900.99203
G1 X89.162 Y77.395 E902.50587
G1 X91.723 Y77.517 E909.0348
G1 X94.24 Y77.566 E915.4455
G1 X96.789 Y77.542 E921.93677
G1 X99.323 Y77.448 E928.39398
G1 X101.844 Y77.282 E934.82756
G1 X104.332 Y77.048 E941.19116
G1 X106.873 Y76.736 E947.71036
G1 X109.354 Y76.359 E954.1007
G1 X111.838 Y75.911 E960.5282
G1 X114.312 Y75.392 E966.96533
G1 X116.768 Y74.803 E973.39681
G1 X119.238 Y74.137 E979.91125
G1 X121.645 Y73.413 E986.3119
G1 X124.056 Y72.614 E992.77982
G1 X126.41 Y71.759 E999.15738
G1 X128.763 Y70.827 E1005.60215
G1 X130.099 Y70.251 E1009.30697
G1 X131.187 Y69.796 E1012.31006
G1 X132.051 Y69.478 E1014.65451
G1 X133.208 Y69.179 E1017.69758
G1 X134.118 Y69.038 E1020.04252
G1 X134.987 Y68.977 E1022.26086
G1 X135.305 Y68.968 E1023.07096
G1 X135.605 Y68.964 E1023.83497
G1 X136.715 Y68.965 E1026.66157
G1 X137.507 Y68.976 E1028.67857
G1 X138.032 Y68.996 E1030.01644
G1 X138.095 Y69 E1030.1772
G1 X138.752 Y69.063 E1031.85791
G1 X139.116 Y69.109 E1032.7922
G1 X140.163 Y69.295 E1035.50011
G1 X140.563 Y69.387 E1036.54529
G1 X141.851 Y69.771 E1039.96782
G1 X141.984 Y69.82 E1040.32876
G1 X142.649 Y70.09 E1042.15642
G1 X143.029 Y70.26 E1043.2165
G1 X144.047 Y70.783 E1046.13092
G1 X144.148 Y70.842 E1046.42878
G1 X144.929 Y71.346 E1048.79574
G1 X145.248 Y71.572 E1049.79127
G1 X146.066 Y72.214 E1052.43923
G1 X146.368 Y72.476 E1053.45734
G1 X147.269 Y73.357 E1056.66626
G1 X147.348 Y73.444 E1056.96552
G1 X147.88 Y74.077 E1059.07112
G1 X148.152 Y74.428 E1060.2019
G1 X148.791 Y75.351 E1063.0606
G1 X148.854 Y75.453 E1063.36589
G1 X149.321 Y76.291 E1065.80883
G1 X149.535 Y76.72 E1067.02964
G1 X149.979 Y77.741 E1069.8648
G1 X150.016 Y77.84 E1070.13393
G1 X150.322 Y78.794 E1072.68518
G1 X150.454 Y79.284 E1073.97744
G1 X150.596 Y79.879 E1075.53515
G1 X150.839 Y81.049 E1078.57811
G1 X150.965 Y81.699 E1080.26413
G1 X151.52 Y84.186 E1086.75301
G1 X152.136 Y86.621 E1093.14902
G1 X152.828 Y89.06 E1099.60503
G1 X153.583 Y91.462 E1106.01671
G1 X154.414 Y93.866 E1112.49387
G1 X155.31 Y96.235 E1118.94355
G1 X156.269 Y98.575 E1125.38331
G1 X157.284 Y100.859 E1131.74792
G1 X158.534 Y103.465 E1139.10796
G1 X159.678 Y105.674 E1145.44272
G1 X160.913 Y107.902 E1151.9296
G1 X162.203 Y110.081 E1158.37785
G1 X163.545 Y112.209 E1164.78433
G1 X164.96 Y114.32 E1171.25587
G1 X166.435 Y116.389 E1177.72632
G1 X167.366 Y117.635 E1181.68712
G1 X168.156 Y118.673 E1185.00883
G1 X168.681 Y119.429 E1187.35265
G1 X169.138 Y120.227 E1189.69437
G1 X169.392 Y120.719 E1191.10435
G1 X169.778 Y121.555 E1193.44918
G1 X170.195 Y122.775 E1196.73235
G1 X170.248 Y122.968 E1197.24201
G1 X170.359 Y123.411 E1198.40497
G1 X170.573 Y124.353 E1200.86488
G1 X170.655 Y124.744 E1201.88221
G1 X170.787 Y125.406 E1203.60117
G1 X170.931 Y126.34 E1206.00768
G1 X170.978 Y126.775 E1207.12184
G1 X171.015 Y127.192 E1208.1879
G1 X171.043 Y128.112 E1210.53174
G1 X170.963 Y129.292 E1213.54349
G1 X170.897 Y129.805 E1214.8606
G1 X170.879 Y129.93 E1215.18219
G1 X170.708 Y130.835 E1217.52753
G1 X170.32 Y132.12 E1220.94567
G1 X170.143 Y132.595 E1222.2365
G1 X170.017 Y132.917 E1223.117
G1 X169.636 Y133.845 E1225.67155
G1 X168.703 Y136.215 E1232.15752
G1 X167.837 Y138.61 E1238.64279
G1 X167.053 Y140.991 E1245.02619
G1 X166.321 Y143.442 E1251.54001
G1 X165.676 Y145.851 E1257.89056
G1 X165.077 Y148.365 E1264.47162
G1 X164.76 Y149.878 E1268.4081
G1 X164.636 Y150.427 E1269.84133
G1 X164.32 Y151.53 E1272.76309
G1 X164.241 Y151.758 E1273.37755
G1 X163.902 Y152.614 E1275.72205
G1 X163.565 Y153.301 E1277.67063
G1 X163.492 Y153.437 E1278.06369
G1 X163.241 Y153.878 E1279.35584
G1 X163.07 Y154.163 E1280.2022
G1 X162.563 Y154.931 E1282.54561
G1 X161.904 Y155.751 E1285.22448
G1 X161.808 Y155.859 E1285.59245
G1 X161.396 Y156.296 E1287.12185
G1 X161.161 Y156.532 E1287.96995
G1 X160.484 Y157.156 E1290.31451
G1 X159.596 Y157.828 E1293.1503
G1 X159.444 Y157.931 E1293.61786
G1 X159.009 Y158.211 E1294.93522
G1 X158.756 Y158.365 E1295.68944
G1 X157.95 Y158.809 E1298.03272
G1 X157.385 Y159.068 E1299.61544
G1 X157.319 Y159.096 E1299.79801
G1 X156.635 Y159.359 E1301.66412
G1 X155.247 Y159.836 E1305.40153
G1 X139.094 Y165.096 E1348.66073
G1 X138.41 Y165.308 E1350.48426
G1 X137.52 Y165.542 E1352.82766
G1 X136.612 Y165.698 E1355.17374
G1 X135.695 Y165.775 E1357.51708
G1 X134.841 Y165.774 E1359.69177
G1 X134.583 Y165.763 E1360.34936
G1 X132.175 Y165.634 E1366.49007
G1 X129.636 Y165.571 E1372.95757
G1 X127.125 Y165.579 E1379.35181
G1 X124.572 Y165.661 E1385.85633
G1 X122.07 Y165.811 E1392.23906
G1 X119.538 Y166.034 E1398.7117
G1 X117.035 Y166.327 E1405.12906
G1 X114.541 Y166.691 E1411.54726
G1 X112.017 Y167.132 E1418.07195
G1 X109.593 Y167.625 E1424.37098
G1 X107.111 Y168.206 E1430.8622
G1 X104.664 Y168.852 E1437.30692
G1 X102.178 Y169.583 E1443.90547
G1 X100.908 Y169.987 E1447.29919
G1 X90.139 Y173.495 E1476.14052
G1 X89.46 Y173.704 E1477.94963
G1 X88.57 Y173.936 E1480.29173
G1 X87.662 Y174.091 E1482.63739
G1 X86.744 Y174.165 E1484.98264
G1 X85.824 Y174.16 E1487.32543
G1 X84.907 Y174.075 E1489.67056
G1 X84.001 Y173.911 E1492.01517
G1 X83.113 Y173.669 E1494.35891
G1 X82.249 Y173.351 E1496.70336
G1 X81.416 Y172.959 E1499.04771
G1 X80.62 Y172.496 E1501.39266
G1 X79.867 Y171.966 E1503.73751
G1 X79.164 Y171.372 E1506.08117
G1 X78.514 Y170.72 E1508.42559
G1 X77.923 Y170.014 E1510.77017
G1 X77.396 Y169.259 E1513.11481
G1 X76.936 Y168.461 E1515.46034
G1 X76.548 Y167.627 E1517.80269
G1 X76.233 Y166.762 E1520.1469
G1 X75.994 Y165.872 E1522.49356
G1 X75.834 Y164.966 E1524.83637
G1 X75.748 Y163.943 E1527.45061
G1 X75.739 Y163.685 E1528.108
G1 X75.733 Y163.315 E1529.05032
G1 X75.733 Y88.519 E1719.51677
G1 X75.742 Y87.83 E1721.27145
G1 X75.794 Y86.91 E1723.61795
G1 X75.925 Y85.999 E1725.96165
G1 X76.136 Y85.103 E1728.30571
G1 X76.423 Y84.228 E1730.65067
G1 X76.785 Y83.382 E1732.99393
G1 X77.219 Y82.57 E1735.33849
G1 X77.721 Y81.798 E1737.68345
G1 X78.289 Y81.074 E1740.02676
G1 X78.918 Y80.401 E1742.37253
G0 F6000 X79.309 Y80.579
G1 F1200 X79.991 Y79.986 E1744.67392
G1 X80.722 Y79.456 E1746.97318
G1 X81.496 Y78.992 E1749.27119
G1 X82.309 Y78.599 E1751.57067
G1 X83.154 Y78.279 E1753.87157
G1 X84.024 Y78.035 E1756.17249
G1 X84.911 Y77.869 E1758.47043
G1 X86.055 Y77.772 E1761.39406
G1 X86.376 Y77.763 E1762.2118
G1 X86.662 Y77.759 E1762.94016
G1 X87.766 Y77.76 E1765.75148
G1 X88.563 Y77.771 E1767.78122
G1 X89.115 Y77.793 E1769.18799
G1 X91.732 Y77.917 E1775.8596
G1 X94.235 Y77.966 E1782.23466
G1 X96.807 Y77.942 E1788.78449
G1 X99.329 Y77.848 E1795.21117
G1 X101.872 Y77.681 E1801.70081
G1 X104.385 Y77.444 E1808.12851
G1 X106.91 Y77.134 E1814.60665
G1 X109.448 Y76.749 E1821.14355
G1 X111.92 Y76.303 E1827.54008
G1 X114.382 Y75.787 E1833.94573
G1 X116.902 Y75.182 E1840.5452
G1 X119.31 Y74.533 E1846.89593
G1 X121.781 Y73.79 E1853.46658
G1 X124.171 Y72.998 E1859.87813
G1 X126.557 Y72.131 E1866.34272
G1 X128.915 Y71.197 E1872.8012
G1 X130.254 Y70.62 E1876.51405
G1 X131.342 Y70.165 E1879.51713
G1 X132.189 Y69.854 E1881.8148
G1 X133.287 Y69.571 E1884.70221
G1 X134.179 Y69.433 E1887.00069
G1 X134.998 Y69.377 E1889.09113
G1 X135.316 Y69.368 E1889.90123
G1 X135.605 Y69.364 E1890.63723
G1 X136.71 Y69.365 E1893.45109
G1 X137.502 Y69.376 E1895.4681
G1 X138.006 Y69.395 E1896.75244
G1 X138.069 Y69.399 E1896.91319
G1 X138.702 Y69.459 E1898.53234
G1 X139.066 Y69.505 E1899.46663
G1 X140.073 Y69.685 E1902.07157
G1 X140.473 Y69.777 E1903.11676
G1 X141.713 Y70.146 E1906.41124
G1 X141.846 Y70.195 E1906.77218
G1 X142.485 Y70.455 E1908.52892
G1 X142.865 Y70.625 E1909.589
G1 X143.845 Y71.129 E1912.39523
G1 X143.946 Y71.188 E1912.69309
G1 X144.698 Y71.672 E1914.97039
G1 X145.017 Y71.898 E1915.96592
G1 X145.804 Y72.516 E1918.51405
G1 X146.106 Y72.778 E1919.53216
G1 X146.973 Y73.626 E1922.62043
G1 X147.052 Y73.713 E1922.91968
G1 X147.564 Y74.322 E1924.94573
G1 X147.836 Y74.673 E1926.07651
G1 X148.451 Y75.561 E1928.82714
G1 X148.514 Y75.663 E1929.13243
G1 X148.963 Y76.47 E1931.4841
G1 X149.177 Y76.899 E1932.70492
G1 X149.605 Y77.881 E1935.43275
G1 X149.642 Y77.98 E1935.70189
G1 X149.936 Y78.898 E1938.15651
G1 X150.068 Y79.388 E1939.44877
G1 X150.205 Y79.96 E1940.94655
G1 X150.419 Y80.987 E1943.61796
G1 X150.575 Y81.791 E1945.70351
G1 X151.127 Y84.266 E1952.1609
G1 X151.749 Y86.723 E1958.61497
G1 X152.438 Y89.151 E1965.04194
G1 X153.21 Y91.608 E1971.60022
G1 X154.038 Y94.002 E1978.05082
G1 X154.937 Y96.38 E1984.52463
G1 X155.892 Y98.711 E1990.93933
G1 X156.935 Y101.057 E1997.47717
G1 X158.163 Y103.617 E2004.70737
G1 X159.338 Y105.887 E2011.21636
G1 X160.562 Y108.094 E2017.64289
G1 X161.854 Y110.277 E2024.1025
G1 X163.218 Y112.44 E2030.61425
