;FLAVOR:Marlin
;TIME:30567
;Filament used: 681.753m
;Layer height: 0.2
;MINX:76.2
;MINY:76.199
;MINZ:0.2
;MAXX:158.8
;MAXY:158.801
;MAXZ:37
;Generated with Cura_SteamEngine 4.8.0
M140 S60
M105
M190 S60
M104 S210
M105
M109 S210
M82 ;absolute extrusion mode
; Ender 3 Custom Start G-code
G92 E0 ; Reset Extruder
G28 ; Home all axes
G1 Z2.0 F3000 ; Move Z Axis up little to prevent scratching of Heat Bed
G1 X0.1 Y20 Z0.3 F5000.0 ; Move to start position
G1 X0.1 Y200.0 Z0.3 F1500.0 E15 ; Draw the first line
G1 X0.4 Y200.0 Z0.3 F5000.0 ; Move to side a little
G1 X0.4 Y20 Z0.3 F1500.0 E30 ; Draw the second line
G92 E0 ; Reset Extruder
G1 Z2.0 F3000 ; Move Z Axis up little to prevent scratching of Heat Bed
G1 X5 Y20 Z0.3 F5000.0 ; Move over to prevent blob squish
G92 E0
G92 E0
G1 F1500 E-6.5
;LAYER_COUNT:185
;LAYER:0
M107
G0 F6000 X80.101 Y81.329 Z0.2
;TYPE:SKIRT
G1 F1500 E0
G1 F1200 X81.582 Y79.848 E5.33347
G1 X82.109 Y79.334 E7.20808
G1 X82.807 Y78.709 E9.59394
G1 X83.557 Y78.145 E11.98356
G1 X84.351 Y77.647 E14.37025
G1 X85.186 Y77.218 E16.76077
G1 X86.054 Y76.863 E19.14884
G1 X86.948 Y76.582 E21.5352
G1 X87.864 Y76.379 E23.92437
G1 X88.794 Y76.254 E26.31389
G1 X89.387 Y76.216 E27.82705
G1 X89.551 Y76.21 E28.24495
G1 X89.832 Y76.204 E28.96067
G1 X90.316 Y76.199 E30.19323
G1 X144.664 Y76.201 E168.58928
G1 X145.365 Y76.211 E170.37454
G1 X146.301 Y76.264 E172.76187
G1 X147.23 Y76.397 E175.15167
G1 X148.143 Y76.609 E177.53846
G1 X149.036 Y76.897 E179.9278
G1 X149.9 Y77.261 E182.31524
G1 X150.731 Y77.697 E184.70494
G1 X151.521 Y78.202 E187.09256
G1 X152.265 Y78.772 E189.47925
G1 X152.675 Y79.132 E190.86865
G1 X152.794 Y79.242 E191.28132
G1 X153.015 Y79.453 E192.0594
G1 X153.366 Y79.797 E193.3109
G1 X155.226 Y81.658 E200.01105
G1 X155.697 Y82.145 E201.7363
G1 X156.32 Y82.846 E204.12447
G1 X156.88 Y83.598 E206.51207
G1 X157.375 Y84.395 E208.90119
G1 X157.8 Y85.231 E211.28935
G1 X158.152 Y86.1 E213.67689
G1 X158.429 Y86.996 E216.06508
G1 X158.628 Y87.913 E218.45456
G1 X158.749 Y88.843 E220.84274
G1 X158.784 Y89.421 E222.3173
G1 X158.794 Y89.806 E223.29803
G1 X158.8 Y90.349 E224.68085
G1 X158.799 Y144.663 E362.99032
G1 X158.789 Y145.365 E364.77813
G1 X158.736 Y146.301 E367.16545
G1 X158.603 Y147.229 E369.55273
G1 X158.391 Y148.143 E371.942
G1 X158.103 Y149.036 E374.33134
G1 X157.739 Y149.9 E376.71878
G1 X157.303 Y150.731 E379.10848
G1 X156.798 Y151.521 E381.4961
G1 X156.228 Y152.265 E383.88279
G1 X155.842 Y152.702 E385.36755
G1 X155.549 Y153.013 E386.45562
G1 X155.187 Y153.384 E387.77558
G1 X153.43 Y155.14 E394.1012
G1 X152.893 Y155.664 E396.01182
G1 X152.195 Y156.29 E398.39938
G1 X151.445 Y156.854 E400.789
G1 X150.651 Y157.352 E403.17569
G1 X149.817 Y157.78 E405.56278
G1 X148.949 Y158.136 E407.95181
G1 X148.054 Y158.417 E410.3406
G1 X147.139 Y158.621 E412.72784
G1 X146.209 Y158.746 E415.11736
G1 X145.606 Y158.784 E416.65593
G1 X145.439 Y158.79 E417.08147
G1 X145.165 Y158.796 E417.77937
G1 X144.681 Y158.801 E419.01193
G1 X90.336 Y158.799 E557.40034
G1 X89.635 Y158.789 E559.1856
G1 X88.699 Y158.736 E561.57292
G1 X87.77 Y158.603 E563.96272
G1 X86.857 Y158.391 E566.34951
G1 X85.964 Y158.103 E568.73886
G1 X85.1 Y157.739 E571.1263
G1 X84.269 Y157.303 E573.516
G1 X83.479 Y156.798 E575.90362
G1 X82.735 Y156.228 E578.2903
G1 X82.325 Y155.868 E579.67971
G1 X82.206 Y155.758 E580.09237
G1 X81.982 Y155.545 E580.8795
G1 X81.626 Y155.195 E582.15079
G1 X79.774 Y153.342 E588.82214
G1 X79.303 Y152.855 E590.54738
G1 X78.68 Y152.154 E592.93555
G1 X78.12 Y151.402 E595.32315
G1 X77.625 Y150.605 E597.71227
G1 X77.2 Y149.769 E600.10043
G1 X76.848 Y148.9 E602.48797
G1 X76.571 Y148.004 E604.87616
G1 X76.372 Y147.087 E607.26564
G1 X76.251 Y146.157 E609.65382
G1 X76.216 Y145.579 E611.12838
G1 X76.206 Y145.194 E612.10911
G1 X76.2 Y144.65 E613.49448
G1 X76.2 Y90.338 E751.79885
G1 X76.21 Y89.633 E753.5943
G1 X76.263 Y88.697 E755.98162
G1 X76.396 Y87.768 E758.37142
G1 X76.608 Y86.854 E760.76069
G1 X76.896 Y85.962 E763.14761
G1 X77.26 Y85.098 E765.53505
G1 X77.695 Y84.267 E767.92357
G1 X78.2 Y83.477 E770.31119
G1 X78.771 Y82.732 E772.70145
G1 X79.362 Y82.08 E774.94233
G1 X80.101 Y81.329 E777.62536
G0 F6000 X80.384 Y81.611
G1 F1200 X81.861 Y80.135 E782.94263
G1 X82.388 Y79.621 E784.81723
G1 X83.074 Y79.007 E787.16164
G1 X83.811 Y78.455 E789.50644
G1 X84.593 Y77.97 E791.84968
G1 X85.415 Y77.554 E794.19568
G1 X86.269 Y77.211 E796.53922
G1 X87.15 Y76.943 E798.88417
G1 X88.051 Y76.753 E801.22901
G1 X89.401 Y76.616 E804.68442
G1 X89.565 Y76.61 E805.10232
G1 X89.836 Y76.604 E805.79258
G1 X90.316 Y76.599 E807.01496
G1 X144.658 Y76.601 E945.39573
G1 X145.359 Y76.611 E947.18099
G1 X146.278 Y76.664 E949.52509
G1 X147.189 Y76.797 E951.86953
G1 X148.085 Y77.008 E954.21358
G1 X148.96 Y77.296 E956.55934
G1 X149.806 Y77.659 E958.90361
G1 X150.617 Y78.094 E961.24712
G1 X151.388 Y78.598 E963.59273
G1 X152.403 Y79.426 E966.92833
G1 X152.522 Y79.536 E967.341
G1 X152.735 Y79.739 E968.09028
G1 X153.083 Y80.08 E969.33098
G1 X154.938 Y81.936 E976.01312
G1 X155.409 Y82.423 E977.73837
G1 X156.02 Y83.112 E980.0834
G1 X156.569 Y83.851 E982.42772
G1 X157.051 Y84.635 E984.77128
G1 X157.464 Y85.458 E987.11611
G1 X157.803 Y86.314 E989.46061
G1 X158.067 Y87.196 E991.80506
G1 X158.254 Y88.098 E994.15083
G1 X158.384 Y89.434 E997.56899
G1 X158.394 Y89.81 E998.5268
G1 X158.4 Y90.349 E999.89944
G1 X158.399 Y144.657 E1138.19363
G1 X158.389 Y145.359 E1139.98144
G1 X158.336 Y146.278 E1142.32554
G1 X158.203 Y147.189 E1144.66998
G1 X157.992 Y148.085 E1147.01403
G1 X157.704 Y148.96 E1149.35979
G1 X157.341 Y149.806 E1151.70406
G1 X156.906 Y150.617 E1154.04757
G1 X156.402 Y151.388 E1156.39318
G1 X155.549 Y152.43 E1159.82231
G1 X155.262 Y152.734 E1160.88692
G1 X154.904 Y153.101 E1162.19248
G1 X153.151 Y154.854 E1168.5055
G1 X152.614 Y155.378 E1170.41611
G1 X151.928 Y155.991 E1172.75882
G1 X151.191 Y156.543 E1175.10362
G1 X150.409 Y157.029 E1177.44821
G1 X149.588 Y157.445 E1179.79193
G1 X148.733 Y157.789 E1182.13879
G1 X147.853 Y158.057 E1184.48131
G1 X146.952 Y158.247 E1186.82614
G1 X145.592 Y158.384 E1190.30688
G1 X145.161 Y158.396 E1191.40484
G1 X144.681 Y158.401 E1192.62722
G1 X90.342 Y158.399 E1331.00034
G1 X89.641 Y158.389 E1332.78561
G1 X88.722 Y158.336 E1335.12971
G1 X87.811 Y158.203 E1337.47415
G1 X86.915 Y157.992 E1339.8182
G1 X86.04 Y157.704 E1342.16396
G1 X85.194 Y157.341 E1344.50822
G1 X84.383 Y156.906 E1346.85174
G1 X83.612 Y156.402 E1349.19735
G1 X82.597 Y155.574 E1352.53295
G1 X82.262 Y155.259 E1353.70392
G1 X81.909 Y154.913 E1354.96262
G1 X80.188 Y153.193 E1361.1586
G1 X79.591 Y152.577 E1363.34303
G1 X78.98 Y151.888 E1365.68807
G1 X78.431 Y151.149 E1368.03238
G1 X77.949 Y150.365 E1370.37594
G1 X77.536 Y149.542 E1372.72078
G1 X77.197 Y148.686 E1375.06528
G1 X76.933 Y147.804 E1377.40972
G1 X76.746 Y146.902 E1379.75549
G1 X76.616 Y145.566 E1383.17365
G1 X76.606 Y145.189 E1384.13401
G1 X76.6 Y144.65 E1385.50665
G1 X76.6 Y90.344 E1523.79575
G1 X76.61 Y89.639 E1525.59119
G1 X76.663 Y88.72 E1527.9353
G1 X76.796 Y87.808 E1530.28225
G1 X77.007 Y86.912 E1532.62631
G1 X77.295 Y86.038 E1534.96965
G1 X77.658 Y85.192 E1537.31391
G1 X78.093 Y84.38 E1539.65967
G1 X78.596 Y83.61 E1542.00175
G1 X79.165 Y82.886 E1544.34664
G1 X79.648 Y82.36 E1546.16513
G1 X80.384 Y81.611 E1548.83917
G0 F6000 X80.667 Y81.894
G1 F1200 X82.14 Y80.421 E1554.14383
G1 X82.667 Y79.907 E1556.01844
G1 X83.341 Y79.306 E1558.31801
G1 X84.065 Y78.766 E1560.61799
G1 X84.834 Y78.293 E1562.91701
G1 X85.643 Y77.89 E1565.21857
G1 X86.483 Y77.56 E1567.51676
G1 X87.35 Y77.305 E1569.81807
G1 X88.235 Y77.128 E1572.11634
G1 X89.416 Y77.016 E1575.13722
G1 X89.841 Y77.004 E1576.21991
G1 X90.316 Y76.999 E1577.42955
G1 X144.652 Y77.001 E1715.79504
G1 X145.353 Y77.011 E1717.5803
G1 X146.255 Y77.064 E1719.88119
G1 X147.148 Y77.196 E1722.1799
G1 X148.027 Y77.407 E1724.48184
G1 X148.883 Y77.695 E1726.7817
G1 X149.71 Y78.057 E1729.08055
G1 X150.502 Y78.491 E1731.38032
G1 X151.252 Y78.994 E1733.67993
G1 X152.132 Y79.72 E1736.58501
G1 X152.251 Y79.83 E1736.99768
G1 X152.456 Y80.025 E1737.71815
G1 X152.8 Y80.362 E1738.94445
G1 X154.651 Y82.214 E1745.61219
G1 X155.122 Y82.701 E1747.33744
G1 X155.72 Y83.377 E1749.63574
G1 X156.257 Y84.104 E1751.93731
G1 X156.727 Y84.875 E1754.23668
G1 X157.127 Y85.685 E1756.53713
G1 X157.453 Y86.527 E1758.83636
G1 X157.704 Y87.394 E1761.13482
G1 X157.877 Y88.281 E1763.4361
G1 X157.984 Y89.448 E1766.42031
G1 X157.994 Y89.815 E1767.35522
G1 X158 Y90.349 E1768.71512
G1 X157.999 Y144.651 E1906.99403
G1 X157.989 Y145.353 E1908.78184
G1 X157.936 Y146.255 E1911.08272
G1 X157.804 Y147.148 E1913.38144
G1 X157.593 Y148.026 E1915.6809
G1 X157.305 Y148.882 E1917.98076
G1 X156.943 Y149.71 E1920.28195
G1 X156.509 Y150.502 E1922.58171
G1 X156.006 Y151.252 E1924.88133
G1 X155.256 Y152.157 E1927.87441
G1 X154.976 Y152.455 E1928.91568
G1 X154.621 Y152.818 E1930.20862
G1 X152.872 Y154.567 E1936.50723
G1 X152.335 Y155.091 E1938.41785
G1 X151.661 Y155.693 E1940.71911
G1 X150.937 Y156.232 E1943.01757
G1 X150.168 Y156.706 E1945.31793
G1 X149.36 Y157.109 E1947.61721
G1 X148.519 Y157.44 E1949.9187
G1 X147.653 Y157.694 E1952.21685
G1 X146.767 Y157.872 E1954.51811
G1 X145.577 Y157.984 E1957.56181
G1 X145.156 Y157.996 E1958.63432
G1 X144.681 Y158.001 E1959.84396
G1 X90.348 Y157.999 E2098.20181
G1 X89.647 Y157.989 E2099.98707
G1 X88.745 Y157.936 E2102.28796
G1 X87.852 Y157.804 E2104.58667
G1 X86.973 Y157.593 E2106.88861
G1 X86.117 Y157.305 E2109.18847
G1 X85.29 Y156.943 E2111.48732
G1 X84.498 Y156.509 E2113.78709
G1 X83.748 Y156.006 E2116.0867
G1 X82.868 Y155.28 E2118.99178
G1 X82.749 Y155.17 E2119.40445
G1 X82.542 Y154.973 E2120.13212
G1 X82.192 Y154.63 E2121.38003
G1 X80.349 Y152.786 E2128.01896
G1 X79.878 Y152.299 E2129.74421
G1 X79.28 Y151.623 E2132.04251
G1 X78.743 Y150.896 E2134.34408
G1 X78.273 Y150.125 E2136.64345
G1 X77.873 Y149.315 E2138.9439
G1 X77.547 Y148.473 E2141.24313
G1 X77.296 Y147.606 E2143.54158
G1 X77.123 Y146.719 E2145.84287
G1 X77.016 Y145.552 E2148.82708
G1 X77.006 Y145.184 E2149.76453
G1 X77 Y144.65 E2151.12443
G1 X77 Y90.349 E2289.40079
G1 X77.01 Y89.644 E2291.19624
G1 X77.063 Y88.743 E2293.49459
G1 X77.195 Y87.849 E2295.79582
G1 X77.406 Y86.971 E2298.09529
G1 X77.694 Y86.115 E2300.39514
G1 X78.056 Y85.288 E2302.69399
G1 X78.49 Y84.496 E2304.99376
G1 X78.992 Y83.745 E2307.29407
G1 X79.559 Y83.042 E2309.59395
G1 X79.933 Y82.641 E2310.99029
G1 X80.667 Y81.894 E2313.65713
G1 F1500 E2307.15713
;MESH:OttoDIY_head_V9.stl
G0 F6000 X87.411 Y88.636
G0 X88.178 Y89.401
G0 X87.973 Y90.108
G0 X87.974 Y144.894
G0 X90.106 Y147.026
G0 X144.966 Y147.201
;TYPE:WALL-INNER
G1 F1500 E2313.65713
G1 F1200 X90.035 Y147.2 E2453.53777
G1 X87.8 Y144.965 E2461.5866
G1 X87.799 Y90.036 E2601.46215
G1 X90.034 Y87.799 E2609.51458
G1 X144.965 Y87.8 E2749.39522
G1 X147.2 Y90.035 E2757.44405
G1 X147.2 Y144.965 E2897.32215
G1 X144.966 Y147.201 E2905.37097
G0 F6000 X145.132 Y147.601
;TYPE:WALL-OUTER
G1 F1200 X89.869 Y147.6 E3046.09705
G1 X87.4 Y145.131 E3054.98857
G1 X87.399 Y89.87 E3195.70955
G1 X89.868 Y87.399 E3204.60468
G1 X145.131 Y87.4 E3345.33075
G1 X147.6 Y89.869 E3354.22228
G1 X147.6 Y145.131 E3494.9458
G1 X145.132 Y147.601 E3503.83733
G0 F6000 X144.964 Y147.195
G0 X144.806 Y146.811
;TYPE:SKIN
G1 F1200 X90.195 Y146.81 E3642.9031
G1 X88.19 Y144.805 E3650.12364
G1 X88.189 Y90.196 E3789.18431
G1 X90.194 Y88.189 E3796.40845
G1 X144.805 Y88.19 E3935.47422
G1 X146.81 Y90.195 E3942.69476
G1 X146.81 Y144.805 E4081.75798
G1 X144.806 Y146.811 E4088.97852
G1 F1500 E4082.47852
G0 F6000 X145.002 Y147.008
G0 X90.106 Y147.026
G0 X87.974 Y144.894
G0 X87.909 Y144.352
G0 X88.349 Y144.352
G1 F1500 E4088.97852
G1 F1200 X90.646 Y146.648 E4097.24882
G0 F6000 X91.211 Y146.648
G1 F1200 X88.349 Y143.786 E4107.55565
G0 F6000 X88.349 Y143.22
G1 F1200 X91.777 Y146.648 E4119.90078
G0 F6000 X92.343 Y146.648
G1 F1200 X88.349 Y142.655 E4134.28244
G0 F6000 X88.349 Y142.089
G1 F1200 X92.908 Y146.648 E4150.7006
G0 F6000 X93.474 Y146.648
G1 F1200 X88.349 Y141.523 E4169.15709
G0 F6000 X88.349 Y140.958
G1 F1200 X94.04 Y146.648 E4189.65009
G0 F6000 X94.605 Y146.648
G1 F1200 X88.349 Y140.392 E4212.1796
G0 F6000 X88.349 Y139.826
G1 F1200 X95.171 Y146.648 E4236.74744
G0 F6000 X95.737 Y146.648
G1 F1200 X88.349 Y139.261 E4263.35178
G0 F6000 X88.349 Y138.695
G1 F1200 X96.302 Y146.648 E4291.99265
G0 F6000 X96.868 Y146.648
G1 F1200 X88.349 Y138.129 E4322.67182
G0 F6000 X88.349 Y137.564
G1 F1200 X97.434 Y146.648 E4355.38752
G0 F6000 X98 Y146.648
G1 F1200 X88.349 Y136.998 E4390.14153
G0 F6000 X88.349 Y136.432
G1 F1200 X98.565 Y146.648 E4426.93206
G0 F6000 X99.131 Y146.648
G1 F1200 X88.349 Y135.867 E4465.7591
G0 F6000 X88.349 Y135.301
G1 F1200 X99.697 Y146.648 E4506.62445
G0 F6000 X100.262 Y146.648
G1 F1200 X88.349 Y134.735 E4549.52633
G0 F6000 X88.349 Y134.169
G1 F1200 X100.828 Y146.648 E4594.46652
G0 F6000 X101.394 Y146.648
G1 F1200 X88.349 Y133.604 E4641.44322
G0 F6000 X88.349 Y133.038
G1 F1200 X101.959 Y146.648 E4690.45644
G0 F6000 X102.525 Y146.648
G1 F1200 X88.349 Y132.472 E4741.50798
G0 F6000 X88.349 Y131.907
G1 F1200 X103.091 Y146.648 E4794.59603
G0 F6000 X103.656 Y146.648
G1 F1200 X88.349 Y131.341 E4849.7206
G0 F6000 X88.349 Y130.775
G1 F1200 X104.222 Y146.648 E4906.88348
G0 F6000 X104.788 Y146.648
G1 F1200 X88.349 Y130.21 E4966.08288
G0 F6000 X88.349 Y129.644
G1 F1200 X105.353 Y146.648 E5027.31879
G0 F6000 X105.919 Y146.648
G1 F1200 X88.349 Y129.078 E5090.59303
G0 F6000 X88.349 Y128.513
G1 F1200 X106.485 Y146.648 E5155.90377
G0 F6000 X107.051 Y146.648
G1 F1200 X88.349 Y127.947 E5223.25283
G0 F6000 X88.349 Y127.381
G1 F1200 X107.616 Y146.648 E5292.63841
G0 F6000 X108.182 Y146.648
G1 F1200 X88.349 Y126.816 E5364.06051
G0 F6000 X88.349 Y126.25
G1 F1200 X108.748 Y146.648 E5437.52091
G0 F6000 X109.313 Y146.648
G1 F1200 X88.349 Y125.684 E5513.01784
G0 F6000 X88.349 Y125.119
G1 F1200 X109.879 Y146.648 E5590.55128
G0 F6000 X110.445 Y146.648
G1 F1200 X88.349 Y124.553 E5670.12304
G0 F6000 X88.349 Y123.987
G1 F1200 X111.01 Y146.648 E5751.73131
G0 F6000 X111.576 Y146.648
G1 F1200 X88.349 Y123.421 E5835.3779
G0 F6000 X88.349 Y122.856
G1 F1200 X112.142 Y146.648 E5921.061
G0 F6000 X112.707 Y146.648
G1 F1200 X88.349 Y122.29 E6008.78062
G0 F6000 X88.349 Y121.724
G1 F1200 X113.273 Y146.648 E6098.53856
G0 F6000 X113.839 Y146.648
G1 F1200 X88.349 Y121.159 E6190.33301
G0 F6000 X88.349 Y120.593
G1 F1200 X114.404 Y146.648 E6284.16397
G0 F6000 X114.97 Y146.648
G1 F1200 X88.349 Y120.027 E6380.03326
G0 F6000 X88.349 Y119.462
G1 F1200 X115.536 Y146.648 E6477.93905
G0 F6000 X116.101 Y146.648
G1 F1200 X88.349 Y118.896 E6577.88137
G0 F6000 X88.349 Y118.33
G1 F1200 X116.667 Y146.648 E6679.862
G0 F6000 X117.233 Y146.648
G1 F1200 X88.349 Y117.765 E6783.87914
G0 F6000 X88.349 Y117.199
G1 F1200 X117.799 Y146.649 E6889.9364
G0 F6000 X118.365 Y146.649
G1 F1200 X88.349 Y116.633 E6998.03198
G0 F6000 X88.349 Y116.068
G1 F1200 X118.931 Y146.649 E7108.16408
G0 F6000 X119.496 Y146.649
G1 F1200 X88.349 Y115.502 E7220.33269
G0 F6000 X88.349 Y114.936
G1 F1200 X120.062 Y146.649 E7334.53961
G0 F6000 X120.628 Y146.649
G1 F1200 X88.349 Y114.37 E7450.78485
G0 F6000 X88.349 Y113.805
G1 F1200 X121.193 Y146.649 E7569.06481
G0 F6000 X121.759 Y146.649
G1 F1200 X88.349 Y113.239 E7689.38308
G0 F6000 X88.349 Y112.673
G1 F1200 X122.325 Y146.649 E7811.73967
G0 F6000 X122.89 Y146.649
G1 F1200 X88.349 Y112.108 E7936.13097
G0 F6000 X88.349 Y111.542
G1 F1200 X123.456 Y146.649 E8062.56059
G0 F6000 X124.022 Y146.649
G1 F1200 X88.349 Y110.976 E8191.02853
G0 F6000 X88.349 Y110.411
G1 F1200 X124.587 Y146.649 E8321.53118
G0 F6000 X125.153 Y146.649
G1 F1200 X88.349 Y109.845 E8454.07215
G0 F6000 X88.349 Y109.279
G1 F1200 X125.719 Y146.649 E8588.65143
G0 F6000 X126.285 Y146.649
G1 F1200 X88.349 Y108.714 E8725.26723
G0 F6000 X88.349 Y108.148
G1 F1200 X126.85 Y146.649 E8863.91954
G0 F6000 X127.416 Y146.649
G1 F1200 X88.349 Y107.582 E9004.61017
G0 F6000 X88.349 Y107.017
G1 F1200 X127.982 Y146.649 E9147.33732
G0 F6000 X128.547 Y146.649
G1 F1200 X88.349 Y106.451 E9292.10098
G0 F6000 X88.349 Y105.885
G1 F1200 X129.113 Y146.649 E9438.90296
