;FLAVOR:Marlin
;TIME:1843
;Filament used: 62.6876m
;Layer height: 0.2
;MINX:82.006
;MINY:95.256
;MINZ:0.2
;MAXX:137.994
;MAXY:124.744
;MAXZ:5.5
;Generated with Cura_SteamEngine 4.2.1
M140 S50
M105
M190 S50
M104 S210
M105
M109 S210
M82 ;absolute extrusion mode
M201 X500.00 Y500.00 Z100.00 E5000.00 ;Setup machine max acceleration
M203 X500.00 Y500.00 Z10.00 E50.00 ;Setup machine max feedrate
M204 P500.00 R1000.00 T500.00 ;Setup Print/Retract/Travel acceleration
M205 X8.00 Y8.00 Z0.40 E5.00 ;Setup Jerk
M220 S100 ;Reset Feedrate
M221 S100 ;Reset Flowrate

G28 ;Home

G92 E0 ;Reset Extruder
G1 Z2.0 F3000 ;Move Z Axis up
G1 X10.1 Y20 Z0.28 F5000.0 ;Move to start position
G1 X10.1 Y200.0 Z0.28 F1500.0 E15 ;Draw the first line
G1 X10.4 Y200.0 Z0.28 F5000.0 ;Move to side a little
G1 X10.4 Y20 Z0.28 F1500.0 E30 ;Draw the second line
G92 E0 ;Reset Extruder
G1 Z2.0 F3000 ;Move Z Axis up

G92 E0
G92 E0
G1 F2700 E-5
;LAYER_COUNT:25
;LAYER:0
M107
M204 S500
M205 X8 Y8
G0 F6000 X86.397 Y99.494 Z0.2
;TYPE:SKIRT
G1 F2700 E0
G1 F1200 X86.608 Y99.311 E0.78236
G1 X86.89 Y99.084 E1.79641
G1 X86.954 Y99.033 E2.02564
G1 X88.403 Y97.919 E7.14534
G1 X88.446 Y97.887 E7.29548
G1 X88.981 Y97.488 E9.16496
G1 X89.437 Y97.198 E10.6787
G1 X89.71 Y97.065 E11.52933
G1 X90.849 Y96.57 E15.00808
G1 X90.905 Y96.546 E15.17874
G1 X91.828 Y96.163 E17.97794
G1 X91.879 Y96.143 E18.13139
G1 X92.483 Y95.903 E19.95194
G1 X92.999 Y95.741 E21.46688
G1 X93.298 Y95.684 E22.3195
G1 X94.505 Y95.505 E25.73744
G1 X94.562 Y95.497 E25.89866
G1 X95.567 Y95.364 E28.73834
G1 X95.619 Y95.357 E28.88531
G1 X96.282 Y95.279 E30.75527
G1 X96.823 Y95.256 E32.27205
G1 X97.129 Y95.278 E33.1314
G1 X98.923 Y95.485 E38.18997
G1 X101.708 Y95.765 E46.03043
G1 X104.396 Y95.959 E53.57945
G1 X107.09 Y96.078 E61.13304
G1 X109.849 Y96.121 E68.86229
G1 X112.577 Y96.087 E76.50436
G1 X115.306 Y95.975 E84.15507
G1 X117.986 Y95.789 E91.68015
G1 X120.737 Y95.521 E99.42253
G1 X121.394 Y95.44 E101.2768
G1 X121.417 Y95.437 E101.34177
G1 X122.788 Y95.278 E105.20786
G1 X123.329 Y95.256 E106.72452
G1 X123.629 Y95.278 E107.56712
G1 X124.819 Y95.415 E110.92247
G1 X124.876 Y95.422 E111.08334
G1 X125.928 Y95.56 E114.05537
G1 X125.976 Y95.567 E114.19125
G1 X126.598 Y95.657 E115.95169
G1 X127.126 Y95.773 E117.46596
G1 X127.423 Y95.877 E118.34742
G1 X128.621 Y96.352 E121.95733
G1 X128.669 Y96.371 E122.10193
G1 X129.543 Y96.732 E124.75073
G1 X129.593 Y96.753 E124.90264
G1 X130.204 Y97.016 E126.76595
G1 X130.684 Y97.266 E128.28192
G1 X130.941 Y97.441 E129.15286
G1 X131.966 Y98.203 E132.73049
G1 X132.009 Y98.236 E132.88232
G1 X132.785 Y98.831 E135.62142
G1 X132.826 Y98.862 E135.7654
G1 X133.358 Y99.282 E137.66403
G1 X133.756 Y99.648 E139.1786
G1 X133.942 Y99.861 E139.97071
G1 X134.168 Y100.142 E140.98081
G1 X134.218 Y100.206 E141.20831
G1 X135.331 Y101.654 E146.32409
G1 X135.364 Y101.698 E146.47815
G1 X135.764 Y102.235 E148.35379
G1 X136.054 Y102.691 E149.86753
G1 X136.186 Y102.963 E150.71442
G1 X136.668 Y104.073 E154.10416
G1 X136.691 Y104.126 E154.26599
G1 X137.075 Y105.05 E157.06884
G1 X137.095 Y105.1 E157.21969
G1 X137.346 Y105.73 E159.1193
G1 X137.509 Y106.246 E160.63508
G1 X137.566 Y106.546 E161.49046
G1 X137.748 Y107.768 E164.95119
G1 X137.757 Y107.828 E165.12114
G1 X137.887 Y108.813 E167.90417
G1 X137.893 Y108.868 E168.05915
G1 X137.971 Y109.536 E169.94302
G1 X137.994 Y110.076 E171.457
G1 X137.972 Y110.379 E172.30797
G1 X137.835 Y111.569 E175.66333
G1 X137.828 Y111.626 E175.82419
G1 X137.69 Y112.678 E178.79622
G1 X137.683 Y112.727 E178.93487
G1 X137.593 Y113.348 E180.69255
G1 X137.476 Y113.876 E182.20742
G1 X137.374 Y114.17 E183.0791
G1 X136.896 Y115.378 E186.71814
G1 X136.875 Y115.431 E186.87783
G1 X136.517 Y116.296 E189.50012
G1 X136.497 Y116.343 E189.6432
G1 X136.234 Y116.954 E191.50651
G1 X135.984 Y117.434 E193.02248
G1 X135.809 Y117.691 E193.89342
G1 X135.04 Y118.725 E197.50299
G1 X135.008 Y118.768 E197.65313
G1 X134.42 Y119.535 E200.36029
G1 X134.389 Y119.574 E200.49984
G1 X133.971 Y120.104 E202.3906
G1 X133.605 Y120.503 E203.90724
G1 X133.393 Y120.688 E204.69539
G1 X133.11 Y120.916 E205.71337
G1 X133.044 Y120.968 E205.94873
G1 X131.596 Y122.081 E211.06451
G1 X131.55 Y122.116 E211.22642
G1 X131.012 Y122.516 E213.10431
G1 X130.555 Y122.806 E214.62041
G1 X130.287 Y122.935 E215.45355
G1 X129.16 Y123.425 E218.8959
G1 X129.105 Y123.449 E219.06399
G1 X128.173 Y123.836 E221.89076
G1 X128.121 Y123.857 E222.04785
G1 X127.517 Y124.097 E223.8684
G1 X127.001 Y124.259 E225.38334
G1 X126.702 Y124.316 E226.23596
G1 X125.495 Y124.495 E229.6539
G1 X125.438 Y124.503 E229.81513
G1 X124.433 Y124.636 E232.6548
G1 X124.381 Y124.643 E232.80178
G1 X123.718 Y124.721 E234.67173
G1 X123.177 Y124.744 E236.18851
G1 X122.871 Y124.722 E237.04787
G1 X121.077 Y124.515 E242.10643
G1 X118.292 Y124.235 E249.9469
G1 X115.604 Y124.041 E257.49591
G1 X112.91 Y123.922 E265.04951
G1 X110.151 Y123.879 E272.77875
G1 X107.423 Y123.913 E280.42082
G1 X104.694 Y124.025 E288.07153
G1 X102.014 Y124.211 E295.59661
G1 X99.263 Y124.479 E303.33899
G1 X98.606 Y124.56 E305.19326
G1 X98.583 Y124.563 E305.25824
G1 X97.212 Y124.722 E309.12432
G1 X96.671 Y124.744 E310.64098
G1 X96.371 Y124.722 E311.48358
G1 X95.181 Y124.585 E314.83894
G1 X95.124 Y124.578 E314.9998
G1 X94.072 Y124.44 E317.97183
G1 X94.024 Y124.433 E318.10771
G1 X93.402 Y124.343 E319.86815
G1 X92.874 Y124.227 E321.38242
G1 X92.578 Y124.124 E322.26032
G1 X91.371 Y123.646 E325.89675
G1 X91.319 Y123.625 E326.05384
G1 X90.454 Y123.267 E328.67613
G1 X90.407 Y123.247 E328.81921
G1 X89.796 Y122.984 E330.68252
G1 X89.316 Y122.734 E332.19849
G1 X89.059 Y122.559 E333.06943
G1 X88.017 Y121.784 E336.70701
G1 X87.974 Y121.751 E336.85884
G1 X87.215 Y121.169 E339.53799
G1 X87.176 Y121.139 E339.67581
G1 X86.646 Y120.721 E341.56657
G1 X86.247 Y120.355 E343.08321
G1 X86.067 Y120.149 E343.84949
G1 X85.851 Y119.882 E344.81149
G1 X85.795 Y119.811 E345.06478
G1 X84.672 Y118.351 E350.22428
G1 X84.635 Y118.303 E350.39405
G1 X84.233 Y117.762 E352.28202
G1 X83.944 Y117.305 E353.79663
G1 X83.814 Y117.037 E354.63099
G1 X83.325 Y115.911 E358.06965
G1 X83.301 Y115.854 E358.24289
G1 X82.899 Y114.884 E361.18407
G1 X82.879 Y114.836 E361.32973
G1 X82.653 Y114.268 E363.04209
G1 X82.491 Y113.752 E364.55703
G1 X82.434 Y113.454 E365.4069
G1 X82.252 Y112.232 E368.86763
G1 X82.243 Y112.172 E369.03758
G1 X82.113 Y111.187 E371.82062
G1 X82.107 Y111.132 E371.97559
G1 X82.029 Y110.463 E373.86224
G1 X82.006 Y109.923 E375.37622
G1 X82.028 Y109.62 E376.2272
G1 X82.165 Y108.431 E379.57977
G1 X82.172 Y108.374 E379.74064
G1 X82.31 Y107.322 E382.71267
G1 X82.317 Y107.273 E382.85132
G1 X82.407 Y106.652 E384.60899
G1 X82.524 Y106.124 E386.12386
G1 X82.626 Y105.83 E386.99555
G1 X83.104 Y104.622 E390.63459
G1 X83.126 Y104.567 E390.80051
G1 X83.502 Y103.66 E393.5508
G1 X83.521 Y103.615 E393.68762
G1 X83.766 Y103.046 E395.42293
G1 X84.016 Y102.566 E396.93891
G1 X84.191 Y102.309 E397.80985
G1 X84.96 Y101.275 E401.41941
G1 X84.992 Y101.233 E401.56731
G1 X85.602 Y100.437 E404.37643
G1 X85.636 Y100.393 E404.53219
G1 X86.032 Y99.892 E406.32101
G1 X86.397 Y99.494 E407.83369
G0 F6000 X86.884 Y99.654
G1 F1200 X87.166 Y99.427 E408.84773
G1 X87.222 Y99.382 E409.04897
G1 X88.671 Y98.268 E414.16867
G1 X88.709 Y98.24 E414.30089
G1 X89.244 Y97.841 E416.17037
G1 X89.886 Y97.469 E418.24877
G1 X91.025 Y96.974 E421.72753
G1 X91.074 Y96.953 E421.87686
G1 X91.997 Y96.57 E424.67605
G1 X92.042 Y96.552 E424.81181
G1 X92.646 Y96.312 E426.63236
G1 X93.363 Y96.119 E428.71226
G1 X94.57 Y95.94 E432.1302
G1 X94.62 Y95.933 E432.27162
G1 X95.625 Y95.8 E435.11129
G1 X95.671 Y95.794 E435.24124
G1 X96.334 Y95.716 E437.11119
G1 X97.079 Y95.715 E439.19803
G1 X98.9 Y95.925 E444.33269
G1 X101.633 Y96.2 E452.02683
G1 X104.381 Y96.398 E459.74428
G1 X107.097 Y96.519 E467.35969
G1 X109.848 Y96.561 E475.06649
G1 X112.6 Y96.526 E482.77581
G1 X115.318 Y96.415 E490.39562
G1 X118.026 Y96.228 E497.99914
G1 X120.789 Y95.958 E505.77552
G1 X121.447 Y95.877 E507.63257
G1 X121.468 Y95.874 E507.69199
G1 X122.839 Y95.715 E511.55808
G1 X123.578 Y95.715 E513.62811
G1 X124.768 Y95.852 E516.98347
G1 X124.819 Y95.858 E517.12731
G1 X125.871 Y95.996 E520.09934
G1 X125.913 Y96.002 E520.21818
G1 X126.535 Y96.092 E521.97863
G1 X127.261 Y96.286 E524.0836
G1 X128.459 Y96.761 E527.6935
G1 X128.501 Y96.778 E527.82042
G1 X129.375 Y97.139 E530.46922
G1 X129.419 Y97.157 E530.60239
G1 X130.03 Y97.42 E532.46569
G1 X130.678 Y97.794 E534.56145
G1 X131.703 Y98.556 E538.13909
G1 X131.741 Y98.585 E538.27298
G1 X132.517 Y99.18 E541.01208
G1 X132.553 Y99.208 E541.13983
G1 X133.085 Y99.628 E543.03846
G1 X133.599 Y100.137 E545.06474
G1 X133.825 Y100.418 E546.07484
G1 X133.869 Y100.474 E546.27433
G1 X134.982 Y101.922 E551.39011
G1 X135.011 Y101.96 E551.52401
G1 X135.411 Y102.497 E553.39965
G1 X135.783 Y103.138 E555.47563
G1 X136.265 Y104.248 E558.86537
G1 X136.284 Y104.295 E559.00737
G1 X136.668 Y105.219 E561.81023
G1 X136.686 Y105.263 E561.94339
G1 X136.937 Y105.893 E563.843
G1 X137.131 Y106.611 E565.92633
G1 X137.313 Y107.833 E569.38707
G1 X137.32 Y107.886 E569.53682
G1 X137.45 Y108.871 E572.31985
G1 X137.456 Y108.919 E572.45535
G1 X137.534 Y109.587 E574.33922
G1 X137.535 Y110.328 E576.41486
G1 X137.398 Y111.518 E579.77021
G1 X137.392 Y111.569 E579.91406
G1 X137.254 Y112.621 E582.88609
G1 X137.248 Y112.664 E583.0077
G1 X137.158 Y113.285 E584.76538
G1 X136.965 Y114.008 E586.86151
G1 X136.487 Y115.216 E590.50054
G1 X136.468 Y115.262 E590.63996
G1 X136.11 Y116.127 E593.26225
G1 X136.093 Y116.169 E593.38917
G1 X135.83 Y116.78 E595.25248
G1 X135.456 Y117.429 E597.35066
G1 X134.687 Y118.463 E600.96022
G1 X134.658 Y118.5 E601.09191
G1 X134.07 Y119.267 E603.79907
G1 X134.043 Y119.302 E603.92289
G1 X133.625 Y119.832 E605.81365
G1 X133.117 Y120.345 E607.83596
G1 X132.834 Y120.573 E608.85394
G1 X132.776 Y120.619 E609.0613
G1 X131.328 Y121.732 E614.17708
G1 X131.287 Y121.763 E614.32106
G1 X130.749 Y122.163 E616.19895
G1 X130.112 Y122.532 E618.26102
G1 X128.985 Y123.022 E621.70337
G1 X128.936 Y123.043 E621.8527
G1 X128.004 Y123.43 E624.67947
G1 X127.958 Y123.448 E624.81783
G1 X127.354 Y123.688 E626.63838
G1 X126.637 Y123.881 E628.71828
G1 X125.43 Y124.06 E632.13622
G1 X125.38 Y124.067 E632.27764
G1 X124.375 Y124.2 E635.11732
G1 X124.329 Y124.206 E635.24726
G1 X123.666 Y124.284 E637.11721
G1 X122.921 Y124.285 E639.20406
G1 X121.1 Y124.075 E644.33871
G1 X118.367 Y123.8 E652.03285
G1 X115.619 Y123.602 E659.7503
G1 X112.903 Y123.481 E667.36571
G1 X110.152 Y123.439 E675.07251
G1 X107.4 Y123.474 E682.78183
G1 X104.682 Y123.585 E690.40164
G1 X101.974 Y123.772 E698.00516
G1 X99.211 Y124.042 E705.78154
G1 X98.553 Y124.123 E707.63859
G1 X98.532 Y124.126 E707.69801
G1 X97.161 Y124.285 E711.5641
G1 X96.422 Y124.285 E713.63413
G1 X95.232 Y124.148 E716.98949
G1 X95.181 Y124.142 E717.13333
G1 X94.129 Y124.004 E720.10536
G1 X94.087 Y123.998 E720.22421
G1 X93.465 Y123.908 E721.98465
G1 X92.74 Y123.715 E724.0862
G1 X91.533 Y123.237 E727.72263
G1 X91.488 Y123.218 E727.85945
G1 X90.623 Y122.86 E730.48175
G1 X90.581 Y122.843 E730.60867
G1 X89.97 Y122.58 E732.47197
G1 X89.321 Y122.206 E734.57016
G1 X88.279 Y121.431 E738.20773
G1 X88.242 Y121.402 E738.33942
G1 X87.483 Y120.82 E741.01857
G1 X87.448 Y120.793 E741.14239
G1 X86.918 Y120.375 E743.03315
G1 X86.409 Y119.872 E745.03765
G1 X86.193 Y119.605 E745.99964
G1 X86.144 Y119.543 E746.221
G1 X85.021 Y118.083 E751.3805
G1 X84.988 Y118.041 E751.53012
G1 X84.586 Y117.5 E753.41809
G1 X84.217 Y116.862 E755.48259
G1 X83.728 Y115.736 E758.92125
G1 X83.707 Y115.686 E759.07316
G1 X83.305 Y114.716 E762.01435
G1 X83.288 Y114.673 E762.14387
G1 X83.062 Y114.105 E763.85622
G1 X82.869 Y113.389 E765.93342
G1 X82.687 Y112.167 E769.39415
G1 X82.68 Y112.114 E769.5439
G1 X82.55 Y111.129 E772.32693
G1 X82.544 Y111.081 E772.46244
G1 X82.466 Y110.412 E774.34908
G1 X82.465 Y109.67 E776.42752
G1 X82.602 Y108.481 E779.7801
G1 X82.608 Y108.431 E779.92116
G1 X82.746 Y107.379 E782.89319
G1 X82.752 Y107.336 E783.01481
G1 X82.842 Y106.715 E784.77248
G1 X83.035 Y105.992 E786.86861
G1 X83.513 Y104.784 E790.50765
G1 X83.532 Y104.736 E790.65225
G1 X83.908 Y103.829 E793.40253
G1 X83.926 Y103.789 E793.5254
G1 X84.171 Y103.22 E795.26071
G1 X84.544 Y102.571 E797.3575
G1 X85.313 Y101.537 E800.96706
G1 X85.341 Y101.5 E801.09703
G1 X85.951 Y100.704 E803.90615
G1 X85.981 Y100.666 E804.04177
G1 X86.377 Y100.165 E805.83059
G1 X86.884 Y99.654 E807.84695
G1 F2700 E802.84695
G1 F600 Z0.7
G0 F6000 X108.72 Y108.176 Z0.7
;TYPE:SUPPORT-INTERFACE
G1 F600 Z0.2
G1 F2700 E807.84695
G1 F1200 X111.28 Y108.176 E815.01784
G1 X111.079 Y109.714 E819.3626
G1 X111.042 Y110.021 E820.22877
G1 X111.28 Y111.824 E825.32302
G1 X108.72 Y111.824 E832.4939
G1 X108.9 Y110.45 E836.37553
G1 X108.958 Y109.98 E837.70205
G1 X108.72 Y108.176 E842.79907
G0 F6000 X109.057 Y109.057
G1 F1200 X110.941 Y110.941 E850.26233
G1 F2700 E845.26233
G1 F600 Z0.7
G0 F6000 X110.9 Y109.377 Z0.7
G1 F600 Z0.2
G1 F2700 E850.26233
G1 F1200 X109.016 Y111.261 E857.7256
G1 F2700 E852.7256
G1 F600 Z0.7
;MESH:Otto_glasses_code.stl
G0 F6000 X87.898 Y113.112 Z0.7
;TYPE:WALL-INNER
G1 F600 Z0.2
G1 F2700 E857.7256
G1 F1200 X89.133 Y115.535 E865.3435
G1 X91.209 Y117.612 E873.56933
G1 X91.41 Y117.718 E874.20586
G1 X93.839 Y118.956 E881.84256
G1 X96.75 Y119.418 E890.09869
G1 X99.661 Y118.956 E898.35483
G1 X102.285 Y117.617 E906.60665
G1 X104.367 Y115.535 E914.85427
G1 X105.706 Y112.911 E923.1061
G1 X106.168 Y110 E931.36223
G1 X105.706 Y107.089 E939.61837
G1 X104.367 Y104.465 E947.87019
G1 X102.291 Y102.388 E956.09602
G1 X102.09 Y102.282 E956.73255
G1 X99.661 Y101.044 E964.36924
G1 X96.75 Y100.582 E972.62538
G1 X93.839 Y101.044 E980.88152
G1 X91.215 Y102.383 E989.13334
G1 X89.138 Y104.459 E997.35917
G1 X89.032 Y104.66 E997.99569
G1 X87.794 Y107.089 E1005.63239
G1 X87.332 Y110.002 E1013.89406
G1 X87.369 Y110.223 E1014.52173
G1 X87.796 Y112.918 E1022.16493
G1 X87.898 Y113.112 E1022.77888
G0 F6000 X88.29 Y112.912
G1 F1200 X89.493 Y115.273 E1030.20136
G1 X91.473 Y117.254 E1038.04689
G1 X91.612 Y117.327 E1038.48668
G1 X93.977 Y118.532 E1045.92168
G1 X96.75 Y118.972 E1053.78638
G1 X99.523 Y118.532 E1061.65108
G1 X102.023 Y117.257 E1069.51203
G1 X104.007 Y115.273 E1077.37144
G1 X105.282 Y112.773 E1085.23239
G1 X105.722 Y110 E1093.09709
G1 X105.282 Y107.227 E1100.96179
G1 X104.007 Y104.727 E1108.82274
G1 X102.027 Y102.746 E1116.66828
G1 X101.888 Y102.673 E1117.10807
G1 X99.523 Y101.468 E1124.54307
G1 X96.75 Y101.028 E1132.40777
G1 X93.977 Y101.468 E1140.27247
G1 X91.477 Y102.743 E1148.13342
G1 X89.496 Y104.723 E1155.97896
G1 X89.423 Y104.862 E1156.41874
G1 X88.218 Y107.227 E1163.85374
G1 X87.778 Y110.001 E1171.72121
G1 X87.803 Y110.154 E1172.15547
G1 X88.219 Y112.777 E1179.59465
G1 X88.29 Y112.912 E1180.02191
G0 F6000 X88.642 Y112.636
;TYPE:WALL-OUTER
G1 F1200 X88.682 Y112.712 E1180.26248
G1 X89.853 Y115.011 E1187.48952
G1 X91.738 Y116.896 E1194.95675
G1 X91.815 Y116.937 E1195.2011
G1 X94.115 Y118.108 E1202.43064
G1 X96.75 Y118.526 E1209.9039
G1 X99.385 Y118.108 E1217.37716
G1 X101.761 Y116.897 E1224.84725
G1 X103.647 Y115.011 E1232.31843
G1 X104.858 Y112.635 E1239.78852
G1 X105.276 Y110 E1247.26178
G1 X104.858 Y107.365 E1254.73504
G1 X103.647 Y104.989 E1262.20513
G1 X101.762 Y103.104 E1269.67235
G1 X101.685 Y103.063 E1269.91671
G1 X99.385 Y101.892 E1277.14624
G1 X96.75 Y101.474 E1284.61951
G1 X94.115 Y101.892 E1292.09277
G1 X91.739 Y103.103 E1299.56285
G1 X89.854 Y104.988 E1307.03008
G1 X89.813 Y105.065 E1307.27443
G1 X88.642 Y107.365 E1314.50397
G1 X88.224 Y110 E1321.97723
G1 X88.238 Y110.085 E1322.21854
G1 X88.642 Y112.636 E1329.45327
G0 F6000 X88.183 Y112.788
G1 F2700 E1324.45327
G1 F600 Z0.7
G0 F6000 X103.914 Y103.067 Z0.7
;TYPE:WALL-INNER
G1 F600 Z0.2
G1 F2700 E1329.45327
G1 F1200 X105.4 Y105.001 E1336.28512
G1 X105.465 Y105.159 E1336.76368
G1 X106.401 Y107.413 E1343.60016
G1 X106.742 Y109.998 E1350.90381
G1 X106.403 Y112.581 E1358.20116
G1 X106.337 Y112.739 E1358.6808
G1 X105.403 Y114.996 E1365.5229
G1 X105.3 Y115.129 E1365.9941
G1 X103.816 Y117.064 E1372.82477
G1 X103.683 Y117.164 E1373.29087
