; generated by PrusaSlicer 2.2.0+win64 on 2020-12-04 at 21:19:42 UTC

; 

; external perimeters extrusion width = 0.45mm
; perimeters extrusion width = 0.45mm
; infill extrusion width = 0.45mm
; solid infill extrusion width = 0.45mm
; top infill extrusion width = 0.45mm
; first layer extrusion width = 0.42mm

M201 X500 Y500 Z100 E5000 ; sets maximum accelerations, mm/sec^2
M203 X500 Y500 Z10 E60 ; sets maximum feedrates, mm/sec
M204 P500 R1000 T500 ; sets acceleration (P, T) and retract acceleration (R), mm/sec^2
M205 X8.00 Y8.00 Z0.40 E5.00 ; sets the jerk limits, mm/sec
M205 S0 T0 ; sets the minimum extruding and travel feed rate, mm/sec
M107
G90 ; use absolute coordinates
M83 ; extruder relative mode
M104 S215 ; set extruder temp
M140 S40 ; set bed temp
M190 S40 ; wait for bed temp
M109 S215 ; wait for extruder temp
G28 ; home all
G1 Z2 F240
G1 X2 Y10 F3000
G1 Z0.28 F240
G92 E0.0
G1 Y190 E15.0 F1500.0 ; intro line
G1 X2.3 F5000
G1 Y10 E30 F1200.0 ; intro line
G92 E0.0
G21 ; set units to millimeters
G90 ; use absolute coordinates
M83 ; use relative distances for extrusion
; Filament gcode
;BEFORE_LAYER_CHANGE
;0.2


G1 E-5.00000 F3600.00000
G1 Z0.200 F9000.000
;AFTER_LAYER_CHANGE
;0.2
G1 X64.331 Y92.528
G1 E5.00000 F2400.00000
G1 F1200.000
G1 X64.673 Y91.980 E0.02024
G1 X65.152 Y91.542 E0.02036
G1 X65.732 Y91.250 E0.02036
G1 X66.366 Y91.127 E0.02024
G1 X153.504 Y91.123 E2.73215
G1 X154.267 Y91.250 E0.02426
G1 X154.952 Y91.618 E0.02437
G1 X155.481 Y92.187 E0.02437
G1 X155.798 Y92.892 E0.02426
G1 X155.877 Y93.468 E0.01823
G1 X155.877 Y98.538 E0.15895
G1 X155.693 Y99.416 E0.02813
G1 X139.877 Y124.971 E0.94228
G1 X138.891 Y126.063 E0.04615
G1 X137.699 Y126.813 E0.04415
G1 X136.249 Y127.233 E0.04735
G1 X108.633 Y128.873 E0.86739
G1 X78.466 Y128.877 E0.94588
G1 X77.744 Y128.754 E0.02296
G1 X77.091 Y128.414 E0.02308
G1 X76.621 Y127.956 E0.02060
G1 X76.294 Y127.386 E0.02060
G1 X64.285 Y96.863 E1.02842
G1 X64.127 Y96.133 E0.02343
G1 X64.127 Y93.367 E0.08673
G1 X64.317 Y92.586 E0.02520
G1 E-3.50000 F3600.00000
G1 F7200.000
G1 X64.673 Y91.980 E-0.33381
G1 X65.152 Y91.542 E-0.30842
G1 X65.732 Y91.250 E-0.30842
G1 X66.366 Y91.127 E-0.30663
G1 X66.719 Y91.127 E-0.16772
G1 E-0.07500 F3600.00000
G1 X135.977 Y119.606 F9000.000
G1 E5.00000 F2400.00000
G1 F1200.000
G1 X136.925 Y120.165 E0.03453
G1 X137.343 Y120.585 E0.01857
G1 X137.641 Y121.097 E0.01857
G1 X137.800 Y121.667 E0.01857
G1 X137.809 Y122.255 E0.01843
G1 X137.668 Y122.835 E0.01872
G1 X137.387 Y123.356 E0.01855
G1 X136.983 Y123.789 E0.01857
G1 X136.482 Y124.106 E0.01857
G1 X135.918 Y124.286 E0.01857
G1 X135.327 Y124.317 E0.01857
G1 X134.747 Y124.198 E0.01857
G1 X134.215 Y123.936 E0.01857
G1 X133.768 Y123.548 E0.01857
G1 X133.432 Y123.060 E0.01857
G1 X133.232 Y122.503 E0.01857
G1 X133.178 Y121.913 E0.01857
G1 X133.275 Y121.329 E0.01857
G1 X133.517 Y120.789 E0.01857
G1 X133.888 Y120.327 E0.01857
G1 X134.363 Y119.973 E0.01857
G1 X134.913 Y119.752 E0.01857
G1 X135.925 Y119.622 E0.03200
G1 E-3.50000 F3600.00000
G1 F7200.000
G1 X136.925 Y120.165 E-0.54085
G1 X137.343 Y120.585 E-0.28131
G1 X137.641 Y121.097 E-0.28131
G1 X137.800 Y121.667 E-0.28131
G1 X137.801 Y121.752 E-0.04021
G1 E-0.07500 F3600.00000
G1 X91.703 Y112.852 F9000.000
G1 E5.00000 F2400.00000
G1 F1200.000
G1 X84.968 Y122.036 E0.35709
G1 X79.458 Y113.464 E0.31951
G1 X91.643 Y112.855 E0.38255
G1 X90.930 Y113.268 F9000.000
G1 F1200.000
G1 X84.989 Y121.371 E0.31503
G1 X80.127 Y113.808 E0.28188
G1 X90.870 Y113.271 E0.33727
G1 X91.328 Y113.312 F9000.000
G1 E-3.50000 F3600.00000
G1 F7200.000
G1 X89.108 Y115.699 E-1.42500
G1 E-0.07500 F3600.00000
G1 X76.784 Y96.913 F9000.000
G1 E5.00000 F2400.00000
G1 F1200.000
G1 X95.766 Y96.913 E0.59517
G1 X91.945 Y111.107 E0.46089
G1 X79.515 Y110.567 E0.39010
G1 X76.796 Y96.972 E0.43470
G1 X77.244 Y97.290 F9000.000
G1 F1200.000
G1 X95.274 Y97.290 E0.56532
G1 X91.659 Y110.717 E0.43599
G1 X79.826 Y110.203 E0.37136
G1 X77.256 Y97.349 E0.41100
G1 X77.136 Y96.905 F9000.000
G1 E-3.50000 F3600.00000
G1 F7200.000
G1 X80.256 Y97.339 E-1.42500
G1 E-0.07500 F3600.00000
G1 X145.038 Y97.913 F9000.000
G1 E5.00000 F2400.00000
G1 F1200.000
G1 X141.038 Y114.413 E0.53233
G1 X138.113 Y114.413 E0.09172
G1 X136.096 Y119.119 E0.16054
G1 X137.248 Y114.413 E0.15192
G1 X134.741 Y114.413 E0.07860
G1 X138.753 Y97.361 E0.54924
G1 X130.004 Y97.945 E0.27493
G1 X129.010 Y103.413 E0.17426
G1 X110.986 Y103.413 E0.56513
G1 X107.986 Y125.913 E0.71171
G1 X103.165 Y125.913 E0.15116
G1 X106.518 Y99.087 E0.84765
G1 X128.185 Y99.087 E0.67934
G1 X128.206 Y97.836 E0.03923
G1 X100.079 Y96.899 E0.88237
G1 X90.575 Y125.913 E0.95729
G1 X78.986 Y125.913 E0.36334
G1 X73.505 Y97.014 E0.92225
G1 X67.087 Y95.533 E0.20653
G1 X67.087 Y94.087 E0.04533
G1 X152.913 Y94.087 E2.69101
G1 X152.913 Y97.913 E0.11996
G1 X145.098 Y97.913 E0.24502
G1 X145.335 Y98.290 F9000.000
G1 F1200.000
G1 X141.335 Y114.790 E0.53233
G1 X138.362 Y114.790 E0.09323
G1 X136.383 Y119.407 E0.15751
G1 X137.159 Y119.865 E0.02825
G1 X137.645 Y120.354 E0.02161
G1 X137.991 Y120.949 E0.02161
G1 X138.176 Y121.613 E0.02161
G1 X138.187 Y122.297 E0.02146
G1 X138.023 Y122.972 E0.02176
G1 X137.696 Y123.578 E0.02160
G1 X137.225 Y124.082 E0.02161
G1 X136.643 Y124.450 E0.02161
G1 X135.987 Y124.660 E0.02161
G1 X135.298 Y124.696 E0.02161
G1 X134.623 Y124.558 E0.02161
G1 X134.005 Y124.253 E0.02161
G1 X133.484 Y123.802 E0.02161
G1 X133.094 Y123.234 E0.02161
G1 X132.860 Y122.585 E0.02161
G1 X132.798 Y121.899 E0.02161
G1 X132.911 Y121.219 E0.02161
G1 X133.193 Y120.590 E0.02161
G1 X133.624 Y120.053 E0.02161
G1 X134.177 Y119.642 E0.02161
G1 X134.816 Y119.384 E0.02161
G1 X135.670 Y119.274 E0.02697
G1 X136.768 Y114.790 E0.14476
G1 X134.265 Y114.790 E0.07846
G1 X138.269 Y97.772 E0.54817
G1 X130.323 Y98.301 E0.24972
G1 X129.325 Y103.790 E0.17491
G1 X111.316 Y103.790 E0.56465
G1 X108.316 Y126.290 E0.71171
G1 X102.738 Y126.290 E0.17490
G1 X106.185 Y98.710 E0.87148
G1 X127.814 Y98.710 E0.67815
G1 X127.822 Y98.201 E0.01597
G1 X100.349 Y97.285 E0.86187
G1 X90.848 Y126.290 E0.95699
G1 X78.674 Y126.290 E0.38170
G1 X73.181 Y97.326 E0.92433
G1 X66.710 Y95.833 E0.20822
G1 X66.710 Y93.710 E0.06656
G1 X153.290 Y93.710 E2.71466
G1 X153.290 Y98.290 E0.14360
G1 X145.395 Y98.290 E0.24755
G1 X144.935 Y98.296 F9000.000
G1 E-3.50000 F3600.00000
G1 F7200.000
G1 X144.678 Y101.203 E-1.42500
G1 E-0.07500 F3600.00000
G1 X143.798 Y102.548 F9000.000
G1 E5.00000 F2400.00000
G1 F1200.000
G1 X138.962 Y97.711 E0.21515
G1 X138.860 Y98.144 E0.01399
G1 X143.553 Y102.838 E0.20879
G1 X143.449 Y103.269 E0.01394
G1 X138.758 Y98.577 E0.20868
G1 X138.656 Y99.010 E0.01399
G1 X143.345 Y103.699 E0.20857
G1 X143.240 Y104.130 E0.01394
G1 X138.554 Y99.444 E0.20846
G1 X138.452 Y99.877 E0.01399
G1 X143.136 Y104.560 E0.20835
G1 X143.031 Y104.991 E0.01394
G1 X138.350 Y100.310 E0.20824
G1 X138.248 Y100.743 E0.01399
G1 X142.927 Y105.422 E0.20813
G1 X142.823 Y105.852 E0.01394
G1 X138.146 Y101.176 E0.20802
G1 X138.044 Y101.609 E0.01399
G1 X142.718 Y106.283 E0.20791
G1 X142.614 Y106.713 E0.01394
G1 X137.943 Y102.042 E0.20780
G1 X137.841 Y102.475 E0.01399
G1 X142.509 Y107.144 E0.20769
G1 X142.405 Y107.575 E0.01394
G1 X137.739 Y102.908 E0.20758
G1 X137.637 Y103.341 E0.01399
G1 X142.301 Y108.005 E0.20747
G1 X142.196 Y108.436 E0.01394
G1 X137.535 Y103.774 E0.20735
G1 X137.433 Y104.207 E0.01399
G1 X142.092 Y108.866 E0.20724
G1 X141.988 Y109.297 E0.01394
G1 X137.331 Y104.641 E0.20713
G1 X137.229 Y105.074 E0.01399
G1 X141.883 Y109.727 E0.20702
G1 X141.779 Y110.158 E0.01394
G1 X137.127 Y105.507 E0.20691
G1 X137.025 Y105.940 E0.01399
G1 X141.674 Y110.589 E0.20680
G1 X141.570 Y111.019 E0.01394
G1 X136.924 Y106.373 E0.20669
G1 X136.822 Y106.806 E0.01399
G1 X141.466 Y111.450 E0.20658
G1 X141.361 Y111.880 E0.01394
G1 X136.720 Y107.239 E0.20647
G1 X136.618 Y107.672 E0.01399
G1 X141.257 Y112.311 E0.20636
G1 X141.152 Y112.742 E0.01394
G1 X136.516 Y108.105 E0.20625
G1 X136.414 Y108.538 E0.01399
G1 X141.048 Y113.172 E0.20614
G1 X140.944 Y113.603 E0.01394
G1 X136.312 Y108.971 E0.20603
G1 X136.210 Y109.404 E0.01399
G1 X140.839 Y114.033 E0.20592
G1 X140.816 Y114.130 E0.00313
G1 X140.401 Y114.130 E0.01305
G1 X136.108 Y109.838 E0.19095
G1 X136.006 Y110.271 E0.01399
G1 X139.866 Y114.130 E0.17169
G1 X139.331 Y114.130 E0.01683
G1 X135.905 Y110.704 E0.15242
G1 X135.803 Y111.137 E0.01399
G1 X138.796 Y114.130 E0.13316
G1 X138.261 Y114.130 E0.01683
G1 X135.701 Y111.570 E0.11389
G1 X135.599 Y112.003 E0.01399
G1 X137.866 Y114.270 E0.10087
G1 X137.706 Y114.645 E0.01282
G1 X137.526 Y114.466 E0.00798
G1 X137.609 Y114.130 E0.01086
G1 X137.191 Y114.130 E0.01313
G1 X135.497 Y112.436 E0.07536
G1 X135.395 Y112.869 E0.01399
G1 X136.656 Y114.130 E0.05610
G1 X136.121 Y114.130 E0.01683
G1 X135.293 Y113.302 E0.03683
G1 X135.191 Y113.735 E0.01399
G1 X135.756 Y114.300 E0.02511
G1 X137.488 Y114.952 F9000.000
G1 F1200.000
G1 X137.392 Y115.240 E0.00807
G1 X137.296 Y115.528 E0.00694
G1 X137.200 Y115.816 E0.00580
G1 X137.103 Y116.104 E0.00467
G1 X137.007 Y116.392 E0.00354
G1 X136.911 Y116.680 E0.00241
G1 E-3.50000 F3600.00000
G1 F7200.000
G1 X137.007 Y116.392 E-0.14419
G1 E-1.35581 F3600.00000
G1 X135.863 Y119.278 F9000.000
G1 E5.00000 F2400.00000
G1 F1200.000
G1 X136.173 Y119.419 E0.00367
G1 E-3.50000 F3600.00000
G1 F7200.000
G1 X135.863 Y119.278 E-0.16160
G1 E-1.33840 F3600.00000
G1 X137.556 Y121.214 F9000.000
G1 E5.00000 F2400.00000
G1 F1200.000
G1 X136.705 Y120.364 E0.04034
G1 X135.918 Y119.899 E0.03066
G1 X135.701 Y119.929 E0.00735
G1 X137.518 Y121.747 E0.08619
G1 X137.526 Y122.224 E0.01600
G1 X137.506 Y122.305 E0.00280
G1 X135.199 Y119.998 E0.10940
G1 X134.986 Y120.027 E0.00722
G1 X134.752 Y120.121 E0.00844
G1 X137.389 Y122.758 E0.12503
G1 X137.189 Y123.128 E0.01411
G1 X134.376 Y120.316 E0.13336
G1 X134.057 Y120.567 E0.01362
G1 X136.926 Y123.436 E0.13603
G1 X136.801 Y123.569 E0.00614
G1 X136.610 Y123.690 E0.00757
G1 X133.803 Y120.884 E0.13310
G1 X133.761 Y120.937 E0.00230
G1 X133.614 Y121.265 E0.01203
G1 X136.237 Y123.887 E0.12438
G1 X135.867 Y124.005 E0.01302
G1 X135.788 Y124.009 E0.00263
G1 X133.497 Y121.718 E0.10866
G1 X133.463 Y121.924 E0.00700
G1 X133.496 Y122.287 E0.01223
G1 X135.214 Y124.005 E0.08148
G1 X134.839 Y123.928 E0.01284
G1 X134.373 Y123.699 E0.01742
G1 X134.105 Y123.466 E0.01190
G1 X133.470 Y122.832 E0.03009
G1 E-3.50000 F3600.00000
G1 F7200.000
G1 X134.105 Y123.466 E-0.42615
G1 X134.373 Y123.699 E-0.16855
G1 X134.839 Y123.928 E-0.24680
G1 X135.214 Y124.005 E-0.18186
G1 X134.616 Y123.407 E-0.40164
G1 E-0.07500 F3600.00000
G1 X103.363 Y125.241 F9000.000
G1 E5.00000 F2400.00000
G1 F1200.000
G1 X103.752 Y125.630 E0.01732
G1 X104.287 Y125.630 E0.01683
G1 X103.574 Y124.917 E0.03172
G1 X103.634 Y124.442 E0.01507
G1 X104.822 Y125.630 E0.05287
G1 X105.357 Y125.630 E0.01683
G1 X103.693 Y123.966 E0.07402
G1 X103.753 Y123.491 E0.01507
G1 X105.892 Y125.630 E0.09518
G1 X106.427 Y125.630 E0.01683
G1 X103.812 Y123.015 E0.11633
G1 X103.872 Y122.539 E0.01507
G1 X106.962 Y125.630 E0.13749
G1 X107.497 Y125.630 E0.01683
G1 X103.931 Y122.064 E0.15864
G1 X103.991 Y121.588 E0.01507
G1 X107.773 Y125.371 E0.16826
G1 X107.836 Y124.899 E0.01498
G1 X104.050 Y121.113 E0.16841
G1 X104.109 Y120.637 E0.01507
G1 X107.899 Y124.427 E0.16857
G1 X107.962 Y123.955 E0.01498
G1 X104.169 Y120.162 E0.16872
G1 X104.228 Y119.686 E0.01507
G1 X108.025 Y123.483 E0.16888
G1 X108.088 Y123.011 E0.01498
G1 X104.288 Y119.211 E0.16903
G1 X104.347 Y118.735 E0.01507
G1 X108.151 Y122.539 E0.16919
G1 X108.214 Y122.066 E0.01498
G1 X104.407 Y118.260 E0.16935
G1 X104.466 Y117.784 E0.01507
G1 X108.277 Y121.594 E0.16950
G1 X108.339 Y121.122 E0.01498
G1 X104.526 Y117.309 E0.16966
G1 X104.585 Y116.833 E0.01507
G1 X108.402 Y120.650 E0.16981
G1 X108.465 Y120.178 E0.01498
G1 X104.644 Y116.357 E0.16997
G1 X104.704 Y115.882 E0.01507
G1 X108.528 Y119.706 E0.17012
G1 X108.591 Y119.234 E0.01498
G1 X104.763 Y115.406 E0.17028
G1 X104.823 Y114.931 E0.01507
G1 X108.654 Y118.762 E0.17043
G1 X108.717 Y118.290 E0.01498
G1 X104.882 Y114.455 E0.17059
G1 X104.942 Y113.980 E0.01507
G1 X108.780 Y117.818 E0.17075
G1 X108.843 Y117.346 E0.01498
G1 X105.001 Y113.504 E0.17090
G1 X105.061 Y113.029 E0.01507
G1 X108.906 Y116.874 E0.17106
G1 X108.969 Y116.402 E0.01498
G1 X105.120 Y112.553 E0.17121
G1 X105.179 Y112.078 E0.01507
G1 X109.032 Y115.930 E0.17137
G1 X109.095 Y115.458 E0.01498
G1 X105.239 Y111.602 E0.17152
G1 X105.298 Y111.126 E0.01507
G1 X109.158 Y114.986 E0.17168
G1 X109.221 Y114.514 E0.01498
G1 X105.358 Y110.651 E0.17183
G1 X105.417 Y110.175 E0.01507
G1 X109.284 Y114.042 E0.17199
G1 X109.346 Y113.570 E0.01498
G1 X105.477 Y109.700 E0.17215
G1 X105.536 Y109.224 E0.01507
G1 X109.409 Y113.098 E0.17230
G1 X109.472 Y112.626 E0.01498
G1 X105.596 Y108.749 E0.17246
G1 X105.655 Y108.273 E0.01507
G1 X109.535 Y112.154 E0.17261
G1 X109.598 Y111.682 E0.01498
G1 X105.714 Y107.798 E0.17277
G1 X105.774 Y107.322 E0.01507
G1 X109.661 Y111.209 E0.17292
G1 X109.724 Y110.737 E0.01498
G1 X105.833 Y106.847 E0.17308
G1 X105.893 Y106.371 E0.01507
G1 X109.787 Y110.265 E0.17323
G1 X109.850 Y109.793 E0.01498
G1 X105.952 Y105.896 E0.17339
G1 X106.012 Y105.420 E0.01507
G1 X109.913 Y109.321 E0.17355
G1 X109.976 Y108.849 E0.01498
G1 X106.071 Y104.944 E0.17370
G1 X106.131 Y104.469 E0.01507
G1 X110.039 Y108.377 E0.17386
G1 X110.102 Y107.905 E0.01498
G1 X106.190 Y103.993 E0.17401
G1 X106.249 Y103.518 E0.01507
G1 X110.165 Y107.433 E0.17417
G1 X110.228 Y106.961 E0.01498
G1 X106.309 Y103.042 E0.17432
G1 X106.368 Y102.567 E0.01507
G1 X110.291 Y106.489 E0.17448
G1 X110.354 Y106.017 E0.01498
G1 X106.428 Y102.091 E0.17463
G1 X106.487 Y101.616 E0.01507
G1 X110.416 Y105.545 E0.17479
G1 X110.479 Y105.073 E0.01498
G1 X106.547 Y101.140 E0.17494
G1 X106.606 Y100.665 E0.01507
G1 X110.542 Y104.601 E0.17510
G1 X110.605 Y104.129 E0.01498
G1 X106.666 Y100.189 E0.17526
G1 X106.725 Y99.714 E0.01507
G1 X110.668 Y103.657 E0.17541
G1 X110.731 Y103.185 E0.01498
G1 X106.916 Y99.370 E0.16970
G1 X107.451 Y99.370 E0.01683
G1 X111.212 Y103.130 E0.16727
G1 X111.747 Y103.130 E0.01683
G1 X107.986 Y99.370 E0.16727
G1 X108.521 Y99.370 E0.01683
G1 X112.281 Y103.130 E0.16727
G1 X112.816 Y103.130 E0.01683
G1 X109.056 Y99.370 E0.16727
G1 X109.591 Y99.370 E0.01683
G1 X113.351 Y103.130 E0.16727
G1 X113.886 Y103.130 E0.01683
G1 X110.126 Y99.370 E0.16727
G1 X110.661 Y99.370 E0.01683
G1 X114.421 Y103.130 E0.16727
G1 X114.956 Y103.130 E0.01683
G1 X111.196 Y99.370 E0.16727
G1 X111.731 Y99.370 E0.01683
G1 X115.491 Y103.130 E0.16727
G1 X116.026 Y103.130 E0.01683
G1 X112.266 Y99.370 E0.16727
G1 X112.801 Y99.370 E0.01683
G1 X116.561 Y103.130 E0.16727
G1 X117.096 Y103.130 E0.01683
G1 X113.336 Y99.370 E0.16727
G1 X113.871 Y99.370 E0.01683
G1 X117.631 Y103.130 E0.16727
G1 X118.166 Y103.130 E0.01683
G1 X114.406 Y99.370 E0.16727
G1 X114.941 Y99.370 E0.01683
G1 X118.701 Y103.130 E0.16727
G1 X119.236 Y103.130 E0.01683
G1 X115.476 Y99.370 E0.16727
G1 X116.011 Y99.370 E0.01683
G1 X119.771 Y103.130 E0.16727
G1 X120.306 Y103.130 E0.01683
G1 X116.546 Y99.370 E0.16727
G1 X117.081 Y99.370 E0.01683
G1 X120.841 Y103.130 E0.16727
G1 X121.376 Y103.130 E0.01683
G1 X117.616 Y99.370 E0.16727
G1 X118.151 Y99.370 E0.01683
G1 X121.911 Y103.130 E0.16727
G1 X122.446 Y103.130 E0.01683
G1 X118.686 Y99.370 E0.16727
G1 X119.221 Y99.370 E0.01683
G1 X122.981 Y103.130 E0.16727
G1 X123.516 Y103.130 E0.01683
G1 X119.756 Y99.370 E0.16727
G1 X120.291 Y99.370 E0.01683
G1 X124.051 Y103.130 E0.16727
G1 X124.586 Y103.130 E0.01683
G1 X120.826 Y99.370 E0.16727
G1 X121.361 Y99.370 E0.01683
G1 X125.121 Y103.130 E0.16727
G1 X125.656 Y103.130 E0.01683
G1 X121.896 Y99.370 E0.16727
G1 X122.431 Y99.370 E0.01683
G1 X126.191 Y103.130 E0.16727
G1 X126.726 Y103.130 E0.01683
G1 X122.966 Y99.370 E0.16727
G1 X123.501 Y99.370 E0.01683
G1 X127.261 Y103.130 E0.16727
G1 X127.796 Y103.130 E0.01683
G1 X124.036 Y99.370 E0.16727
G1 X124.571 Y99.370 E0.01683
G1 X128.331 Y103.130 E0.16727
G1 X128.774 Y103.130 E0.01394
G1 X128.788 Y103.052 E0.00249
G1 X125.106 Y99.370 E0.16381
G1 X125.641 Y99.370 E0.01683
G1 X128.870 Y102.600 E0.14367
G1 X128.953 Y102.147 E0.01447
