; generated by PrusaSlicer 2.2.0+win64 on 2020-12-04 at 20:13:03 UTC

; 

; external perimeters extrusion width = 0.45mm
; perimeters extrusion width = 0.45mm
; infill extrusion width = 0.45mm
; solid infill extrusion width = 0.45mm
; top infill extrusion width = 0.40mm
; first layer extrusion width = 0.42mm

M201 X500 Y500 Z100 E5000 ; sets maximum accelerations, mm/sec^2
M203 X500 Y500 Z10 E60 ; sets maximum feedrates, mm/sec
M204 P500 R1000 T500 ; sets acceleration (P, T) and retract acceleration (R), mm/sec^2
M205 X8.00 Y8.00 Z0.40 E5.00 ; sets the jerk limits, mm/sec
M205 S0 T0 ; sets the minimum extruding and travel feed rate, mm/sec
M107
G90 ; use absolute coordinates
M83 ; extruder relative mode
M104 S215 ; set extruder temp
M140 S40 ; set bed temp
M190 S40 ; wait for bed temp
M109 S215 ; wait for extruder temp
G28 ; home all
G1 Z2 F240
G1 X2 Y10 F3000
G1 Z0.28 F240
G92 E0.0
G1 Y190 E15.0 F1500.0 ; intro line
G1 X2.3 F5000
G1 Y10 E30 F1200.0 ; intro line
G92 E0.0
G21 ; set units to millimeters
G90 ; use absolute coordinates
M83 ; use relative distances for extrusion
; Filament gcode
;BEFORE_LAYER_CHANGE
;0.2


G1 E-5.00000 F3600.00000
G1 Z0.200 F2400.000
;AFTER_LAYER_CHANGE
;0.2
G1 X63.616 Y88.962
G1 E5.00000
G1 F1200.000
G1 X64.765 Y88.410 E0.03996
G1 X66.017 Y88.145 E0.04014
G1 X153.506 Y88.123 E2.74314
G1 X154.305 Y88.183 E0.02512
G1 X155.080 Y88.360 E0.02494
G1 X155.821 Y88.650 E0.02494
G1 X156.516 Y89.049 E0.02512
G1 X157.144 Y89.546 E0.02512
G1 X157.688 Y90.127 E0.02494
G1 X158.140 Y90.782 E0.02494
G1 X158.490 Y91.497 E0.02494
G1 X158.749 Y92.333 E0.02745
G1 X158.869 Y93.200 E0.02745
G1 X158.877 Y98.500 E0.16617
G1 X158.779 Y99.525 E0.03228
G1 X158.486 Y100.512 E0.03228
G1 X158.076 Y101.324 E0.02853
G1 X142.193 Y126.896 E0.94387
G1 X140.901 Y128.290 E0.05959
G1 X139.456 Y129.278 E0.05487
G1 X138.721 Y129.637 E0.02566
G1 X137.679 Y129.984 E0.03442
G1 X136.519 Y130.219 E0.03711
G1 X108.607 Y131.876 E0.87671
G1 X78.420 Y131.876 E0.94650
G1 X77.341 Y131.751 E0.03407
G1 X76.303 Y131.408 E0.03425
G1 X75.436 Y130.919 E0.03121
G1 X74.678 Y130.283 E0.03103
G1 X74.047 Y129.513 E0.03121
G1 X73.567 Y128.641 E0.03121
G1 X61.484 Y97.937 E1.03458
G1 X61.263 Y97.220 E0.02351
G1 X61.145 Y96.485 E0.02333
G1 X61.165 Y92.831 E0.11457
G1 X61.406 Y91.778 E0.03389
G1 X61.856 Y90.789 E0.03407
G1 X62.629 Y89.768 E0.04014
G1 X63.569 Y89.000 E0.03808
G1 E-3.50000 F3600.00000
G1 F1920.000
G1 X64.287 Y88.646 E-1.42500
G1 E-0.07500 F3600.00000
G1 X135.910 Y120.004 F2400.000
G1 E5.00000
G1 F1200.000
G1 X136.692 Y120.465 E0.02848
G1 X137.042 Y120.817 E0.01553
G1 X137.291 Y121.245 E0.01553
G1 X137.423 Y121.722 E0.01553
G1 X137.431 Y122.213 E0.01540
G1 X137.313 Y122.699 E0.01568
G1 X137.078 Y123.134 E0.01551
G1 X136.740 Y123.496 E0.01553
G1 X136.322 Y123.761 E0.01553
G1 X135.850 Y123.912 E0.01553
G1 X135.355 Y123.938 E0.01553
G1 X134.870 Y123.838 E0.01553
G1 X134.426 Y123.619 E0.01553
G1 X134.051 Y123.295 E0.01553
G1 X133.771 Y122.887 E0.01553
G1 X133.603 Y122.421 E0.01553
G1 X133.558 Y121.927 E0.01553
G1 X133.639 Y121.439 E0.01553
G1 X133.842 Y120.987 E0.01553
G1 X134.152 Y120.600 E0.01553
G1 X134.549 Y120.305 E0.01553
G1 X135.009 Y120.120 E0.01553
G1 X135.850 Y120.012 E0.02660
G1 X135.977 Y119.606 F2400.000
G1 F1200.000
G1 X136.925 Y120.165 E0.03453
G1 X137.343 Y120.585 E0.01857
G1 X137.641 Y121.097 E0.01857
G1 X137.800 Y121.667 E0.01857
G1 X137.809 Y122.255 E0.01843
G1 X137.668 Y122.835 E0.01872
G1 X137.387 Y123.356 E0.01855
G1 X136.983 Y123.789 E0.01857
G1 X136.482 Y124.106 E0.01857
G1 X135.918 Y124.286 E0.01857
G1 X135.327 Y124.317 E0.01857
G1 X134.747 Y124.198 E0.01857
G1 X134.215 Y123.936 E0.01857
G1 X133.768 Y123.548 E0.01857
G1 X133.432 Y123.060 E0.01857
G1 X133.232 Y122.503 E0.01857
G1 X133.178 Y121.913 E0.01857
G1 X133.275 Y121.329 E0.01857
G1 X133.517 Y120.789 E0.01857
G1 X133.888 Y120.327 E0.01857
G1 X134.363 Y119.973 E0.01857
G1 X134.913 Y119.752 E0.01857
G1 X135.925 Y119.622 E0.03200
G1 E-3.50000 F3600.00000
G1 F1920.000
G1 X136.628 Y120.004 E-1.42500
G1 E-0.07500 F3600.00000
G1 X92.476 Y112.436 F2400.000
G1 E5.00000
G1 F1200.000
G1 X84.948 Y122.702 E0.39915
G1 X78.788 Y113.120 E0.35714
G1 X92.416 Y112.439 E0.42783
G1 X91.703 Y112.852 F2400.000
G1 F1200.000
G1 X84.968 Y122.036 E0.35709
G1 X79.458 Y113.464 E0.31951
G1 X91.643 Y112.855 E0.38255
G1 X90.930 Y113.268 F2400.000
G1 F1200.000
G1 X84.989 Y121.371 E0.31503
G1 X80.127 Y113.808 E0.28188
G1 X90.870 Y113.271 E0.33727
G1 X91.328 Y113.312 F2400.000
G1 E-3.50000 F3600.00000
G1 F1920.000
G1 X90.400 Y113.919 E-1.42500
G1 E-0.07500 F3600.00000
G1 X76.324 Y96.536 F2400.000
G1 E5.00000
G1 F1200.000
G1 X96.258 Y96.536 E0.62502
G1 X92.230 Y111.497 E0.48579
G1 X79.203 Y110.930 E0.40885
G1 X76.336 Y96.595 E0.45839
G1 X76.784 Y96.913 F2400.000
G1 F1200.000
G1 X95.766 Y96.913 E0.59517
G1 X91.945 Y111.107 E0.46089
G1 X79.515 Y110.567 E0.39010
G1 X76.796 Y96.972 E0.43470
G1 X77.244 Y97.290 F2400.000
G1 F1200.000
G1 X95.274 Y97.290 E0.56532
G1 X91.659 Y110.717 E0.43599
G1 X79.826 Y110.203 E0.37136
G1 X77.256 Y97.349 E0.41100
G1 X77.136 Y96.905 F2400.000
G1 E-3.50000 F3600.00000
G1 F1920.000
G1 X78.056 Y97.346 E-1.42500
G1 E-0.07500 F3600.00000
G1 X144.742 Y97.536 F2400.000
G1 E5.00000
G1 F1200.000
G1 X140.742 Y114.036 E0.53233
G1 X137.864 Y114.036 E0.09022
G1 X137.548 Y114.774 E0.02517
G1 X137.729 Y114.036 E0.02381
G1 X135.217 Y114.036 E0.07874
G1 X139.237 Y96.951 E0.55031
G1 X129.686 Y97.588 E0.30014
G1 X128.695 Y103.036 E0.17361
G1 X110.656 Y103.036 E0.56562
G1 X107.656 Y125.536 E0.71171
G1 X103.592 Y125.536 E0.12741
G1 X106.851 Y99.464 E0.82382
G1 X128.556 Y99.464 E0.68053
G1 X128.589 Y97.472 E0.06248
G1 X99.809 Y96.512 E0.90287
G1 X90.301 Y125.536 E0.95760
G1 X79.298 Y125.536 E0.34498
G1 X73.830 Y96.702 E0.92018
G1 X67.464 Y95.233 E0.20484
G1 X67.464 Y94.464 E0.02411
G1 X152.536 Y94.464 E2.66736
G1 X152.536 Y97.536 E0.09631
G1 X144.802 Y97.536 E0.24250
G1 X145.038 Y97.913 F2400.000
G1 F1200.000
G1 X141.038 Y114.413 E0.53233
G1 X138.113 Y114.413 E0.09172
G1 X136.096 Y119.119 E0.16054
G1 X137.248 Y114.413 E0.15192
G1 X134.741 Y114.413 E0.07860
G1 X138.753 Y97.361 E0.54924
G1 X130.004 Y97.945 E0.27493
G1 X129.010 Y103.413 E0.17426
G1 X110.986 Y103.413 E0.56513
G1 X107.986 Y125.913 E0.71171
G1 X103.165 Y125.913 E0.15116
G1 X106.518 Y99.087 E0.84765
G1 X128.185 Y99.087 E0.67934
G1 X128.206 Y97.836 E0.03923
G1 X100.079 Y96.899 E0.88237
G1 X90.575 Y125.913 E0.95729
G1 X78.986 Y125.913 E0.36334
G1 X73.505 Y97.014 E0.92225
G1 X67.087 Y95.533 E0.20653
G1 X67.087 Y94.087 E0.04533
G1 X152.913 Y94.087 E2.69101
G1 X152.913 Y97.913 E0.11996
G1 X145.098 Y97.913 E0.24502
G1 X145.335 Y98.290 F2400.000
G1 F1200.000
G1 X141.335 Y114.790 E0.53233
G1 X138.362 Y114.790 E0.09323
G1 X136.383 Y119.407 E0.15751
G1 X137.159 Y119.865 E0.02825
G1 X137.645 Y120.354 E0.02161
G1 X137.991 Y120.949 E0.02161
G1 X138.176 Y121.613 E0.02161
G1 X138.187 Y122.297 E0.02146
G1 X138.023 Y122.972 E0.02176
G1 X137.696 Y123.578 E0.02160
G1 X137.225 Y124.082 E0.02161
G1 X136.643 Y124.450 E0.02161
G1 X135.987 Y124.660 E0.02161
G1 X135.298 Y124.696 E0.02161
G1 X134.623 Y124.558 E0.02161
G1 X134.005 Y124.253 E0.02161
G1 X133.484 Y123.802 E0.02161
G1 X133.094 Y123.234 E0.02161
G1 X132.860 Y122.585 E0.02161
G1 X132.798 Y121.899 E0.02161
G1 X132.911 Y121.219 E0.02161
G1 X133.193 Y120.590 E0.02161
G1 X133.624 Y120.053 E0.02161
G1 X134.177 Y119.642 E0.02161
G1 X134.816 Y119.384 E0.02161
G1 X135.670 Y119.274 E0.02697
G1 X136.768 Y114.790 E0.14476
G1 X134.265 Y114.790 E0.07846
G1 X138.269 Y97.772 E0.54817
G1 X130.323 Y98.301 E0.24972
G1 X129.325 Y103.790 E0.17491
G1 X111.316 Y103.790 E0.56465
G1 X108.316 Y126.290 E0.71171
G1 X102.738 Y126.290 E0.17490
G1 X106.185 Y98.710 E0.87148
G1 X127.814 Y98.710 E0.67815
G1 X127.822 Y98.201 E0.01597
G1 X100.349 Y97.285 E0.86187
G1 X90.848 Y126.290 E0.95699
G1 X78.674 Y126.290 E0.38170
G1 X73.181 Y97.326 E0.92433
G1 X66.710 Y95.833 E0.20822
G1 X66.710 Y93.710 E0.06656
G1 X153.290 Y93.710 E2.71466
G1 X153.290 Y98.290 E0.14360
G1 X145.395 Y98.290 E0.24755
G1 X144.935 Y98.296 F2400.000
G1 E-3.50000 F3600.00000
G1 F1920.000
G1 X145.204 Y99.067 E-1.42500
G1 E-0.07500 F3600.00000
G1 X138.935 Y96.858 F2400.000
G1 E5.00000
G1 F1200.000
G1 X136.824 Y94.747 E0.09406
G1 X136.288 Y94.747 E0.01688
G1 X138.273 Y96.732 E0.08844
G1 X137.771 Y96.766 E0.01586
G1 X135.752 Y94.747 E0.08994
G1 X135.216 Y94.747 E0.01688
G1 X137.268 Y96.799 E0.09143
G1 X136.766 Y96.833 E0.01586
G1 X134.680 Y94.747 E0.09292
G1 X134.144 Y94.747 E0.01688
G1 X136.264 Y96.866 E0.09441
G1 X135.761 Y96.900 E0.01586
G1 X133.609 Y94.747 E0.09590
G1 X133.073 Y94.747 E0.01688
G1 X135.259 Y96.933 E0.09740
G1 X134.757 Y96.967 E0.01586
G1 X132.537 Y94.747 E0.09889
G1 X132.001 Y94.747 E0.01688
G1 X134.254 Y97.000 E0.10038
G1 X133.752 Y97.033 E0.01586
G1 X131.465 Y94.747 E0.10187
G1 X130.930 Y94.747 E0.01688
G1 X133.250 Y97.067 E0.10336
G1 X132.747 Y97.100 E0.01586
G1 X130.394 Y94.747 E0.10486
G1 X129.858 Y94.747 E0.01688
G1 X132.245 Y97.134 E0.10635
G1 X131.743 Y97.167 E0.01586
G1 X129.322 Y94.747 E0.10784
G1 X128.786 Y94.747 E0.01688
G1 X131.240 Y97.201 E0.10933
G1 X130.738 Y97.234 E0.01586
G1 X128.251 Y94.747 E0.11082
G1 X127.715 Y94.747 E0.01688
G1 X130.236 Y97.268 E0.11232
G1 X129.733 Y97.301 E0.01586
G1 X127.179 Y94.747 E0.11381
G1 X126.643 Y94.747 E0.01688
G1 X129.412 Y97.515 E0.12335
G1 X129.329 Y97.969 E0.01452
G1 X126.107 Y94.747 E0.14355
G1 X125.571 Y94.747 E0.01688
G1 X127.993 Y97.169 E0.10790
G1 X127.439 Y97.150 E0.01747
G1 X125.036 Y94.747 E0.10708
G1 X124.500 Y94.747 E0.01688
G1 X126.885 Y97.132 E0.10626
G1 X126.330 Y97.113 E0.01747
G1 X123.964 Y94.747 E0.10543
G1 X123.428 Y94.747 E0.01688
G1 X125.776 Y97.095 E0.10461
G1 X125.222 Y97.076 E0.01747
G1 X122.892 Y94.747 E0.10379
G1 X122.357 Y94.747 E0.01688
G1 X124.668 Y97.058 E0.10296
G1 X124.113 Y97.039 E0.01747
G1 X121.821 Y94.747 E0.10214
G1 X121.285 Y94.747 E0.01688
G1 X123.559 Y97.021 E0.10132
G1 X123.005 Y97.003 E0.01747
G1 X120.749 Y94.747 E0.10049
G1 X120.213 Y94.747 E0.01688
G1 X122.450 Y96.984 E0.09967
G1 X121.896 Y96.966 E0.01747
G1 X119.677 Y94.747 E0.09885
G1 X119.142 Y94.747 E0.01688
G1 X121.342 Y96.947 E0.09802
G1 X120.788 Y96.929 E0.01747
G1 X118.606 Y94.747 E0.09720
G1 X118.070 Y94.747 E0.01688
G1 X120.233 Y96.910 E0.09638
G1 X119.679 Y96.892 E0.01747
G1 X117.534 Y94.747 E0.09555
G1 X116.998 Y94.747 E0.01688
G1 X119.125 Y96.873 E0.09473
G1 X118.570 Y96.855 E0.01747
G1 X116.463 Y94.747 E0.09391
G1 X115.927 Y94.747 E0.01688
G1 X118.016 Y96.836 E0.09308
G1 X117.462 Y96.818 E0.01747
G1 X115.391 Y94.747 E0.09226
G1 X114.855 Y94.747 E0.01688
G1 X116.907 Y96.799 E0.09144
G1 X116.353 Y96.781 E0.01747
G1 X114.319 Y94.747 E0.09061
G1 X113.784 Y94.747 E0.01688
G1 X115.799 Y96.762 E0.08979
G1 X115.245 Y96.744 E0.01747
G1 X113.248 Y94.747 E0.08897
G1 X112.712 Y94.747 E0.01688
G1 X114.690 Y96.725 E0.08815
G1 X114.136 Y96.707 E0.01747
G1 X112.176 Y94.747 E0.08732
G1 X111.640 Y94.747 E0.01688
G1 X113.582 Y96.688 E0.08650
G1 X113.027 Y96.670 E0.01747
G1 X111.104 Y94.747 E0.08568
G1 X110.569 Y94.747 E0.01688
G1 X112.473 Y96.651 E0.08485
G1 X111.919 Y96.633 E0.01747
G1 X110.033 Y94.747 E0.08403
G1 X109.497 Y94.747 E0.01688
G1 X111.365 Y96.615 E0.08321
G1 X110.810 Y96.596 E0.01747
G1 X108.961 Y94.747 E0.08238
G1 X108.425 Y94.747 E0.01688
G1 X110.256 Y96.578 E0.08156
G1 X109.702 Y96.559 E0.01747
G1 X107.890 Y94.747 E0.08074
G1 X107.354 Y94.747 E0.01688
G1 X109.147 Y96.541 E0.07991
G1 X108.593 Y96.522 E0.01747
G1 X106.818 Y94.747 E0.07909
G1 X106.282 Y94.747 E0.01688
G1 X108.039 Y96.504 E0.07827
G1 X107.485 Y96.485 E0.01747
G1 X105.746 Y94.747 E0.07744
G1 X105.210 Y94.747 E0.01688
G1 X106.930 Y96.467 E0.07662
G1 X106.376 Y96.448 E0.01747
G1 X104.675 Y94.747 E0.07580
G1 X104.139 Y94.747 E0.01688
G1 X105.822 Y96.430 E0.07497
G1 X105.267 Y96.411 E0.01747
G1 X103.603 Y94.747 E0.07415
G1 X103.067 Y94.747 E0.01688
G1 X104.713 Y96.393 E0.07333
G1 X104.159 Y96.374 E0.01747
G1 X102.531 Y94.747 E0.07250
G1 X101.996 Y94.747 E0.01688
G1 X103.604 Y96.356 E0.07168
G1 X103.050 Y96.337 E0.01747
G1 X101.460 Y94.747 E0.07086
G1 X100.924 Y94.747 E0.01688
G1 X102.496 Y96.319 E0.07004
G1 X101.942 Y96.300 E0.01747
G1 X100.388 Y94.747 E0.06921
G1 X99.852 Y94.747 E0.01688
G1 X101.387 Y96.282 E0.06839
G1 X100.833 Y96.263 E0.01747
G1 X99.317 Y94.747 E0.06757
G1 X98.781 Y94.747 E0.01688
G1 X100.279 Y96.245 E0.06674
G1 X99.724 Y96.227 E0.01747
G1 X98.245 Y94.747 E0.06592
G1 X97.709 Y94.747 E0.01688
G1 X99.502 Y96.540 E0.07989
G1 X99.370 Y96.944 E0.01338
G1 X97.173 Y94.747 E0.09787
G1 X96.637 Y94.747 E0.01688
G1 X99.238 Y97.347 E0.11586
G1 X99.106 Y97.751 E0.01338
G1 X96.102 Y94.747 E0.13384
G1 X95.566 Y94.747 E0.01688
G1 X98.973 Y98.155 E0.15182
G1 X98.841 Y98.558 E0.01338
G1 X95.030 Y94.747 E0.16980
G1 X94.494 Y94.747 E0.01688
G1 X96.000 Y96.253 E0.06710
G1 X95.464 Y96.253 E0.01688
G1 X93.958 Y94.747 E0.06710
G1 X93.423 Y94.747 E0.01688
G1 X94.929 Y96.253 E0.06710
G1 X94.393 Y96.253 E0.01688
G1 X92.887 Y94.747 E0.06710
G1 X92.351 Y94.747 E0.01688
G1 X93.857 Y96.253 E0.06710
G1 X93.321 Y96.253 E0.01688
G1 X91.815 Y94.747 E0.06710
G1 X91.279 Y94.747 E0.01688
G1 X92.785 Y96.253 E0.06710
G1 X92.250 Y96.253 E0.01688
G1 X90.743 Y94.747 E0.06710
G1 X90.208 Y94.747 E0.01688
G1 X91.714 Y96.253 E0.06710
G1 X91.178 Y96.253 E0.01688
G1 X89.672 Y94.747 E0.06710
G1 X89.136 Y94.747 E0.01688
G1 X90.642 Y96.253 E0.06710
G1 X90.106 Y96.253 E0.01688
G1 X88.600 Y94.747 E0.06710
G1 X88.064 Y94.747 E0.01688
G1 X89.571 Y96.253 E0.06710
G1 X89.035 Y96.253 E0.01688
G1 X87.529 Y94.747 E0.06710
G1 X86.993 Y94.747 E0.01688
G1 X88.499 Y96.253 E0.06710
G1 X87.963 Y96.253 E0.01688
G1 X86.457 Y94.747 E0.06710
G1 X85.921 Y94.747 E0.01688
G1 X87.427 Y96.253 E0.06710
G1 X86.891 Y96.253 E0.01688
G1 X85.385 Y94.747 E0.06710
G1 X84.850 Y94.747 E0.01688
G1 X86.356 Y96.253 E0.06710
G1 X85.820 Y96.253 E0.01688
G1 X84.314 Y94.747 E0.06710
G1 X83.778 Y94.747 E0.01688
G1 X85.284 Y96.253 E0.06710
G1 X84.748 Y96.253 E0.01688
G1 X83.242 Y94.747 E0.06710
G1 X82.706 Y94.747 E0.01688
G1 X84.212 Y96.253 E0.06710
G1 X83.677 Y96.253 E0.01688
G1 X82.170 Y94.747 E0.06710
G1 X81.635 Y94.747 E0.01688
G1 X83.141 Y96.253 E0.06710
G1 X82.605 Y96.253 E0.01688
G1 X81.099 Y94.747 E0.06710
G1 X80.563 Y94.747 E0.01688
G1 X82.069 Y96.253 E0.06710
G1 X81.533 Y96.253 E0.01688
G1 X80.027 Y94.747 E0.06710
G1 X79.491 Y94.747 E0.01688
G1 X80.998 Y96.253 E0.06710
G1 X80.462 Y96.253 E0.01688
G1 X78.956 Y94.747 E0.06710
G1 X78.420 Y94.747 E0.01688
G1 X79.926 Y96.253 E0.06710
G1 X79.390 Y96.253 E0.01688
G1 X77.884 Y94.747 E0.06710
G1 X77.348 Y94.747 E0.01688
G1 X78.854 Y96.253 E0.06710
G1 X78.318 Y96.253 E0.01688
G1 X76.812 Y94.747 E0.06710
G1 X76.277 Y94.747 E0.01688
G1 X77.783 Y96.253 E0.06710
G1 X77.247 Y96.253 E0.01688
G1 X75.741 Y94.747 E0.06710
G1 X75.205 Y94.747 E0.01688
G1 X76.711 Y96.253 E0.06710
G1 X76.175 Y96.253 E0.01688
G1 X74.669 Y94.747 E0.06710
G1 X74.133 Y94.747 E0.01688
G1 X76.064 Y96.678 E0.08602
G1 X76.198 Y97.347 E0.02152
G1 X73.597 Y94.747 E0.11586
G1 X73.062 Y94.747 E0.01688
G1 X76.332 Y98.017 E0.14570
G1 X76.466 Y98.687 E0.02152
G1 X72.526 Y94.747 E0.17554
G1 X71.990 Y94.747 E0.01688
G1 X73.602 Y96.359 E0.07183
G1 X72.906 Y96.199 E0.02252
G1 X71.454 Y94.747 E0.06467
G1 X70.918 Y94.747 E0.01688
G1 X72.209 Y96.038 E0.05751
G1 X71.513 Y95.877 E0.02252
G1 X70.383 Y94.747 E0.05035
G1 X69.847 Y94.747 E0.01688
G1 X70.816 Y95.716 E0.04319
G1 X70.120 Y95.556 E0.02252
G1 X69.311 Y94.747 E0.03603
G1 X68.775 Y94.747 E0.01688
G1 X69.423 Y95.395 E0.02886
G1 X68.726 Y95.234 E0.02252
G1 X68.239 Y94.747 E0.02170
G1 X67.747 Y94.747 E0.01551
G1 X67.747 Y94.790 E0.00137
G1 X68.256 Y95.300 E0.02269
G1 E-3.50000 F3600.00000
G1 F1920.000
G1 X67.747 Y94.790 E-1.28297
G1 X67.747 Y94.747 E-0.07743
G1 X67.783 Y94.747 E-0.06461
G1 E-0.07500 F3600.00000
G1 X73.945 Y96.702 F2400.000
G1 E5.00000
G1 F1200.000
G1 X76.600 Y99.357 E0.11827
G1 X76.734 Y100.026 E0.02152
G1 X74.284 Y97.576 E0.10915
G1 X74.409 Y98.238 E0.02120
G1 X76.868 Y100.696 E0.10953
G1 X77.002 Y101.366 E0.02152
