;FLAVOR:Marlin
;TIME:18394
;Filament used: 420.065m
;Layer height: 0.2
;MINX:81.9
;MINY:85.506
;MINZ:0.2
;MAXX:147.045
;MAXY:147.6
;MAXZ:38
;Generated with Cura_SteamEngine 4.8.0
M140 S60
M105
M190 S60
M104 S210
M105
M109 S210
M82 ;absolute extrusion mode
; Ender 3 Custom Start G-code
G92 E0 ; Reset Extruder
G28 ; Home all axes
G1 Z2.0 F3000 ; Move Z Axis up little to prevent scratching of Heat Bed
G1 X0.1 Y20 Z0.3 F5000.0 ; Move to start position
G1 X0.1 Y200.0 Z0.3 F1500.0 E15 ; Draw the first line
G1 X0.4 Y200.0 Z0.3 F5000.0 ; Move to side a little
G1 X0.4 Y20 Z0.3 F1500.0 E30 ; Draw the second line
G92 E0 ; Reset Extruder
G1 Z2.0 F3000 ; Move Z Axis up little to prevent scratching of Heat Bed
G1 X5 Y20 Z0.3 F5000.0 ; Move over to prevent blob squish
G92 E0
G92 E0
G1 F1500 E-6.5
;LAYER_COUNT:190
;LAYER:0
M107
G0 F6000 X85.098 Y88.764 Z0.2
;TYPE:SKIRT
G1 F1500 E0
G1 F1200 X85.786 Y88.127 E2.3876
G1 X86.526 Y87.551 E4.77557
G1 X87.312 Y87.039 E7.16429
G1 X88.139 Y86.597 E9.55214
G1 X89.001 Y86.227 E11.94088
G1 X89.891 Y85.931 E14.3293
G1 X90.803 Y85.713 E16.71712
G1 X91.73 Y85.572 E19.10485
G1 X92.59 Y85.514 E21.2998
G1 X92.728 Y85.51 E21.65136
G1 X93.216 Y85.506 E22.89408
G1 X93.542 Y85.511 E23.72433
G1 X93.84 Y85.52 E24.48353
G1 X94.952 Y85.568 E27.31785
G1 X95.796 Y85.615 E29.47041
G1 X98.327 Y85.686 E35.91809
G1 X100.851 Y85.684 E42.3454
G1 X103.365 Y85.612 E48.74987
G1 X105.26 Y85.516 E53.58164
G1 X105.413 Y85.511 E53.97146
G1 X105.941 Y85.506 E55.31606
G1 X106.266 Y85.511 E56.14376
G1 X106.873 Y85.537 E57.69089
G1 X108.168 Y85.629 E60.9969
G1 X110.757 Y85.774 E67.60006
G1 X113.29 Y85.846 E74.0529
G1 X115.779 Y85.846 E80.39109
G1 X118.327 Y85.774 E86.8821
G1 X120.868 Y85.629 E93.36323
G1 X121.877 Y85.55 E95.94049
G1 X122.266 Y85.526 E96.93296
G1 X122.523 Y85.515 E97.588
G1 X123.162 Y85.506 E99.21536
G1 X123.488 Y85.511 E100.04561
G1 X123.786 Y85.52 E100.80481
G1 X124.897 Y85.568 E103.63659
G1 X125.741 Y85.615 E105.78915
G1 X128.272 Y85.686 E112.23682
G1 X130.797 Y85.684 E118.66668
G1 X133.312 Y85.612 E125.0737
G1 X134.626 Y85.546 E128.42399
G1 X134.936 Y85.528 E129.21473
G1 X135.361 Y85.511 E130.29785
G1 X135.891 Y85.506 E131.64754
G1 X136.209 Y85.511 E132.45742
G1 X137.145 Y85.566 E134.84504
G1 X138.073 Y85.7 E137.23268
G1 X138.987 Y85.913 E139.62253
G1 X139.879 Y86.203 E142.01102
G1 X140.743 Y86.568 E144.39945
G1 X141.573 Y87.005 E146.78808
G1 X142.362 Y87.511 E149.17493
G1 X143.106 Y88.083 E151.56472
G1 X143.798 Y88.716 E153.95292
G1 X144.434 Y89.405 E156.34066
G1 X145.008 Y90.146 E158.72751
G1 X145.518 Y90.934 E161.11774
G1 X145.958 Y91.762 E163.50544
G1 X146.327 Y92.624 E165.89317
G1 X146.62 Y93.515 E168.28161
G1 X146.837 Y94.427 E170.66884
G1 X146.975 Y95.355 E173.05796
G1 X147.032 Y96.201 E175.21716
G1 X147.041 Y96.521 E176.03236
G1 X147.045 Y96.83 E176.81929
G1 X147.044 Y135.95 E276.43755
G1 X147.034 Y136.652 E278.22536
G1 X146.981 Y137.588 E280.61268
G1 X146.848 Y138.516 E282.99996
G1 X146.636 Y139.43 E285.38923
G1 X146.348 Y140.323 E287.77857
G1 X145.984 Y141.187 E290.16601
G1 X145.548 Y142.018 E292.55571
G1 X145.043 Y142.808 E294.94333
G1 X144.473 Y143.552 E297.33002
G1 X143.841 Y144.245 E299.71839
G1 X143.152 Y144.882 E302.10786
G1 X142.412 Y145.458 E304.49582
G1 X141.625 Y145.969 E306.8853
G1 X140.798 Y146.41 E309.27195
G1 X140.156 Y146.694 E311.0596
G1 X139.911 Y146.793 E311.7325
G1 X139.027 Y147.107 E314.12138
G1 X138.12 Y147.344 E316.50858
G1 X137.196 Y147.504 E318.89655
G1 X135.924 Y147.593 E322.14359
G1 X135.298 Y147.6 E323.73778
G1 X123.535 Y147.599 E353.69202
G1 X122.838 Y147.589 E355.46709
G1 X122.22 Y147.563 E357.04221
G1 X120.889 Y147.468 E360.4402
G1 X118.409 Y147.322 E366.7664
G1 X115.886 Y147.246 E373.19408
G1 X113.362 Y147.24 E379.62141
G1 X110.874 Y147.305 E385.95921
G1 X108.336 Y147.444 E392.43186
G1 X107.524 Y147.51 E394.50642
G1 X106.67 Y147.567 E396.68595
G1 X106.27 Y147.586 E397.70569
G1 X105.979 Y147.593 E398.44693
G1 X105.353 Y147.6 E400.04113
G1 X93.592 Y147.599 E429.99027
G1 X92.889 Y147.589 E431.78063
G1 X91.952 Y147.536 E434.17049
G1 X91.024 Y147.403 E436.55777
G1 X90.11 Y147.191 E438.94704
G1 X89.218 Y146.903 E441.33396
G1 X88.353 Y146.539 E443.72375
G1 X87.523 Y146.103 E446.11119
G1 X86.445 Y145.39 E449.40242
G1 X86.309 Y145.288 E449.83532
G1 X85.583 Y144.694 E452.22401
G1 X84.911 Y144.04 E454.61187
G1 X84.297 Y143.331 E457.00024
G1 X83.745 Y142.573 E459.38805
G1 X83.26 Y141.77 E461.77691
G1 X82.845 Y140.929 E464.16505
G1 X82.504 Y140.055 E466.55407
G1 X82.237 Y139.156 E468.94218
G1 X82.049 Y138.237 E471.33086
G1 X81.939 Y137.306 E473.71813
G1 X81.914 Y136.82 E474.95735
G1 X81.903 Y136.38 E476.07815
G1 X81.9 Y136.016 E477.0051
G1 X81.901 Y97.025 E576.29487
G1 X81.91 Y96.36 E577.98843
G1 X81.963 Y95.424 E580.37576
G1 X82.095 Y94.495 E582.7652
G1 X82.306 Y93.581 E585.15389
G1 X82.594 Y92.689 E587.54081
G1 X82.957 Y91.824 E589.92961
G1 X83.392 Y90.993 E592.31813
G1 X83.896 Y90.203 E594.70438
G1 X84.466 Y89.458 E597.09309
G1 X85.098 Y88.764 E599.48334
G0 F6000 X85.489 Y88.939
G1 F1200 X86.174 Y88.323 E601.82925
G1 X86.91 Y87.77 E604.17354
G1 X87.691 Y87.282 E606.51866
G1 X88.511 Y86.864 E608.86242
G1 X89.365 Y86.519 E611.20787
G1 X90.245 Y86.249 E613.55187
G1 X91.145 Y86.057 E615.89528
G1 X92.059 Y85.943 E618.24079
G1 X92.602 Y85.913 E619.62564
G1 X92.74 Y85.909 E619.9772
G1 X93.21 Y85.906 E621.17407
G1 X93.536 Y85.911 E622.00432
G1 X93.823 Y85.92 E622.73552
G1 X94.929 Y85.968 E625.55458
G1 X95.761 Y86.014 E627.67648
G1 X98.316 Y86.086 E634.18532
G1 X100.828 Y86.084 E640.58208
G1 X103.398 Y86.01 E647.12924
G1 X105.273 Y85.916 E651.90989
G1 X105.426 Y85.911 E652.29971
G1 X105.935 Y85.906 E653.59593
G1 X106.26 Y85.911 E654.42363
G1 X106.845 Y85.936 E655.91468
G1 X108.186 Y86.031 E659.33807
G1 X110.724 Y86.174 E665.81128
G1 X113.279 Y86.246 E672.32012
G1 X115.79 Y86.246 E678.71433
G1 X118.327 Y86.174 E685.17735
G1 X120.874 Y86.029 E691.67373
G1 X121.908 Y85.948 E694.31486
G1 X122.283 Y85.926 E695.27143
G1 X122.54 Y85.915 E695.92647
G1 X123.156 Y85.906 E697.49527
G1 X123.482 Y85.911 E698.32552
G1 X123.769 Y85.92 E699.05672
G1 X124.874 Y85.968 E701.87323
G1 X125.706 Y86.014 E703.99514
G1 X128.261 Y86.086 E710.50397
G1 X130.773 Y86.084 E716.90073
G1 X133.344 Y86.01 E723.45044
G1 X134.959 Y85.927 E727.56843
G1 X135.374 Y85.911 E728.62601
G1 X135.885 Y85.906 E729.92732
G1 X136.203 Y85.911 E730.7372
G1 X137.122 Y85.966 E733.0816
G1 X138.033 Y86.1 E735.42641
G1 X138.928 Y86.312 E737.76857
G1 X139.802 Y86.602 E740.11351
G1 X140.648 Y86.966 E742.45878
G1 X141.459 Y87.402 E744.8035
G1 X142.228 Y87.907 E747.14624
G1 X142.952 Y88.477 E749.4927
G1 X143.623 Y89.107 E751.83649
G1 X144.236 Y89.793 E754.1792
G1 X144.788 Y90.53 E756.524
G1 X145.274 Y91.312 E758.86859
G1 X145.69 Y92.133 E761.21231
G1 X146.034 Y92.988 E763.55917
G1 X146.302 Y93.868 E765.90168
G1 X146.492 Y94.769 E768.24652
G1 X146.604 Y95.683 E770.59141
G1 X146.632 Y96.212 E771.94038
G1 X146.641 Y96.532 E772.75558
G1 X146.645 Y96.83 E773.5145
G1 X146.644 Y135.944 E873.11748
G1 X146.634 Y136.646 E874.90529
G1 X146.581 Y137.565 E877.24939
G1 X146.448 Y138.476 E879.59383
G1 X146.237 Y139.372 E881.93789
G1 X145.949 Y140.247 E884.28365
G1 X145.586 Y141.093 E886.62791
G1 X145.151 Y141.904 E888.97143
G1 X144.647 Y142.675 E891.31703
G1 X144.079 Y143.399 E893.66035
G1 X143.449 Y144.071 E896.00599
G1 X142.764 Y144.685 E898.3485
G1 X142.028 Y145.238 E900.69279
G1 X141.246 Y145.725 E903.03872
G1 X140.006 Y146.323 E906.54437
G1 X139.761 Y146.422 E907.21727
G1 X138.894 Y146.729 E909.55939
G1 X138.002 Y146.961 E911.90642
G1 X137.094 Y147.113 E914.25079
G1 X135.919 Y147.193 E917.24983
G1 X135.298 Y147.2 E918.8313
G1 X123.541 Y147.199 E948.77025
G1 X122.844 Y147.189 E950.54533
G1 X122.248 Y147.164 E952.06437
G1 X120.941 Y147.071 E955.40103
G1 X118.409 Y146.922 E961.85987
G1 X115.899 Y146.846 E968.25446
G1 X113.352 Y146.84 E974.74036
G1 X110.842 Y146.906 E981.13423
G1 X108.318 Y147.044 E987.57115
G1 X107.327 Y147.123 E990.10271
G1 X106.644 Y147.168 E991.84573
G1 X106.157 Y147.189 E993.08702
G1 X105.482 Y147.199 E994.80608
G1 X93.748 Y147.2 E1024.68647
G1 X92.894 Y147.189 E1026.86134
G1 X91.975 Y147.136 E1029.20544
G1 X91.064 Y147.003 E1031.54988
G1 X90.168 Y146.792 E1033.89393
G1 X89.294 Y146.504 E1036.23728
G1 X88.447 Y146.141 E1038.58388
G1 X87.636 Y145.706 E1040.92739
G1 X86.685 Y145.07 E1043.84075
G1 X86.549 Y144.968 E1044.27365
G1 X85.837 Y144.384 E1046.61862
G1 X85.179 Y143.741 E1048.9614
G1 X84.578 Y143.043 E1051.30693
G1 X84.041 Y142.295 E1053.65173
G1 X83.571 Y141.504 E1055.99474
G1 X83.171 Y140.674 E1058.34096
G1 X82.844 Y139.814 E1060.6839
G1 X82.594 Y138.928 E1063.02818
G1 X82.421 Y138.023 E1065.37447
G1 X82.314 Y136.807 E1068.48295
G1 X82.303 Y136.376 E1069.58084
G1 X82.3 Y136.012 E1070.50779
G1 X82.301 Y97.031 E1169.7721
G1 X82.31 Y96.366 E1171.46566
G1 X82.362 Y95.446 E1173.81216
G1 X82.494 Y94.535 E1176.15623
G1 X82.705 Y93.639 E1178.50028
G1 X82.992 Y92.764 E1180.84525
G1 X83.355 Y91.918 E1183.18951
G1 X83.789 Y91.106 E1185.53407
G1 X84.292 Y90.335 E1187.87828
G1 X84.861 Y89.611 E1190.22317
G1 X85.489 Y88.939 E1192.56533
G0 F6000 X85.881 Y89.117
G1 F1200 X86.562 Y88.524 E1194.86481
G1 X87.294 Y87.994 E1197.16613
G1 X88.069 Y87.531 E1199.46502
G1 X88.882 Y87.138 E1201.7645
G1 X89.727 Y86.818 E1204.0654
G1 X90.596 Y86.575 E1206.36318
G1 X91.484 Y86.409 E1208.66363
G1 X92.613 Y86.313 E1211.54898
G1 X92.751 Y86.309 E1211.90054
G1 X93.203 Y86.306 E1213.05157
G1 X93.529 Y86.311 E1213.88182
G1 X93.806 Y86.319 E1214.58749
G1 X94.907 Y86.367 E1217.39383
G1 X95.764 Y86.415 E1219.57958
G1 X98.305 Y86.486 E1226.05271
G1 X100.839 Y86.484 E1232.50549
G1 X103.43 Y86.41 E1239.10611
G1 X104.755 Y86.343 E1242.4845
G1 X105.037 Y86.327 E1243.20376
G1 X105.439 Y86.31 E1244.22836
G1 X105.929 Y86.306 E1245.47618
G1 X106.254 Y86.311 E1246.30388
G1 X106.816 Y86.335 E1247.73631
G1 X108.134 Y86.428 E1251.10091
G1 X110.724 Y86.574 E1257.70676
G1 X113.268 Y86.646 E1264.1876
G1 X115.801 Y86.646 E1270.63783
G1 X118.36 Y86.574 E1277.15685
G1 X120.882 Y86.43 E1283.58953
G1 X121.939 Y86.347 E1286.28945
G1 X122.3 Y86.325 E1287.21043
G1 X122.557 Y86.314 E1287.86547
G1 X123.149 Y86.306 E1289.37313
G1 X123.475 Y86.311 E1290.20338
G1 X123.752 Y86.319 E1290.90905
G1 X124.852 Y86.367 E1293.71284
G1 X125.709 Y86.415 E1295.89859
G1 X128.25 Y86.486 E1302.37172
G1 X130.785 Y86.484 E1308.82705
G1 X133.374 Y86.41 E1315.42257
G1 X134.7 Y86.343 E1318.80351
G1 X135.233 Y86.315 E1320.16266
G1 X135.387 Y86.31 E1320.55502
G1 X135.878 Y86.306 E1321.80539
G1 X136.196 Y86.311 E1322.61527
G1 X137.098 Y86.365 E1324.9163
G1 X137.991 Y86.499 E1327.21577
G1 X138.869 Y86.711 E1329.51583
G1 X139.724 Y87 E1331.81408
G1 X140.551 Y87.364 E1334.11499
G1 X141.342 Y87.799 E1336.41375
G1 X142.092 Y88.303 E1338.71478
G1 X142.794 Y88.87 E1341.01267
G1 X143.444 Y89.498 E1343.31422
G1 X144.035 Y90.181 E1345.6142
G1 X144.563 Y90.913 E1347.91254
G1 X145.025 Y91.689 E1350.21231
G1 X145.416 Y92.503 E1352.51188
G1 X145.734 Y93.349 E1354.81337
G1 X145.975 Y94.219 E1357.11223
G1 X146.139 Y95.107 E1359.41175
G1 X146.232 Y96.223 E1362.26347
G1 X146.241 Y96.543 E1363.07866
G1 X146.245 Y96.83 E1363.80957
G1 X146.244 Y135.938 E1463.39728
G1 X146.234 Y136.64 E1465.18509
G1 X146.181 Y137.542 E1467.48597
G1 X146.049 Y138.435 E1469.78469
G1 X145.838 Y139.313 E1472.08415
G1 X145.55 Y140.169 E1474.38401
G1 X145.188 Y140.997 E1476.6852
G1 X144.754 Y141.789 E1478.98496
G1 X144.251 Y142.539 E1481.28458
G1 X143.685 Y143.242 E1483.58286
G1 X143.058 Y143.892 E1485.88264
G1 X142.376 Y144.484 E1488.18236
G1 X141.644 Y145.014 E1490.48368
G1 X140.869 Y145.477 E1492.78257
G1 X139.856 Y145.952 E1495.63166
G1 X139.611 Y146.051 E1496.30456
G1 X138.76 Y146.352 E1498.60317
G1 X137.885 Y146.576 E1500.9032
G1 X136.994 Y146.723 E1503.20278
G1 X135.914 Y146.793 E1505.95875
G1 X135.298 Y146.8 E1507.52748
G1 X123.547 Y146.799 E1537.45116
G1 X122.85 Y146.789 E1539.22624
G1 X122.277 Y146.765 E1540.68665
G1 X120.907 Y146.667 E1544.18424
G1 X118.446 Y146.523 E1550.46184
G1 X115.912 Y146.446 E1556.9176
G1 X113.378 Y146.44 E1563.37039
G1 X110.809 Y146.508 E1569.91459
G1 X108.266 Y146.646 E1576.39982
G1 X107.301 Y146.724 E1578.86518
G1 X106.618 Y146.769 E1580.6082
G1 X106.247 Y146.787 E1581.55405
G1 X105.969 Y146.793 E1582.26214
G1 X105.353 Y146.8 E1583.83087
G1 X93.603 Y146.799 E1613.752
G1 X92.9 Y146.789 E1615.54236
G1 X91.998 Y146.736 E1617.84324
G1 X91.105 Y146.604 E1620.14196
G1 X90.227 Y146.393 E1622.44142
G1 X89.371 Y146.105 E1624.74128
G1 X88.544 Y145.743 E1627.04013
G1 X87.752 Y145.309 E1629.3399
G1 X86.925 Y144.75 E1631.8818
G1 X86.789 Y144.648 E1632.3147
G1 X86.091 Y144.075 E1634.61435
G1 X85.447 Y143.442 E1636.91384
G1 X84.861 Y142.755 E1639.21325
G1 X84.338 Y142.018 E1641.51454
G1 X83.883 Y141.238 E1643.81403
G1 X83.498 Y140.421 E1646.11393
G1 X83.187 Y139.573 E1648.41399
G1 X82.952 Y138.701 E1650.71374
G1 X82.795 Y137.812 E1653.01259
G1 X82.714 Y136.795 E1655.61056
G1 X82.703 Y136.373 E1656.68554
G1 X82.7 Y136.009 E1657.61249
G1 X82.701 Y97.036 E1756.85642
G1 X82.71 Y96.371 E1758.54999
G1 X82.762 Y95.469 E1760.85072
G1 X82.894 Y94.576 E1763.14944
G1 X83.104 Y93.698 E1765.44831
G1 X83.391 Y92.841 E1767.74977
G1 X83.753 Y92.014 E1770.04862
G1 X84.186 Y91.222 E1772.34717
G1 X84.688 Y90.471 E1774.64748
G1 X85.255 Y89.767 E1776.94934
G1 X85.881 Y89.117 E1779.24735
G1 F1500 E1772.74735
;MESH:OttoDIY_Leg_V9.stl(1)
G0 F6000 X94.028 Y95.847
G0 X95.103 Y110.237
G0 X94.229 Y110.88
G0 X93.699 Y110.764
G0 X93.682 Y135.818
G0 X105.5 Y136
;TYPE:WALL-INNER
G1 F1500 E1779.24735
G1 F1200 X93.5 Y136 E1809.8051
G1 X93.5 Y110.736 E1874.13935
G1 X93.5 Y110.412 E1874.96441
G1 X93.5 Y110.358 E1875.10192
G1 X93.5 Y110.021 E1875.96008
G1 X93.673 Y110.358 E1876.23017
G1 X93.705 Y110.412 E1876.25767
G1 X93.883 Y110.682 E1876.88904
G1 X94.083 Y110.987 E1877.81781
G1 X94.53 Y111.532 E1879.61273
G1 X95.032 Y112.027 E1881.40801
G1 X95.583 Y112.469 E1883.20678
G1 X95.825 Y112.623 E1883.93722
G1 X95.808 Y112.741 E1884.24081
G1 X95.81 Y113.293 E1885.64647
G1 X95.894 Y113.837 E1887.04818
G1 X96.059 Y114.364 E1888.45441
G1 X96.3 Y114.86 E1889.85866
G1 X96.611 Y115.315 E1891.26211
G1 X96.988 Y115.719 E1892.66924
G1 X97.419 Y116.062 E1894.07191
G1 X97.897 Y116.338 E1895.47747
G1 X98.412 Y116.538 E1896.88433
G1 X98.949 Y116.661 E1898.2872
G1 X99.5 Y116.702 E1899.69419
G1 X100.051 Y116.661 E1901.10118
G1 X100.588 Y116.538 E1902.50405
G1 X101.103 Y116.338 E1903.9109
G1 X101.581 Y116.062 E1905.31646
G1 X102.012 Y115.719 E1906.71913
G1 X102.389 Y115.315 E1908.12626
G1 X102.7 Y114.86 E1909.52971
G1 X102.941 Y114.364 E1910.93396
G1 X103.106 Y113.837 E1912.3402
G1 X103.19 Y113.293 E1913.7419
G1 X103.192 Y112.741 E1915.14756
G1 X103.175 Y112.623 E1915.45115
G1 X103.416 Y112.469 E1916.17945
G1 X103.967 Y112.028 E1917.97662
G1 X104.469 Y111.533 E1919.7719
G1 X104.916 Y110.988 E1921.56682
G1 X105.118 Y110.681 E1922.50264
G1 X105.304 Y110.398 E1923.36501
G1 X105.5 Y110.018 E1924.45381
G1 X105.5 Y110.398 E1924.66843
G1 X105.5 Y110.737 E1925.32148
G1 X105.5 Y136 E1989.65318
G0 F6000 X105.9 Y136.397
;TYPE:WALL-OUTER
G1 F1200 X105.895 Y136.4 E1989.66803
G1 X93.105 Y136.4 E2022.2375
G1 X93.1 Y136.397 E2022.25235
G1 X93.1 Y96.7 E2123.33993
G1 X93.175 Y96.7 E2123.53091
G1 X93.175 Y107.017 E2149.80294
G1 X93.21 Y107.663 E2151.45038
G1 X93.311 Y108.307 E2153.11035
G1 X93.487 Y108.96 E2154.83254
G1 X93.723 Y109.579 E2156.51949
G1 X94.023 Y110.164 E2158.19365
G1 X94.044 Y110.199 E2158.29758
G1 X94.406 Y110.75 E2159.97642
G1 X94.826 Y111.262 E2161.66276
G1 X95.298 Y111.728 E2163.35179
G1 X95.816 Y112.143 E2165.04199
G1 X96.257 Y112.425 E2166.37495
G1 X96.208 Y112.769 E2167.25979
G1 X96.21 Y113.261 E2168.51266
G1 X96.285 Y113.746 E2169.76239
G1 X96.432 Y114.216 E2171.0164
G1 X96.647 Y114.659 E2172.27033
G1 X96.924 Y115.064 E2173.51981
G1 X97.26 Y115.424 E2174.77379
G1 X97.645 Y115.73 E2176.02613
G1 X98.071 Y115.976 E2177.27881
G1 X98.53 Y116.155 E2178.53338
G1 X99.009 Y116.264 E2179.78433
G1 X99.5 Y116.301 E2181.0382
G1 X99.991 Y116.264 E2182.29206
