;FLAVOR:Marlin
;TIME:19794
;Filament used: 507.131m
;Layer height: 0.2
;MINX:75.1
;MINY:63.3
;MINZ:0.2
;MAXX:159.8
;MAXY:171.7
;MAXZ:24.6
;Generated with Cura_SteamEngine 4.8.0
M140 S60
M105
M190 S60
M104 S210
M105
M109 S210
M82 ;absolute extrusion mode
; Ender 3 Custom Start G-code
G92 E0 ; Reset Extruder
G28 ; Home all axes
G1 Z2.0 F3000 ; Move Z Axis up little to prevent scratching of Heat Bed
G1 X0.1 Y20 Z0.3 F5000.0 ; Move to start position
G1 X0.1 Y200.0 Z0.3 F1500.0 E15 ; Draw the first line
G1 X0.4 Y200.0 Z0.3 F5000.0 ; Move to side a little
G1 X0.4 Y20 Z0.3 F1500.0 E30 ; Draw the second line
G92 E0 ; Reset Extruder
G1 Z2.0 F3000 ; Move Z Axis up little to prevent scratching of Heat Bed
G1 X5 Y20 Z0.3 F5000.0 ; Move over to prevent blob squish
G92 E0
G92 E0
G1 F1500 E-6.5
;LAYER_COUNT:122
;LAYER:0
M107
G1 F300 Z0.4
G0 F6000 X78.186 Y72.672 Z0.4
;TYPE:SKIRT
G1 F300 Z0.2
G1 F1500 E0
G1 F1200 X78.388 Y72.46 E0.74568
G1 X78.653 Y72.191 E1.70724
G1 X83.971 Y66.874 E20.85697
G1 X84.458 Y66.403 E22.58222
G1 X85.159 Y65.78 E24.97039
G1 X85.911 Y65.22 E27.35798
G1 X86.708 Y64.725 E29.74711
G1 X87.544 Y64.3 E32.13527
G1 X88.413 Y63.948 E34.52281
G1 X89.309 Y63.671 E36.911
G1 X90.226 Y63.472 E39.30047
G1 X91.156 Y63.351 E41.68866
G1 X91.734 Y63.316 E43.16322
G1 X92.119 Y63.306 E44.14395
G1 X92.662 Y63.3 E45.52677
G1 X141.393 Y63.3 E169.61924
G1 X142.252 Y63.311 E171.80685
G1 X143.188 Y63.364 E174.19417
G1 X144.116 Y63.497 E176.58145
G1 X145.03 Y63.709 E178.97072
G1 X145.923 Y63.997 E181.36006
G1 X146.787 Y64.361 E183.7475
G1 X147.618 Y64.797 E186.1372
G1 X148.408 Y65.302 E188.52482
G1 X149.152 Y65.872 E190.91151
G1 X149.576 Y66.245 E192.34955
G1 X149.728 Y66.386 E192.8775
G1 X149.929 Y66.577 E193.58358
G1 X150.188 Y66.832 E194.50914
G1 X155.513 Y72.158 E213.68767
G1 X155.971 Y72.63 E215.36245
G1 X156.595 Y73.33 E217.75041
G1 X157.157 Y74.081 E220.13901
G1 X157.653 Y74.877 E222.52732
G1 X158.079 Y75.712 E224.91437
G1 X158.433 Y76.581 E227.30382
G1 X158.711 Y77.477 E229.69277
G1 X158.912 Y78.393 E232.08084
G1 X159.011 Y79.083 E233.8559
G1 X159.029 Y79.246 E234.2735
G1 X159.094 Y80.319 E237.01088
G1 X159.1 Y80.862 E238.39371
G1 X159.099 Y108.747 E309.40228
G1 X159.085 Y109.75 E311.95664
G1 X159.023 Y111.934 E317.5204
G1 X159.021 Y114.457 E323.94516
G1 X159.092 Y116.977 E330.36484
G1 X159.234 Y119.509 E336.82265
G1 X159.446 Y122.014 E343.22439
G1 X159.676 Y124.107 E348.58625
G1 X159.71 Y124.385 E349.29945
G1 X159.784 Y125.331 E351.71578
G1 X159.794 Y125.719 E352.70414
G1 X159.8 Y126.262 E354.08696
G1 X159.799 Y154.15 E425.10317
G1 X159.789 Y154.852 E426.89098
G1 X159.736 Y155.788 E429.2783
G1 X159.603 Y156.716 E431.66558
G1 X159.391 Y157.63 E434.05485
G1 X159.103 Y158.523 E436.44419
G1 X158.739 Y159.387 E438.83164
G1 X158.303 Y160.218 E441.22134
G1 X157.798 Y161.008 E443.60896
G1 X157.228 Y161.752 E445.99564
G1 X156.855 Y162.176 E447.43368
G1 X156.714 Y162.328 E447.96164
G1 X156.512 Y162.54 E448.70732
G1 X156.331 Y162.725 E449.36639
G1 X150.946 Y168.108 E468.7556
G1 X150.452 Y168.587 E470.50783
G1 X149.752 Y169.211 E472.89579
G1 X149.001 Y169.772 E475.28286
G1 X148.204 Y170.268 E477.67333
G1 X147.369 Y170.694 E480.06038
G1 X146.5 Y171.047 E482.44888
G1 X145.604 Y171.325 E484.83782
G1 X144.688 Y171.526 E487.22589
G1 X143.758 Y171.648 E489.61441
G1 X143.166 Y171.684 E491.12471
G1 X142.781 Y171.694 E492.10543
G1 X142.238 Y171.7 E493.48826
G1 X93.35 Y171.699 E617.98053
G1 X92.648 Y171.689 E619.76834
G1 X91.712 Y171.636 E622.15566
G1 X90.784 Y171.503 E624.54294
G1 X89.87 Y171.291 E626.93221
G1 X88.977 Y171.003 E629.32155
G1 X88.113 Y170.639 E631.70899
G1 X87.282 Y170.203 E634.09869
G1 X86.492 Y169.698 E636.48631
G1 X85.748 Y169.128 E638.873
G1 X85.324 Y168.755 E640.31104
G1 X85.172 Y168.614 E640.83899
G1 X84.954 Y168.406 E641.60627
G1 X84.677 Y168.133 E642.59665
G1 X79.374 Y162.829 E661.69596
G1 X78.903 Y162.342 E663.42121
G1 X78.28 Y161.641 E665.80938
G1 X77.72 Y160.889 E668.19697
G1 X77.225 Y160.092 E670.5861
G1 X76.8 Y159.256 E672.97426
G1 X76.448 Y158.387 E675.3618
G1 X76.171 Y157.491 E677.74999
G1 X75.972 Y156.574 E680.13946
G1 X75.851 Y155.644 E682.52765
G1 X75.816 Y155.066 E684.00221
G1 X75.806 Y154.681 E684.98293
G1 X75.8 Y154.138 E686.36576
G1 X75.801 Y126.253 E757.37433
G1 X75.815 Y125.25 E759.92869
G1 X75.877 Y123.066 E765.49244
G1 X75.879 Y120.543 E771.91721
G1 X75.808 Y118.023 E778.33689
G1 X75.666 Y115.487 E784.80487
G1 X75.455 Y112.992 E791.18102
G1 X75.229 Y110.94 E796.43799
G1 X75.189 Y110.611 E797.28195
G1 X75.117 Y109.671 E799.68265
G1 X75.106 Y109.281 E800.67617
G1 X75.1 Y108.738 E802.059
G1 X75.101 Y80.85 E873.0752
G1 X75.111 Y80.148 E874.86301
G1 X75.164 Y79.212 E877.25034
G1 X75.297 Y78.284 E879.63762
G1 X75.509 Y77.37 E882.02689
G1 X75.797 Y76.477 E884.41623
G1 X76.161 Y75.613 E886.80367
G1 X76.597 Y74.782 E889.19337
G1 X77.102 Y73.992 E891.58099
G1 X77.672 Y73.248 E893.96768
G1 X78.045 Y72.824 E895.40572
G1 X78.186 Y72.672 E895.93367
G0 F6000 X78.48 Y72.944
G1 F1200 X78.674 Y72.74 E896.65055
G1 X78.936 Y72.473 E897.60313
G1 X84.122 Y67.286 E916.28109
G1 X84.736 Y66.691 E918.45832
G1 X85.425 Y66.08 E920.80336
G1 X86.164 Y65.531 E923.14767
G1 X86.948 Y65.049 E925.49123
G1 X87.771 Y64.636 E927.83607
G1 X88.627 Y64.297 E930.18057
G1 X89.509 Y64.033 E932.52501
G1 X90.411 Y63.846 E934.87078
G1 X91.747 Y63.716 E938.28894
G1 X92.123 Y63.706 E939.24676
G1 X92.662 Y63.7 E940.6194
G1 X141.393 Y63.7 E1064.71187
G1 X142.246 Y63.711 E1066.8842
G1 X143.165 Y63.764 E1069.2283
G1 X144.076 Y63.897 E1071.57273
G1 X144.972 Y64.108 E1073.91679
G1 X145.847 Y64.396 E1076.26255
G1 X146.693 Y64.759 E1078.60681
G1 X147.504 Y65.194 E1080.95033
G1 X148.275 Y65.698 E1083.29594
G1 X149.304 Y66.539 E1086.68009
G1 X149.456 Y66.68 E1087.20805
G1 X149.649 Y66.864 E1087.88708
G1 X149.906 Y67.115 E1088.80187
G1 X155.226 Y72.436 E1107.9624
G1 X155.684 Y72.908 E1109.63718
G1 X156.296 Y73.596 E1111.982
G1 X156.846 Y74.335 E1114.32783
G1 X157.33 Y75.118 E1116.6719
G1 X157.744 Y75.94 E1119.0156
G1 X158.084 Y76.796 E1121.36104
G1 X158.35 Y77.677 E1123.70451
G1 X158.538 Y78.578 E1126.0483
G1 X158.613 Y79.127 E1127.45931
G1 X158.631 Y79.29 E1127.87691
G1 X158.694 Y80.323 E1130.51231
G1 X158.7 Y80.862 E1131.88494
G1 X158.699 Y108.741 E1202.87823
G1 X158.682 Y109.9 E1205.82992
G1 X158.623 Y111.958 E1211.07273
G1 X158.621 Y114.468 E1217.46439
G1 X158.692 Y117.012 E1223.94516
G1 X158.834 Y119.53 E1230.36738
G1 X159.047 Y122.052 E1236.81246
G1 X159.273 Y124.103 E1242.0669
G1 X159.313 Y124.433 E1242.91339
G1 X159.384 Y125.344 E1245.24027
G1 X159.394 Y125.723 E1246.20572
G1 X159.4 Y126.262 E1247.57836
G1 X159.399 Y154.144 E1318.57929
G1 X159.389 Y154.846 E1320.3671
G1 X159.336 Y155.765 E1322.7112
G1 X159.203 Y156.676 E1325.05564
G1 X158.992 Y157.572 E1327.39969
G1 X158.704 Y158.447 E1329.74545
G1 X158.341 Y159.293 E1332.08972
G1 X157.906 Y160.104 E1334.43323
G1 X157.402 Y160.875 E1336.77884
G1 X156.561 Y161.904 E1340.163
G1 X156.42 Y162.056 E1340.69095
G1 X156.226 Y162.26 E1341.40783
G1 X156.045 Y162.445 E1342.0669
G1 X150.668 Y167.821 E1361.4291
G1 X150.174 Y168.3 E1363.18133
G1 X149.486 Y168.912 E1365.52615
G1 X148.747 Y169.461 E1367.87046
G1 X147.964 Y169.945 E1370.21453
G1 X147.141 Y170.358 E1372.55936
G1 X146.286 Y170.699 E1374.90338
G1 X145.404 Y170.964 E1377.24856
G1 X144.503 Y171.152 E1379.59235
G1 X143.153 Y171.284 E1383.04649
G1 X142.777 Y171.294 E1384.0043
G1 X142.238 Y171.3 E1385.37694
G1 X93.356 Y171.299 E1509.85393
G1 X92.654 Y171.289 E1511.64174
G1 X91.735 Y171.236 E1513.98584
G1 X90.824 Y171.103 E1516.33028
G1 X89.928 Y170.892 E1518.67434
G1 X89.053 Y170.604 E1521.0201
G1 X88.207 Y170.241 E1523.36436
G1 X87.396 Y169.806 E1525.70787
G1 X86.625 Y169.302 E1528.05348
G1 X85.596 Y168.461 E1531.43764
G1 X85.444 Y168.32 E1531.96559
G1 X85.234 Y168.12 E1532.70407
G1 X84.959 Y167.85 E1533.68546
G1 X79.786 Y162.678 E1552.313
G1 X79.191 Y162.064 E1554.49024
G1 X78.58 Y161.375 E1556.83527
G1 X78.031 Y160.636 E1559.17958
G1 X77.549 Y159.852 E1561.52315
G1 X77.136 Y159.029 E1563.86798
G1 X76.797 Y158.173 E1566.21248
G1 X76.533 Y157.291 E1568.55693
G1 X76.346 Y156.389 E1570.90269
G1 X76.216 Y155.053 E1574.32086
G1 X76.206 Y154.677 E1575.27867
G1 X76.2 Y154.138 E1576.65131
G1 X76.201 Y126.259 E1647.6446
G1 X76.218 Y125.1 E1650.59629
G1 X76.277 Y123.042 E1655.83909
G1 X76.279 Y120.532 E1662.23076
G1 X76.208 Y117.988 E1668.71152
G1 X76.066 Y115.47 E1675.13375
G1 X75.853 Y112.951 E1681.57122
G1 X75.632 Y110.944 E1686.71289
G1 X75.586 Y110.563 E1687.69015
G1 X75.516 Y109.657 E1690.00413
G1 X75.506 Y109.277 E1690.97213
G1 X75.5 Y108.738 E1692.34477
G1 X75.501 Y80.856 E1763.3457
G1 X75.511 Y80.154 E1765.13351
G1 X75.564 Y79.235 E1767.47761
G1 X75.697 Y78.324 E1769.82204
G1 X75.908 Y77.428 E1772.1661
G1 X76.196 Y76.553 E1774.51186
G1 X76.559 Y75.707 E1776.85612
G1 X76.994 Y74.896 E1779.19964
G1 X77.498 Y74.125 E1781.54525
G1 X78.339 Y73.096 E1784.9294
G1 X78.48 Y72.944 E1785.45736
G0 F6000 X78.773 Y73.216
G1 F1200 X78.96 Y73.02 E1786.14719
G1 X79.219 Y72.756 E1787.08897
G1 X84.527 Y67.449 E1806.20268
G1 X85.014 Y66.978 E1807.92793
G1 X85.69 Y66.38 E1810.22623
G1 X86.417 Y65.843 E1812.5278
G1 X87.188 Y65.373 E1814.82717
G1 X87.998 Y64.973 E1817.12762
G1 X88.84 Y64.647 E1819.42685
G1 X89.707 Y64.396 E1821.72531
G1 X90.594 Y64.223 E1824.0266
G1 X91.761 Y64.116 E1827.0108
G1 X92.128 Y64.106 E1827.94571
G1 X92.662 Y64.1 E1829.30561
G1 X141.393 Y64.1 E1953.39808
G1 X142.24 Y64.111 E1955.55513
G1 X143.142 Y64.164 E1957.85602
G1 X144.035 Y64.296 E1960.15473
G1 X144.913 Y64.507 E1962.4542
G1 X145.769 Y64.795 E1964.75405
G1 X146.597 Y65.157 E1967.05524
G1 X147.389 Y65.591 E1969.35501
G1 X148.139 Y66.094 E1971.65462
G1 X149.032 Y66.832 E1974.60468
G1 X149.184 Y66.973 E1975.13264
G1 X149.37 Y67.15 E1975.78647
G1 X149.623 Y67.398 E1976.68863
G1 X154.939 Y72.715 E1995.83476
G1 X155.397 Y73.187 E1997.50954
G1 X155.997 Y73.862 E1999.80931
G1 X156.534 Y74.588 E2002.10884
G1 X157.006 Y75.358 E2004.40869
G1 X157.407 Y76.167 E2006.70799
G1 X157.735 Y77.009 E2009.00906
G1 X157.987 Y77.876 E2011.30823
G1 X158.215 Y79.17 E2014.65413
G1 X158.233 Y79.333 E2015.07173
G1 X158.294 Y80.328 E2017.61023
G1 X158.3 Y80.862 E2018.97014
G1 X158.299 Y108.735 E2089.94815
G1 X158.282 Y109.889 E2092.88711
G1 X158.223 Y111.946 E2098.12737
G1 X158.221 Y114.479 E2104.5776
G1 X158.292 Y117.009 E2111.02273
G1 X158.435 Y119.552 E2117.50866
G1 X158.649 Y122.09 E2123.99455
G1 X158.881 Y124.192 E2129.37976
G1 X158.916 Y124.481 E2130.12107
G1 X158.984 Y125.358 E2132.36103
G1 X158.994 Y125.728 E2133.30357
G1 X159 Y126.262 E2134.66348
G1 X158.999 Y154.138 E2205.64913
G1 X158.989 Y154.84 E2207.43694
G1 X158.936 Y155.742 E2209.73783
G1 X158.804 Y156.635 E2212.03654
G1 X158.593 Y157.513 E2214.33601
G1 X158.305 Y158.369 E2216.63586
G1 X157.943 Y159.197 E2218.93705
G1 X157.509 Y159.989 E2221.23682
G1 X157.006 Y160.739 E2223.53643
G1 X156.268 Y161.632 E2226.48649
G1 X156.127 Y161.784 E2227.01445
G1 X155.94 Y161.98 E2227.70428
G1 X155.759 Y162.165 E2228.36335
G1 X150.389 Y167.534 E2247.70035
G1 X149.895 Y168.013 E2249.45257
G1 X149.22 Y168.612 E2251.75065
G1 X148.494 Y169.149 E2254.05018
G1 X147.723 Y169.62 E2256.35088
G1 X146.914 Y170.021 E2258.65017
G1 X146.073 Y170.349 E2260.94887
G1 X145.205 Y170.601 E2263.25048
G1 X144.319 Y170.775 E2265.54976
G1 X143.139 Y170.884 E2268.5674
G1 X142.772 Y170.894 E2269.5023
G1 X142.238 Y170.9 E2270.86221
G1 X93.362 Y170.899 E2395.32392
G1 X92.66 Y170.889 E2397.11173
G1 X91.758 Y170.836 E2399.41262
G1 X90.865 Y170.704 E2401.71133
G1 X89.987 Y170.493 E2404.0108
G1 X89.131 Y170.205 E2406.31065
G1 X88.303 Y169.843 E2408.61184
G1 X87.511 Y169.409 E2410.91161
G1 X86.761 Y168.906 E2413.21122
G1 X85.868 Y168.168 E2416.16128
G1 X85.716 Y168.027 E2416.68924
G1 X85.514 Y167.834 E2417.40067
G1 X85.242 Y167.567 E2418.37126
G1 X79.949 Y162.273 E2437.43455
G1 X79.478 Y161.786 E2439.1598
G1 X78.88 Y161.11 E2441.4581
G1 X78.343 Y160.383 E2443.75967
G1 X77.873 Y159.612 E2446.05904
G1 X77.473 Y158.802 E2448.35949
G1 X77.147 Y157.96 E2450.65872
G1 X76.896 Y157.093 E2452.95718
G1 X76.723 Y156.206 E2455.25847
G1 X76.616 Y155.039 E2458.24267
G1 X76.606 Y154.672 E2459.17758
G1 X76.6 Y154.138 E2460.53748
G1 X76.601 Y126.265 E2531.51549
G1 X76.618 Y125.111 E2534.45445
G1 X76.677 Y123.054 E2539.69471
G1 X76.679 Y120.521 E2546.14495
G1 X76.608 Y117.991 E2552.59007
G1 X76.465 Y115.448 E2559.076
G1 X76.251 Y112.913 E2565.55429
G1 X76.017 Y110.791 E2570.99067
G1 X75.984 Y110.515 E2571.6985
G1 X75.916 Y109.644 E2573.92324
G1 X75.906 Y109.272 E2574.87087
G1 X75.9 Y108.738 E2576.23077
G1 X75.901 Y80.862 E2647.21643
G1 X75.911 Y80.16 E2649.00424
G1 X75.964 Y79.258 E2651.30512
G1 X76.096 Y78.365 E2653.60384
G1 X76.307 Y77.487 E2655.9033
G1 X76.595 Y76.631 E2658.20315
G1 X76.957 Y75.803 E2660.50434
G1 X77.391 Y75.011 E2662.80411
G1 X77.894 Y74.261 E2665.10372
G1 X78.632 Y73.368 E2668.05379
G1 X78.773 Y73.216 E2668.58174
G1 F1500 E2662.08174
G1 F300 Z0.4
;MESH:otto_3.stl
G0 F6000 X93.048 Y160.1 Z0.4
;TYPE:WALL-INNER
G1 F300 Z0.2
G1 F1500 E2668.58174
G1 F1200 X87.4 Y154.452 E2688.92169
G1 X87.4 Y125.948 E2761.50653
G1 X92.048 Y121.3 E2778.24521
G1 X143.552 Y121.3 E2909.39907
G1 X148.2 Y125.948 E2926.13775
G1 X148.2 Y154.452 E2998.72259
G1 X142.552 Y160.1 E3019.06254
G1 X93.048 Y160.1 E3145.12344
G0 F6000 X92.882 Y160.5
;TYPE:WALL-OUTER
G1 F1200 X87 Y154.618 E3166.30608
G1 X87 Y125.782 E3239.73635
G1 X91.882 Y120.9 E3257.31773
G1 X143.718 Y120.9 E3389.31702
G1 X148.6 Y125.782 E3406.89839
G1 X148.6 Y154.618 E3480.32867
G1 X142.718 Y160.5 E3501.51131
G1 X92.882 Y160.5 E3628.41764
G0 F6000 X93.05 Y160.094
G0 X93.208 Y159.71
;TYPE:SKIN
G1 F1200 X87.79 Y154.292 E3647.92929
G1 X87.79 Y126.108 E3719.69926
G1 X92.208 Y121.69 E3735.60965
G1 X143.392 Y121.69 E3865.94864
G1 X147.81 Y126.108 E3881.85903
G1 X147.81 Y154.292 E3953.62899
G1 X142.392 Y159.71 E3973.14065
G1 X93.208 Y159.71 E4098.38668
G0 F6000 X93.363 Y159.548
G1 F1200 X87.949 Y154.135 E4117.88213
G0 F6000 X87.949 Y153.569
G1 F1200 X93.929 Y159.548 E4139.41589
G0 F6000 X94.494 Y159.548
G1 F1200 X87.949 Y153.003 E4162.98617
G0 F6000 X87.949 Y152.438
G1 F1200 X95.06 Y159.548 E4188.59297
G0 F6000 X95.626 Y159.548
G1 F1200 X87.949 Y151.872 E4216.23808
G0 F6000 X87.949 Y151.306
G1 F1200 X96.191 Y159.548 E4245.91971
G0 F6000 X96.757 Y159.548
G1 F1200 X87.949 Y150.741 E4277.63785
G0 F6000 X87.949 Y150.175
G1 F1200 X97.323 Y159.548 E4311.39431
G0 F6000 X97.889 Y159.548
G1 F1200 X87.949 Y149.609 E4347.18909
G0 F6000 X87.949 Y149.043
G1 F1200 X98.454 Y159.548 E4385.02038
G0 F6000 X99.02 Y159.548
G1 F1200 X87.949 Y148.478 E4424.88819
G0 F6000 X87.949 Y147.912
G1 F1200 X99.586 Y159.548 E4466.79431
G0 F6000 X100.151 Y159.548
G1 F1200 X87.949 Y147.346 E4510.73695
G0 F6000 X87.949 Y146.781
G1 F1200 X100.717 Y159.548 E4556.71611
G0 F6000 X101.283 Y159.548
G1 F1200 X87.949 Y146.215 E4604.73358
G0 F6000 X87.949 Y145.649
G1 F1200 X101.848 Y159.548 E4654.78756
G0 F6000 X102.414 Y159.548
G1 F1200 X87.949 Y145.084 E4706.87806
G0 F6000 X87.949 Y144.518
G1 F1200 X102.98 Y159.548 E4761.00688
G0 F6000 X103.545 Y159.548
G1 F1200 X87.949 Y143.952 E4817.17221
G0 F6000 X87.949 Y143.387
G1 F1200 X104.111 Y159.548 E4875.37406
G0 F6000 X104.677 Y159.548
G1 F1200 X87.949 Y142.821 E4935.61423
G0 F6000 X87.949 Y142.255
G1 F1200 X105.242 Y159.548 E4997.89091
G0 F6000 X105.808 Y159.548
G1 F1200 X87.949 Y141.69 E5062.2041
G0 F6000 X87.949 Y141.124
G1 F1200 X106.374 Y159.548 E5128.55562
G0 F6000 X106.94 Y159.548
G1 F1200 X87.949 Y140.558 E5196.94544
G0 F6000 X87.949 Y139.993
G1 F1200 X107.505 Y159.548 E5267.36999
G0 F6000 X108.071 Y159.548
G1 F1200 X87.949 Y139.427 E5339.83285
G0 F6000 X87.949 Y138.861
G1 F1200 X108.637 Y159.548 E5414.33402
G0 F6000 X109.202 Y159.548
G1 F1200 X87.949 Y138.295 E5490.87171
G0 F6000 X87.949 Y137.73
G1 F1200 X109.768 Y159.548 E5569.44592
G0 F6000 X110.334 Y159.548
G1 F1200 X87.949 Y137.164 E5650.05844
G0 F6000 X87.949 Y136.598
G1 F1200 X110.899 Y159.548 E5732.70748
G0 F6000 X111.465 Y159.548
G1 F1200 X87.949 Y136.033 E5817.39303
