;FLAVOR:Marlin
;TIME:3202
;Filament used: 99.569m
;Layer height: 0.2
;MINX:63.554
;MINY:86.349
;MINZ:0.2
;MAXX:171.445
;MAXY:148.655
;MAXZ:5.2
;Generated with Cura_SteamEngine 4.8.0
M140 S60
M105
M190 S60
M104 S210
M105
M109 S210
M82 ;absolute extrusion mode
; Ender 3 Custom Start G-code
G92 E0 ; Reset Extruder
G28 ; Home all axes
G1 Z2.0 F3000 ; Move Z Axis up little to prevent scratching of Heat Bed
G1 X0.1 Y20 Z0.3 F5000.0 ; Move to start position
G1 X0.1 Y200.0 Z0.3 F1500.0 E15 ; Draw the first line
G1 X0.4 Y200.0 Z0.3 F5000.0 ; Move to side a little
G1 X0.4 Y20 Z0.3 F1500.0 E30 ; Draw the second line
G92 E0 ; Reset Extruder
G1 Z2.0 F3000 ; Move Z Axis up little to prevent scratching of Heat Bed
G1 X5 Y20 Z0.3 F5000.0 ; Move over to prevent blob squish
G92 E0
G92 E0
G1 F1500 E-5
;LAYER_COUNT:25
;LAYER:0
M107
M204 S500
M205 X8 Y8
G1 F300 Z0.4
G0 F6000 X69.529 Y90.29 Z0.4
;TYPE:SKIRT
G1 F300 Z0.2
G1 F1500 E0
G1 F1200 X70.181 Y89.815 E2.05419
G1 X70.377 Y89.683 E2.65593
G1 X70.826 Y89.396 E4.01292
G1 X70.94 Y89.327 E4.35225
G1 X71.495 Y89.013 E5.97606
G1 X71.809 Y88.847 E6.88052
G1 X72.668 Y88.44 E9.30105
G1 X73.03 Y88.287 E10.30183
G1 X73.946 Y87.947 E12.78991
G1 X74.198 Y87.866 E13.46396
G1 X74.789 Y87.694 E15.03137
G1 X75.069 Y87.621 E15.76821
G1 X75.648 Y87.486 E17.28217
G1 X75.81 Y87.453 E17.70317
G1 X76.446 Y87.343 E19.34678
G1 X76.76 Y87.298 E20.15454
G1 X77.513 Y87.217 E22.0831
G1 X77.785 Y87.197 E22.77762
G1 X78.312 Y87.171 E24.12124
G1 X78.43 Y87.168 E24.42183
G1 X79.07 Y87.17 E26.05158
G1 X79.394 Y87.181 E26.87711
G1 X81.988 Y87.227 E33.48372
G1 X84.473 Y87.203 E39.81202
G1 X87.006 Y87.105 E46.26707
G1 X89.507 Y86.939 E52.64983
G1 X93.039 Y86.584 E61.68931
G1 X94.417 Y86.42 E65.22312
G1 X95.352 Y86.349 E67.61094
G1 X96.29 Y86.358 E69.99964
G1 X97.223 Y86.447 E72.38629
G1 X98.146 Y86.615 E74.77531
G1 X99.051 Y86.86 E77.16283
G1 X100.24 Y87.316 E80.40562
G1 X100.424 Y87.399 E80.91964
G1 X101 Y87.679 E82.55053
G1 X102.114 Y88.263 E85.75349
G1 X102.549 Y88.497 E87.0113
G1 X104.795 Y89.629 E93.41606
G1 X107.053 Y90.688 E99.76699
G1 X109.382 Y91.702 E106.23546
G1 X111.754 Y92.656 E112.74594
G1 X114.065 Y93.507 E119.01717
G1 X116.446 Y94.31 E125.41586
G1 X118.883 Y95.056 E131.90588
G1 X121.273 Y95.714 E138.21841
G1 X123.764 Y96.325 E144.74972
G1 X126.201 Y96.852 E151.09893
G1 X128.692 Y97.313 E157.54993
G1 X131.133 Y97.696 E163.84193
G1 X133.686 Y98.023 E170.3962
G1 X136.165 Y98.269 E176.73993
G1 X138.677 Y98.447 E183.15272
G1 X140.981 Y98.549 E189.02556
G1 X142.088 Y98.583 E191.84584
G1 X142.443 Y98.6 E192.75088
G1 X143.821 Y98.688 E196.26707
G1 X144.224 Y98.718 E197.29614
G1 X146.697 Y98.837 E203.60087
G1 X149.227 Y98.887 E210.04472
G1 X151.781 Y98.864 E216.54869
G1 X154.222 Y98.773 E222.76897
G1 X157.615 Y98.538 E231.42987
G1 X158.144 Y98.492 E232.78204
G1 X159.056 Y98.451 E235.10677
G1 X159.317 Y98.45 E235.77141
G1 X160.254 Y98.486 E238.15922
G1 X160.891 Y98.557 E239.79137
G1 X161.083 Y98.584 E240.28511
G1 X162.005 Y98.754 E242.67254
G1 X162.911 Y99.003 E245.06519
G1 X163.123 Y99.071 E245.63214
G1 X164.003 Y99.395 E248.0201
G1 X164.852 Y99.793 E250.40783
G1 X165.607 Y100.226 E252.62417
G1 X165.843 Y100.374 E253.33353
G1 X166.616 Y100.906 E255.72309
G1 X167.34 Y101.501 E258.10946
G1 X167.982 Y102.125 E260.38929
G1 X168.219 Y102.375 E261.26651
G1 X168.835 Y103.083 E263.6563
G1 X169.388 Y103.84 E266.04356
G1 X169.92 Y104.725 E268.67303
G1 X170.045 Y104.957 E269.34411
G1 X170.203 Y105.262 E270.21881
G1 X170.586 Y106.118 E272.60684
G1 X170.895 Y107.003 E274.9939
G1 X171.037 Y107.521 E276.36164
G1 X171.12 Y107.854 E277.23556
G1 X171.308 Y108.773 E279.62424
G1 X171.417 Y109.704 E282.0112
G1 X171.445 Y110.734 E284.63505
G1 X171.443 Y110.834 E284.88974
G1 X171.428 Y111.23 E285.89887
G1 X171.416 Y111.444 E286.44468
G1 X171.323 Y112.377 E288.83231
G1 X171.152 Y113.299 E291.22021
G1 X170.872 Y114.295 E293.85482
G1 X170.78 Y114.572 E294.59808
G1 X170.447 Y115.449 E296.98691
G1 X170.046 Y116.283 E299.34341
G1 X169.799 Y116.746 E300.67972
G1 X169.497 Y117.277 E302.23529
G1 X169.29 Y117.608 E303.22943
G1 X168.763 Y118.421 E305.69662
G1 X168.65 Y118.61 E306.25737
G1 X167.983 Y119.635 E309.37149
G1 X166.19 Y122.603 E318.20152
G1 X165.71 Y123.43 E320.63648
G1 X165.49 Y123.794 E321.71954
G1 X165.323 Y124.056 E322.51073
G1 X165.149 Y124.321 E323.31801
G1 X164.918 Y124.66 E324.36263
G1 X164.73 Y124.92 E325.17967
G1 X164.574 Y125.131 E325.84788
G1 X164.254 Y125.543 E327.17631
G1 X164.02 Y125.83 E328.11928
G1 X163.658 Y126.252 E329.53511
G1 X163.443 Y126.488 E330.34807
G1 X163.21 Y126.737 E331.21645
G1 X162.765 Y127.186 E332.82624
G1 X162.512 Y127.427 E333.71601
G1 X162.211 Y127.703 E334.75595
G1 X161.895 Y127.979 E335.82436
G1 X161.732 Y128.117 E336.36821
G1 X161.461 Y128.339 E337.2603
G1 X161.054 Y128.658 E338.57713
G1 X160.953 Y128.734 E338.899
G1 X160.655 Y128.95 E339.83623
G1 X160.255 Y129.228 E341.07667
G1 X160.141 Y129.305 E341.42698
G1 X159.82 Y129.514 E342.40239
G1 X159.558 Y129.678 E343.1895
G1 X159.114 Y129.942 E344.5049
G1 X158.21 Y130.45 E347.14549
G1 X155.982 Y131.744 E353.70653
G1 X153.826 Y133.079 E360.16403
G1 X152.045 Y134.257 E365.60161
G1 X151.42 Y134.665 E367.50226
G1 X150.577 Y135.205 E370.0516
G1 X149.944 Y135.595 E371.9449
G1 X149.282 Y135.993 E373.91188
G1 X148.591 Y136.396 E375.94889
G1 X147.966 Y136.749 E377.77674
G1 X147.029 Y137.261 E380.49577
G1 X146.361 Y137.612 E382.41735
G1 X145.638 Y137.976 E384.47863
G1 X144.894 Y138.339 E386.58668
G1 X144.162 Y138.681 E388.64412
G1 X143.391 Y139.026 E390.79505
G1 X142.594 Y139.368 E393.00356
G1 X141.935 Y139.637 E394.81611
G1 X141.163 Y139.937 E396.92521
G1 X140.907 Y140.033 E397.62144
G1 X140.344 Y140.233 E399.14288
G1 X139.654 Y140.469 E400.99988
G1 X138.309 Y140.913 E404.60669
G1 X138.035 Y140.999 E405.33799
G1 X137.647 Y141.116 E406.36997
G1 X135.097 Y141.92 E413.1786
G1 X132.749 Y142.734 E419.50685
G1 X130.395 Y143.626 E425.91719
G1 X128.045 Y144.592 E432.38728
G1 X125.77 Y145.605 E438.72888
G1 X124.429 Y146.248 E442.51597
G1 X123.275 Y146.78 E445.75185
G1 X122.925 Y146.934 E446.72557
G1 X122.391 Y147.158 E448.20019
G1 X121.994 Y147.315 E449.28732
G1 X121.209 Y147.609 E451.4219
G1 X120.885 Y147.725 E452.29825
G1 X120.717 Y147.782 E452.75001
G1 X120.216 Y147.939 E454.08697
G1 X119.714 Y148.083 E455.41686
G1 X119.177 Y148.222 E456.82938
G1 X118.704 Y148.329 E458.0643
G1 X118.24 Y148.425 E459.27089
G1 X117.314 Y148.576 E461.66008
G1 X116.21 Y148.651 E464.47787
G1 X115.989 Y148.655 E465.04074
G1 X115.051 Y148.632 E467.43005
G1 X114.119 Y148.529 E469.81782
G1 X113.199 Y148.348 E472.20549
G1 X112.717 Y148.219 E473.47609
G1 X112.418 Y148.132 E474.26906
G1 X111.529 Y147.832 E476.65831
G1 X110.67 Y147.457 E479.04509
G1 X109.845 Y147.01 E481.43449
G1 X109.061 Y146.495 E483.82314
G1 X108.324 Y145.915 E486.21136
G1 X107.753 Y145.389 E488.18831
G1 X107.56 Y145.198 E488.87977
G1 X106.72 Y144.265 E492.07668
G1 X106.433 Y143.902 E493.25506
G1 X105 Y142.02 E499.27866
G1 X103.407 Y140.047 E505.73607
G1 X101.797 Y138.164 E512.04486
G1 X100.081 Y136.27 E518.55304
G1 X98.347 Y134.46 E524.93595
G1 X96.559 Y132.698 E531.32837
G1 X94.699 Y130.964 E537.80382
G1 X92.844 Y129.332 E544.09545
G1 X90.884 Y127.703 E550.58535
G1 X88.899 Y126.146 E557.00958
G1 X86.89 Y124.66 E563.37287
G1 X84.801 Y123.205 E569.85562
G1 X82.723 Y121.841 E576.18534
G1 X80.572 Y120.517 E582.61729
G1 X78.394 Y119.259 E589.0222
G1 X76.181 Y118.063 E595.42789
G1 X73.202 Y116.575 E603.90755
G1 X72.254 Y116.123 E606.58197
G1 X71.962 Y115.979 E607.41104
G1 X71.715 Y115.852 E608.11829
G1 X71.115 Y115.519 E609.86572
G1 X70.833 Y115.351 E610.7016
G1 X70.291 Y115.007 E612.33631
G1 X70.201 Y114.946 E612.61318
G1 X69.716 Y114.597 E614.13474
G1 X69.374 Y114.337 E615.22873
G1 X68.523 Y113.619 E618.06406
G1 X68.281 Y113.393 E618.90725
G1 X67.736 Y112.848 E620.86993
G1 X67.535 Y112.632 E621.62128
G1 X67.068 Y112.096 E623.43159
G1 X66.881 Y111.867 E624.18446
G1 X66.501 Y111.374 E625.76952
G1 X66.424 Y111.268 E626.10315
G1 X66.083 Y110.769 E627.64221
G1 X65.899 Y110.484 E628.50606
G1 X65.57 Y109.942 E630.12063
G1 X65.464 Y109.755 E630.66801
G1 X65.184 Y109.229 E632.18541
G1 X65.094 Y109.048 E632.70016
G1 X64.788 Y108.375 E634.58277
G1 X64.637 Y108.012 E635.58393
G1 X64.312 Y107.124 E637.99189
G1 X64.248 Y106.923 E638.52905
G1 X64.149 Y106.597 E639.39664
G1 X64.114 Y106.474 E639.72229
G1 X63.967 Y105.9 E641.23114
G1 X63.885 Y105.539 E642.17384
G1 X63.702 Y104.507 E644.8428
G1 X63.655 Y104.142 E645.77994
G1 X63.578 Y103.277 E647.99136
G1 X63.567 Y103.053 E648.56245
G1 X63.554 Y102.642 E649.60958
G1 X63.558 Y101.949 E651.37432
G1 X63.568 Y101.68 E652.0598
G1 X63.612 Y101.023 E653.73658
G1 X63.638 Y100.756 E654.41971
G1 X63.715 Y100.145 E655.98791
G1 X63.742 Y99.97 E656.43882
G1 X63.849 Y99.379 E657.96825
G1 X63.908 Y99.099 E658.69692
G1 X64.022 Y98.611 E659.97306
G1 X64.163 Y98.102 E661.31803
G1 X64.233 Y97.87 E661.93512
G1 X64.38 Y97.419 E663.14305
G1 X64.409 Y97.336 E663.36694
G1 X64.594 Y96.843 E664.70783
G1 X64.733 Y96.499 E665.65263
G1 X65.073 Y95.742 E667.76582
G1 X65.168 Y95.55 E668.31132
G1 X65.396 Y95.114 E669.56423
G1 X65.492 Y94.94 E670.07028
G1 X65.771 Y94.462 E671.47968
G1 X65.893 Y94.265 E672.06974
G1 X66.105 Y93.936 E673.0664
G1 X66.18 Y93.824 E673.40965
G1 X66.533 Y93.328 E674.95992
G1 X66.655 Y93.166 E675.47635
G1 X66.909 Y92.84 E676.52873
G1 X67.362 Y92.305 E678.31387
G1 X67.578 Y92.066 E679.1342
G1 X68.069 Y91.557 E680.93513
G1 X68.252 Y91.379 E681.58522
G1 X68.711 Y90.957 E683.17298
G1 X68.802 Y90.878 E683.47984
G1 X69.216 Y90.536 E684.84728
G1 X69.529 Y90.29 E685.86104
G0 F6000 X69.776 Y90.605
G1 F1200 X70.405 Y90.147 E687.8424
G1 X70.601 Y90.015 E688.44414
G1 X71.033 Y89.739 E689.74957
G1 X71.147 Y89.67 E690.0889
G1 X71.682 Y89.367 E691.65459
G1 X71.996 Y89.201 E692.55905
G1 X72.823 Y88.808 E694.89068
G1 X73.185 Y88.655 E695.89146
G1 X74.068 Y88.327 E698.29012
G1 X74.32 Y88.246 E698.96417
G1 X74.89 Y88.081 E700.47525
G1 X75.17 Y88.008 E701.2121
G1 X75.728 Y87.878 E702.67109
G1 X75.89 Y87.845 E703.09209
G1 X76.502 Y87.739 E704.67374
G1 X76.816 Y87.694 E705.4815
G1 X77.543 Y87.616 E707.34342
G1 X77.815 Y87.596 E708.03793
G1 X78.323 Y87.57 E709.33323
G1 X78.441 Y87.567 E709.63382
G1 X79.057 Y87.57 E711.20247
G1 X79.373 Y87.58 E712.00756
G1 X81.985 Y87.627 E718.66004
G1 X84.494 Y87.603 E725.04944
G1 X87.01 Y87.506 E731.46115
G1 X89.542 Y87.337 E737.92318
G1 X93.076 Y86.982 E746.96772
G1 X94.464 Y86.817 E750.52712
G1 X95.382 Y86.748 E752.87139
G1 X96.303 Y86.759 E755.21686
G1 X97.219 Y86.85 E757.56092
G1 X98.124 Y87.02 E759.90579
G1 X99.01 Y87.268 E762.24869
G1 X100.076 Y87.681 E765.15984
G1 X100.26 Y87.764 E765.67386
G1 X100.815 Y88.034 E767.24552
G1 X101.924 Y88.615 E770.43365
G1 X102.358 Y88.849 E771.68923
G1 X104.61 Y89.984 E778.11107
G1 X106.916 Y91.065 E784.59644
G1 X109.209 Y92.063 E790.9646
G1 X111.603 Y93.026 E797.53561
G1 X113.947 Y93.889 E803.89626
G1 X116.339 Y94.696 E810.32475
G1 X118.742 Y95.432 E816.72452
G1 X121.202 Y96.109 E823.22175
G1 X123.663 Y96.713 E829.67462
G1 X126.141 Y97.248 E836.13019
G1 X128.593 Y97.703 E842.48075
G1 X131.092 Y98.094 E848.92182
G1 X133.632 Y98.42 E855.44293
G1 X136.13 Y98.668 E861.83531
G1 X138.633 Y98.845 E868.22506
G1 X141.027 Y98.951 E874.32731
G1 X142.075 Y98.983 E876.99726
G1 X142.418 Y98.999 E877.87165
G1 X143.791 Y99.087 E881.37514
G1 X144.175 Y99.116 E882.35578
G1 X146.706 Y99.237 E888.80828
G1 X149.222 Y99.287 E895.21648
G1 X151.764 Y99.264 E901.6899
G1 X154.263 Y99.172 E908.05786
G1 X157.676 Y98.935 E916.76992
G1 X158.178 Y98.891 E918.05315
G1 X159.057 Y98.851 E920.29383
G1 X159.318 Y98.85 E920.95846
G1 X160.238 Y98.887 E923.30312
G1 X160.835 Y98.953 E924.83263
G1 X161.027 Y98.98 E925.32636
G1 X161.932 Y99.148 E927.6703
G1 X162.789 Y99.384 E929.93386
G1 X163.001 Y99.452 E930.50081
G1 X163.864 Y99.771 E932.84375
G1 X164.697 Y100.163 E935.18811
G1 X165.395 Y100.565 E937.23926
G1 X165.631 Y100.713 E937.94863
G1 X166.389 Y101.235 E940.29228
G1 X167.098 Y101.822 E942.63622
G1 X167.692 Y102.4 E944.74676
G1 X167.929 Y102.65 E945.62398
G1 X168.532 Y103.345 E947.96706
G1 X169.074 Y104.09 E950.31313
G1 X169.568 Y104.915 E952.76181
G1 X169.693 Y105.147 E953.43288
G1 X169.845 Y105.441 E954.27569
G1 X170.221 Y106.281 E956.61925
G1 X170.522 Y107.151 E958.96353
G1 X170.649 Y107.617 E960.19347
G1 X170.732 Y107.95 E961.06739
G1 X170.916 Y108.853 E963.41411
G1 X171.021 Y109.767 E965.7569
G1 X171.045 Y110.726 E968.19974
G1 X171.043 Y110.826 E968.45444
G1 X171.028 Y111.207 E969.4254
G1 X171.016 Y111.421 E969.9712
G1 X170.925 Y112.338 E972.31779
G1 X170.754 Y113.242 E974.66063
G1 X170.493 Y114.169 E977.113
G1 X170.401 Y114.446 E977.85626
G1 X170.073 Y115.306 E980.20011
G1 X169.693 Y116.094 E982.42787
G1 X169.446 Y116.557 E983.76417
G1 X169.155 Y117.069 E985.26384
G1 X168.954 Y117.391 E986.23044
G1 X168.505 Y118.083 E988.33104
G1 X168.315 Y118.392 E989.25475
G1 X167.643 Y119.425 E992.39289
G1 X165.849 Y122.393 E1001.22424
G1 X165.364 Y123.23 E1003.68762
G1 X165.15 Y123.584 E1004.74099
G1 X164.989 Y123.837 E1005.50463
G1 X164.815 Y124.102 E1006.31191
G1 X164.592 Y124.428 E1007.31771
G1 X164.408 Y124.683 E1008.11846
G1 X164.252 Y124.894 E1008.78667
G1 X163.944 Y125.29 E1010.06418
G1 X163.71 Y125.577 E1011.00715
G1 X163.361 Y125.984 E1012.37243
G1 X163.151 Y126.215 E1013.16741
G1 X162.918 Y126.464 E1014.03579
G1 X162.489 Y126.896 E1015.58615
G1 X162.236 Y127.137 E1016.47592
G1 X161.946 Y127.404 E1017.47973
G1 X161.636 Y127.674 E1018.52658
G1 X161.473 Y127.812 E1019.07043
G1 X161.213 Y128.026 E1019.92794
G1 X161.029 Y128.172 E1020.52608
G1 X160.712 Y128.414 E1021.54165
G1 X160.425 Y128.623 E1022.44574
G1 X160.031 Y128.897 E1023.66782
G1 X159.917 Y128.974 E1024.01813
G1 X159.608 Y129.175 E1024.95682
G1 X159.346 Y129.339 E1025.74392
G1 X158.918 Y129.593 E1027.01129
G1 X158.019 Y130.098 E1029.63704
G1 X155.766 Y131.407 E1036.27231
G1 X153.634 Y132.727 E1042.65774
G1 X151.826 Y133.923 E1048.17796
G1 X151.204 Y134.329 E1050.06943
G1 X150.367 Y134.865 E1052.60041
G1 X149.737 Y135.253 E1054.48453
G1 X149.08 Y135.648 E1056.43666
G1 X148.394 Y136.048 E1058.45882
G1 X147.64 Y136.472 E1060.66162
G1 X146.842 Y136.907 E1062.97602
G1 X146.181 Y137.255 E1064.87827
G1 X145.462 Y137.617 E1066.92815
G1 X144.725 Y137.977 E1069.01684
G1 X143.993 Y138.319 E1071.07427
G1 X143.37 Y138.598 E1072.81255
G1 X142.436 Y139 E1075.40191
G1 X141.785 Y139.266 E1077.19271
G1 X141.019 Y139.564 E1079.28573
G1 X140.772 Y139.656 E1079.95692
G1 X140.215 Y139.855 E1081.46312
G1 X139.529 Y140.089 E1083.30883
G1 X138.184 Y140.533 E1086.91564
G1 X137.92 Y140.616 E1087.62035
G1 X137.491 Y140.745 E1088.76111
G1 X134.983 Y141.537 E1095.45856
G1 X132.613 Y142.358 E1101.84558
G1 X130.25 Y143.253 E1108.28006
G1 X127.896 Y144.221 E1114.7615
G1 X125.599 Y145.243 E1121.1636
G1 X124.416 Y145.812 E1124.50643
G1 X123.108 Y146.416 E1128.1752
G1 X122.77 Y146.565 E1129.11583
G1 X122.236 Y146.789 E1130.59044
G1 X121.854 Y146.941 E1131.63738
G1 X121.069 Y147.235 E1133.77196
G1 X120.757 Y147.346 E1134.61525
G1 X120.589 Y147.403 E1135.06701
G1 X120.106 Y147.554 E1136.35566
G1 X119.604 Y147.698 E1137.68555
G1 X119.086 Y147.832 E1139.04805
G1 X118.623 Y147.937 E1140.257
G1 X118.159 Y148.033 E1141.46359
G1 X117.25 Y148.18 E1143.80842
G1 X116.203 Y148.251 E1146.4807
G1 X115.982 Y148.255 E1147.04357
G1 X115.061 Y148.232 E1149.38961
G1 X114.147 Y148.129 E1151.73182
G1 X112.829 Y147.835 E1155.17057
G1 X112.53 Y147.748 E1155.96354
G1 X111.658 Y147.453 E1158.3077
G1 X110.814 Y147.083 E1160.65438
G1 X110.007 Y146.641 E1162.99743
G1 X109.24 Y146.131 E1165.34295
G1 X108.521 Y145.556 E1167.68735
G1 X108.035 Y145.104 E1169.37745
G1 X107.842 Y144.913 E1170.0689
G1 X107.032 Y144.015 E1173.14846
G1 X106.918 Y143.873 E1173.61217
G1 X106.751 Y143.659 E1174.30342
G1 X105.327 Y141.789 E1180.28882
G1 X103.706 Y139.782 E1186.85839
G1 X102.081 Y137.881 E1193.22684
G1 X100.384 Y136.007 E1199.66479
G1 X98.651 Y134.199 E1206.04226
G1 X96.811 Y132.386 E1212.62015
G1 X94.989 Y130.687 E1218.96405
G1 X93.081 Y129.008 E1225.43606
