;FLAVOR:Marlin
;TIME:2108
;Filament used: 81.9385m
;Layer height: 0.2
;MINX:88.51
;MINY:88.51
;MINZ:0.2
;MAXX:146.49
;MAXY:146.49
;MAXZ:6.4
;ZOFFSETPROCESSED
;Generated with Cura_SteamEngine 4.8.0
M140 S60
M105
M190 S60
M104 S210
M105
M109 S210
M82 ;absolute extrusion mode
; Ender 3 Custom Start G-code
G92 E0 ; Reset Extruder
G28 ; Home all axes
G1 Z2.0 F3000 ; Move Z Axis up little to prevent scratching of Heat Bed
G1 X0.1 Y20 Z0.3 F5000.0 ; Move to start position
G1 X0.1 Y200.0 Z0.3 F1500.0 E15 ; Draw the first line
G1 X0.4 Y200.0 Z0.3 F5000.0 ; Move to side a little
G1 X0.4 Y20 Z0.3 F1500.0 E30 ; Draw the second line
G92 E0 ; Reset Extruder
G1 Z2.0 F3000 ; Move Z Axis up little to prevent scratching of Heat Bed
G1 X5 Y20 Z0.3 F5000.0 ; Move over to prevent blob squish
G92 E0
G92 E0
G1 F1500 E-1
;LAYER_COUNT:30
;LAYER:0
M107
M204 S500
M205 X8 Y8
G1 F300 Z0.4 ;adjusted by z offset
G92 Z0.6 ;consider this the original z before offset
G0 F6000 X96.886 Y97.117 Z0.6
;TYPE:SKIRT
G1 F300 Z0.2
G1 F1500 E0
G1 F1200 X97.124 Y96.88 E0.8553
G1 X97.577 Y96.441 E2.46166
G1 X97.917 Y96.124 E3.6454
G1 X98.072 Y95.986 E4.17388
G1 X98.799 Y95.393 E6.56293
G1 X99.445 Y94.945 E8.56482
G1 X99.923 Y94.638 E10.01147
G1 X102.565 Y92.881 E18.09116
G1 X103.618 Y92.156 E21.3467
G1 X104.412 Y91.657 E23.73475
G1 X104.94 Y91.375 E25.25904
G1 X105.016 Y91.337 E25.47542
G1 X105.56 Y91.084 E27.00319
G1 X106.312 Y90.758 E29.09034
G1 X106.628 Y90.626 E29.96241
G1 X107.099 Y90.439 E31.25287
G1 X107.431 Y90.314 E32.15624
G1 X107.667 Y90.229 E32.795
G1 X108.562 Y89.949 E35.18303
G1 X109.439 Y89.753 E37.47139
G1 X110.198 Y89.616 E39.4354
G1 X113.357 Y88.991 E47.63566
G1 X114.354 Y88.776 E50.23286
G1 X115.279 Y88.617 E52.6229
G1 X116.149 Y88.541 E54.84677
G1 X116.36 Y88.531 E55.38468
G1 X116.703 Y88.52 E56.25857
G1 X117.322 Y88.51 E57.83505
G1 X117.668 Y88.51 E58.71613
G1 X118.258 Y88.519 E60.21873
G1 X118.596 Y88.53 E61.07989
G1 X118.835 Y88.541 E61.68915
G1 X119.769 Y88.624 E64.07693
G1 X120.663 Y88.78 E66.38788
G1 X121.328 Y88.924 E68.12054
G1 X124.442 Y89.548 E76.20791
G1 X125.601 Y89.761 E79.20871
G1 X126.515 Y89.97 E81.59627
G1 X127.305 Y90.218 E83.70478
G1 X127.493 Y90.285 E84.21301
G1 X127.847 Y90.419 E85.17689
G1 X128.36 Y90.622 E86.58179
G1 X128.679 Y90.753 E87.45995
G1 X129.352 Y91.044 E89.32707
G1 X129.862 Y91.281 E90.75916
G1 X130.046 Y91.372 E91.28188
G1 X130.869 Y91.823 E93.67168
G1 X131.453 Y92.203 E95.44593
G1 X131.852 Y92.481 E96.68428
G1 X134.684 Y94.381 E105.36856
G1 X135.599 Y94.973 E108.14375
G1 X136.364 Y95.516 E110.53266
G1 X136.912 Y95.971 E112.34644
G1 X137.034 Y96.079 E112.76135
G1 X137.405 Y96.422 E114.04799
G1 X137.883 Y96.886 E115.74437
G1 X138.12 Y97.124 E116.59967
G1 X138.56 Y97.578 E118.20964
G1 X138.859 Y97.898 E119.32487
G1 X138.995 Y98.05 E119.84425
G1 X139.59 Y98.775 E122.23259
G1 X140.056 Y99.446 E124.31292
G1 X140.365 Y99.927 E125.76874
G1 X142.124 Y102.574 E133.86185
G1 X142.841 Y103.613 E137.07649
G1 X143.341 Y104.407 E139.46589
G1 X143.625 Y104.939 E141.00156
G1 X143.663 Y105.015 E141.21794
G1 X143.919 Y105.564 E142.76048
G1 X144.245 Y106.317 E144.84996
G1 X144.374 Y106.628 E145.70734
G1 X144.561 Y107.099 E146.99781
G1 X144.686 Y107.431 E147.90118
G1 X144.771 Y107.667 E148.53994
G1 X145.051 Y108.562 E150.92797
G1 X145.247 Y109.439 E153.21632
G1 X145.384 Y110.198 E155.18033
G1 X146.004 Y113.331 E163.31317
G1 X146.224 Y114.351 E165.97031
G1 X146.382 Y115.276 E168.35992
G1 X146.459 Y116.148 E170.58909
G1 X146.469 Y116.359 E171.127
G1 X146.48 Y116.703 E172.00343
G1 X146.49 Y117.323 E173.58246
G1 X146.49 Y117.672 E174.47118
G1 X146.481 Y118.247 E175.93558
G1 X146.472 Y118.545 E176.69478
G1 X146.461 Y118.802 E177.34982
G1 X146.381 Y119.737 E179.73948
G1 X146.219 Y120.675 E182.16344
G1 X146.064 Y121.388 E184.02149
G1 X145.453 Y124.435 E191.93507
G1 X145.242 Y125.588 E194.91992
G1 X145.033 Y126.502 E197.30747
G1 X144.792 Y127.273 E199.36449
G1 X144.723 Y127.468 E199.89122
G1 X144.584 Y127.84 E200.90248
G1 X144.381 Y128.354 E202.30976
G1 X144.243 Y128.686 E203.22531
G1 X143.951 Y129.36 E205.09579
G1 X143.793 Y129.709 E206.07134
G1 X143.716 Y129.871 E206.5281
G1 X143.278 Y130.7 E208.91567
G1 X142.798 Y131.449 E211.18103
G1 X142.545 Y131.812 E212.30777
G1 X140.588 Y134.728 E221.25056
G1 X140.045 Y135.571 E223.80403
G1 X139.505 Y136.338 E226.19268
G1 X139.03 Y136.911 E228.08798
G1 X138.922 Y137.033 E228.50289
G1 X138.579 Y137.404 E229.78953
G1 X138.114 Y137.883 E231.48952
G1 X137.867 Y138.129 E232.37723
G1 X137.413 Y138.568 E233.98542
G1 X137.134 Y138.828 E234.95656
G1 X136.981 Y138.966 E235.48124
G1 X136.259 Y139.564 E237.86854
G1 X135.547 Y140.061 E240.07966
G1 X135.058 Y140.374 E241.55814
G1 X132.427 Y142.125 E249.60604
G1 X131.379 Y142.846 E252.84532
G1 X130.585 Y143.345 E255.23337
G1 X130.062 Y143.624 E256.74283
G1 X129.984 Y143.663 E256.9649
G1 X129.44 Y143.916 E258.49267
G1 X128.688 Y144.242 E260.57982
G1 X128.372 Y144.374 E261.45189
G1 X127.901 Y144.561 E262.74236
G1 X127.569 Y144.686 E263.64573
G1 X127.333 Y144.771 E264.28449
G1 X126.438 Y145.051 E266.67252
G1 X125.561 Y145.247 E268.96087
G1 X124.802 Y145.384 E270.92488
G1 X121.643 Y146.009 E279.12514
G1 X120.646 Y146.224 E281.72234
G1 X119.721 Y146.383 E284.11238
G1 X118.851 Y146.459 E286.33625
G1 X118.64 Y146.469 E286.87416
G1 X118.297 Y146.48 E287.74806
G1 X117.678 Y146.49 E289.32453
G1 X117.332 Y146.49 E290.20561
G1 X116.743 Y146.481 E291.70567
G1 X116.414 Y146.471 E292.54384
G1 X116.171 Y146.46 E293.16327
G1 X115.236 Y146.377 E295.55359
G1 X114.325 Y146.219 E297.90807
G1 X113.612 Y146.064 E299.76611
G1 X110.558 Y145.452 E307.69767
G1 X109.399 Y145.239 E310.69847
G1 X108.485 Y145.03 E313.08603
G1 X107.695 Y144.782 E315.19454
G1 X107.507 Y144.715 E315.70277
G1 X107.153 Y144.581 E316.66665
G1 X106.64 Y144.378 E318.07155
G1 X106.321 Y144.247 E318.94971
G1 X105.648 Y143.956 E320.81684
G1 X105.287 Y143.792 E321.82653
G1 X105.121 Y143.713 E322.29467
G1 X104.292 Y143.274 E324.68343
G1 X103.559 Y142.805 E326.89938
G1 X103.183 Y142.543 E328.06638
G1 X100.275 Y140.591 E336.98515
G1 X99.412 Y140.034 E339.60075
G1 X98.646 Y139.492 E341.99026
G1 X98.054 Y139 E343.95043
G1 X97.933 Y138.892 E344.36344
G1 X97.605 Y138.586 E345.50573
G1 X97.126 Y138.122 E347.20394
G1 X96.88 Y137.876 E348.08985
G1 X96.44 Y137.422 E349.69982
G1 X96.144 Y137.105 E350.80425
G1 X96.007 Y136.952 E351.32723
G1 X95.412 Y136.227 E353.71556
G1 X94.94 Y135.548 E355.82134
G1 X94.64 Y135.079 E357.23907
G1 X92.881 Y132.435 E365.32582
G1 X92.156 Y131.382 E368.58137
G1 X91.657 Y130.588 E370.96941
G1 X91.375 Y130.06 E372.49371
G1 X91.337 Y129.984 E372.71008
G1 X91.084 Y129.44 E374.23785
G1 X90.758 Y128.688 E376.325
G1 X90.626 Y128.372 E377.19708
G1 X90.439 Y127.901 E378.48754
G1 X90.309 Y127.556 E379.42638
G1 X90.224 Y127.319 E380.06753
G1 X89.945 Y126.423 E382.45723
G1 X89.753 Y125.562 E384.7036
G1 X89.612 Y124.782 E386.72205
G1 X88.991 Y121.643 E394.87037
G1 X88.776 Y120.646 E397.46757
G1 X88.617 Y119.721 E399.85761
G1 X88.541 Y118.853 E402.07641
G1 X88.53 Y118.622 E402.66531
G1 X88.519 Y118.264 E403.57738
G1 X88.51 Y117.665 E405.1029
G1 X88.51 Y117.332 E405.95087
G1 X88.519 Y116.743 E407.45093
G1 X88.529 Y116.409 E408.30183
G1 X88.54 Y116.168 E408.91617
G1 X88.623 Y115.234 E411.30396
G1 X88.78 Y114.333 E413.6329
G1 X88.932 Y113.632 E415.45947
G1 X89.548 Y110.558 E423.44297
G1 X89.761 Y109.399 E426.44376
G1 X89.97 Y108.485 E428.83132
G1 X90.218 Y107.695 E430.93984
G1 X90.285 Y107.507 E431.44807
G1 X90.419 Y107.153 E432.41194
G1 X90.622 Y106.64 E433.81685
G1 X90.753 Y106.321 E434.695
G1 X91.044 Y105.648 E436.56213
G1 X91.244 Y105.214 E437.779
G1 X91.325 Y105.047 E438.25165
G1 X91.77 Y104.221 E440.64087
G1 X92.194 Y103.562 E442.63633
G1 X92.462 Y103.177 E443.83087
G1 X94.408 Y100.278 E452.7221
G1 X94.957 Y99.425 E455.30525
G1 X95.498 Y98.659 E457.6933
G1 X95.972 Y98.085 E459.58893
G1 X96.081 Y97.962 E460.00744
G1 X96.421 Y97.596 E461.27955
G1 X96.886 Y97.117 E462.97953
G0 F6000 X97.173 Y97.396
G1 F1200 X97.402 Y97.167 E463.80422
G1 X97.855 Y96.728 E465.41058
G1 X98.183 Y96.423 E466.55114
G1 X98.338 Y96.285 E467.07961
G1 X99.052 Y95.703 E469.4253
G1 X99.661 Y95.282 E471.31059
G1 X100.109 Y94.994 E472.66681
G1 X102.792 Y93.211 E480.8701
G1 X103.845 Y92.485 E484.12709
G1 X104.625 Y91.996 E486.47141
G1 X105.119 Y91.733 E487.89654
G1 X105.195 Y91.695 E488.11291
G1 X105.719 Y91.451 E489.58484
G1 X106.471 Y91.125 E491.67199
G1 X106.776 Y90.998 E492.51331
G1 X107.247 Y90.811 E493.80377
G1 X107.566 Y90.69 E494.67257
G1 X107.802 Y90.605 E495.31133
G1 X108.681 Y90.331 E497.65592
G1 X109.511 Y90.147 E499.82081
G1 X110.281 Y90.008 E501.81329
G1 X113.395 Y89.392 E509.89668
G1 X114.438 Y89.167 E512.61376
G1 X115.346 Y89.012 E514.95941
G1 X116.168 Y88.941 E517.06041
G1 X116.379 Y88.931 E517.59832
G1 X116.71 Y88.92 E518.44167
G1 X117.329 Y88.91 E520.01815
G1 X117.662 Y88.91 E520.86612
G1 X118.252 Y88.919 E522.36872
G1 X118.577 Y88.929 E523.19672
G1 X118.816 Y88.94 E523.80597
G1 X119.733 Y89.022 E526.15041
G1 X120.579 Y89.17 E528.33745
G1 X121.303 Y89.327 E530.22395
G1 X124.417 Y89.951 E538.31132
G1 X125.528 Y90.155 E541.18776
G1 X126.426 Y90.36 E543.53333
G1 X127.17 Y90.595 E545.52017
G1 X127.358 Y90.662 E546.0284
G1 X127.7 Y90.791 E546.95919
G1 X128.213 Y90.994 E548.3641
G1 X128.52 Y91.121 E549.21012
G1 X129.193 Y91.412 E551.07724
G1 X129.685 Y91.64 E552.4581
G1 X129.869 Y91.731 E552.98083
G1 X130.676 Y92.174 E555.32511
G1 X131.224 Y92.531 E556.99058
G1 X131.636 Y92.817 E558.26773
G1 X134.48 Y94.726 E566.99016
G1 X135.381 Y95.309 E569.72296
G1 X136.132 Y95.842 E572.06806
G1 X136.647 Y96.27 E573.77327
G1 X136.769 Y96.378 E574.18818
G1 X137.126 Y96.709 E575.4279
G1 X137.604 Y97.173 E577.12428
G1 X137.833 Y97.402 E577.94897
G1 X138.273 Y97.856 E579.55894
G1 X138.561 Y98.165 E580.63458
G1 X138.697 Y98.317 E581.15396
G1 X139.28 Y99.029 E583.49732
G1 X139.719 Y99.662 E585.45895
G1 X140.009 Y100.115 E586.82864
G1 X141.795 Y102.8 E595.0404
G1 X142.512 Y103.84 E598.25713
G1 X143.001 Y104.62 E600.60144
G1 X143.267 Y105.118 E602.03915
G1 X143.305 Y105.194 E602.25553
G1 X143.552 Y105.723 E603.74222
G1 X143.878 Y106.476 E605.83171
G1 X144.002 Y106.776 E606.65834
G1 X144.189 Y107.247 E607.9488
G1 X144.31 Y107.566 E608.8176
G1 X144.395 Y107.802 E609.45636
G1 X144.669 Y108.681 E611.80095
G1 X144.853 Y109.511 E613.96584
G1 X144.992 Y110.281 E615.95832
G1 X145.603 Y113.369 E623.9743
G1 X145.833 Y114.435 E626.75131
G1 X145.988 Y115.343 E629.09696
G1 X146.059 Y116.167 E631.20303
G1 X146.069 Y116.378 E631.74094
G1 X146.08 Y116.709 E632.58429
G1 X146.09 Y117.329 E634.16331
G1 X146.09 Y117.666 E635.02148
G1 X146.081 Y118.241 E636.48588
G1 X146.072 Y118.528 E637.21708
G1 X146.061 Y118.785 E637.87213
G1 X145.982 Y119.703 E640.21843
G1 X145.828 Y120.59 E642.51095
G1 X145.675 Y121.291 E644.33806
G1 X145.053 Y124.398 E652.40695
G1 X144.848 Y125.516 E655.30138
G1 X144.643 Y126.413 E657.64447
G1 X144.415 Y127.14 E659.58466
G1 X144.346 Y127.335 E660.1114
G1 X144.212 Y127.693 E661.08481
G1 X144.009 Y128.207 E662.49208
G1 X143.876 Y128.527 E663.37453
G1 X143.584 Y129.201 E665.24501
G1 X143.432 Y129.537 E666.1841
G1 X143.355 Y129.699 E666.64086
G1 X142.924 Y130.513 E668.98633
G1 X142.47 Y131.22 E671.12592
G1 X142.192 Y131.618 E672.36218
G1 X140.291 Y134.451 E681.05
G1 X139.709 Y135.355 E683.78784
G1 X139.177 Y136.107 E686.13354
G1 X138.731 Y136.646 E687.91505
G1 X138.623 Y136.768 E688.32997
G1 X138.292 Y137.125 E689.56968
G1 X137.827 Y137.604 E691.26967
G1 X137.589 Y137.841 E692.12497
G1 X137.135 Y138.28 E693.73316
G1 X136.867 Y138.531 E694.66819
G1 X136.714 Y138.669 E695.19287
G1 X136.004 Y139.256 E697.53877
G1 X135.331 Y139.724 E699.62619
G1 X134.869 Y140.02 E701.02342
G1 X132.2 Y141.796 E709.18715
G1 X131.152 Y142.517 E712.42643
G1 X130.372 Y143.005 E714.76939
G1 X129.883 Y143.266 E716.18089
G1 X129.805 Y143.305 E716.40296
G1 X129.281 Y143.549 E717.87489
G1 X128.529 Y143.875 E719.96204
G1 X128.224 Y144.002 E720.80336
G1 X127.753 Y144.189 E722.09382
G1 X127.434 Y144.31 E722.96262
G1 X127.198 Y144.395 E723.60138
G1 X126.319 Y144.669 E725.94596
G1 X125.489 Y144.853 E728.11085
G1 X124.719 Y144.992 E730.10334
G1 X121.605 Y145.608 E738.18673
G1 X120.562 Y145.833 E740.90381
G1 X119.654 Y145.988 E743.24946
G1 X118.832 Y146.059 E745.35046
G1 X118.621 Y146.069 E745.88837
G1 X118.29 Y146.08 E746.73172
G1 X117.671 Y146.09 E748.30819
G1 X117.338 Y146.09 E749.15617
G1 X116.749 Y146.081 E750.65622
G1 X116.432 Y146.071 E751.46386
G1 X116.189 Y146.06 E752.08329
G1 X115.272 Y145.979 E754.4275
G1 X114.41 Y145.828 E756.65599
G1 X113.709 Y145.675 E758.48309
G1 X110.583 Y145.049 E766.60143
G1 X109.472 Y144.845 E769.47787
G1 X108.574 Y144.64 E771.82344
G1 X107.83 Y144.405 E773.81028
G1 X107.642 Y144.338 E774.31851
G1 X107.3 Y144.209 E775.2493
G1 X106.787 Y144.006 E776.6542
G1 X106.48 Y143.879 E777.50023
G1 X105.807 Y143.588 E779.36735
G1 X105.459 Y143.43 E780.34059
G1 X105.293 Y143.351 E780.80873
G1 X104.48 Y142.92 E783.15195
G1 X103.788 Y142.477 E785.24427
G1 X103.374 Y142.189 E786.52851
G1 X100.532 Y140.281 E795.2453
G1 X99.629 Y139.698 E797.98237
G1 X98.878 Y139.165 E800.32747
G1 X98.321 Y138.701 E802.17353
G1 X98.2 Y138.593 E802.58654
G1 X97.883 Y138.299 E803.6875
G1 X97.404 Y137.835 E805.38572
G1 X97.167 Y137.598 E806.23922
G1 X96.727 Y137.144 E807.84918
G1 X96.442 Y136.838 E808.91402
G1 X96.305 Y136.685 E809.437
G1 X95.721 Y135.973 E811.78198
G1 X95.277 Y135.333 E813.76551
G1 X94.977 Y134.865 E815.1811
G1 X93.211 Y132.208 E823.30529
G1 X92.485 Y131.155 E826.56228
G1 X91.996 Y130.375 E828.90659
G1 X91.733 Y129.881 E830.33172
G1 X91.695 Y129.805 E830.54809
G1 X91.451 Y129.281 E832.02002
G1 X91.125 Y128.529 E834.10717
G1 X90.998 Y128.224 E834.94849
G1 X90.811 Y127.753 E836.23895
G1 X90.685 Y127.42 E837.1456
G1 X90.6 Y127.183 E837.78676
G1 X90.327 Y126.304 E840.13059
G1 X90.147 Y125.491 E842.25101
G1 X90.002 Y124.689 E844.32639
G1 X89.392 Y121.605 E852.33188
G1 X89.167 Y120.562 E855.04896
G1 X89.012 Y119.654 E857.39461
G1 X88.941 Y118.834 E859.49054
G1 X88.93 Y118.603 E860.07944
G1 X88.919 Y118.258 E860.95842
G1 X88.91 Y117.659 E862.48393
G1 X88.91 Y117.338 E863.30135
G1 X88.919 Y116.749 E864.8014
G1 X88.929 Y116.428 E865.61922
G1 X88.94 Y116.187 E866.23356
G1 X89.022 Y115.27 E868.578
G1 X89.171 Y114.418 E870.78053
G1 X89.321 Y113.729 E872.57615
G1 X89.951 Y110.583 E880.74643
G1 X90.155 Y109.472 E883.62286
G1 X90.36 Y108.574 E885.96843
G1 X90.595 Y107.83 E887.95527
G1 X90.662 Y107.642 E888.4635
G1 X90.791 Y107.3 E889.39429
G1 X90.994 Y106.787 E890.7992
G1 X91.121 Y106.48 E891.64522
G1 X91.412 Y105.807 E893.51235
G1 X91.604 Y105.388 E894.68601
G1 X91.685 Y105.221 E895.15865
G1 X92.122 Y104.411 E897.50234
G1 X92.522 Y103.791 E899.38122
G1 X92.817 Y103.367 E900.69655
G1 X94.72 Y100.532 E909.39143
G1 X95.293 Y99.642 E912.08689
G1 X95.825 Y98.89 E914.43259
G1 X96.272 Y98.351 E916.21573
G1 X96.381 Y98.228 E916.63424
G1 X96.708 Y97.875 E917.85956
G1 X97.173 Y97.396 E919.55954
G0 F6000 X97.46 Y97.674
G1 F1200 X97.681 Y97.454 E920.35363
G1 X98.134 Y97.015 E921.95999
G1 X98.449 Y96.722 E923.05549
G1 X98.604 Y96.584 E923.58396
G1 X99.305 Y96.014 E925.88469
G1 X99.877 Y95.618 E927.65628
G1 X100.369 Y95.302 E929.1453
G1 X103.032 Y93.531 E937.28927
G1 X104.072 Y92.815 E940.50455
G1 X104.837 Y92.336 E942.80297
G1 X105.297 Y92.091 E944.13014
G1 X105.373 Y92.053 E944.34651
G1 X105.878 Y91.818 E945.7649
G1 X106.63 Y91.492 E947.85205
G1 X106.923 Y91.37 E948.66027
G1 X107.394 Y91.183 E949.95073
G1 X107.702 Y91.066 E950.78973
G1 X107.938 Y90.981 E951.42849
G1 X108.8 Y90.713 E953.7272
G1 X109.582 Y90.54 E955.76669
G1 X110.374 Y90.397 E957.81611
G1 X113.502 Y89.778 E965.93597
G1 X114.523 Y89.558 E968.59559
G1 X115.413 Y89.407 E970.89435
G1 X116.187 Y89.34 E972.87269
G1 X116.398 Y89.33 E973.4106
G1 X116.716 Y89.32 E974.22078
G1 X117.335 Y89.31 E975.79726
G1 X117.656 Y89.31 E976.61468
G1 X118.246 Y89.319 E978.11728
G1 X118.559 Y89.329 E978.91473
G1 X118.798 Y89.34 E979.52399
G1 X119.697 Y89.421 E981.82254
G1 X120.494 Y89.561 E983.88316
G1 X121.253 Y89.726 E985.86108
