;FLAVOR:Marlin
;TIME:5909
;Filament used: 222.628m
;Layer height: 0.2
;MINX:68.047
;MINY:51.598
;MINZ:0.2
;MAXX:166.953
;MAXY:183.402
;MAXZ:1.8
;Generated with Cura_SteamEngine 4.8.0
M140 S60
M105
M190 S60
M104 S210
M105
M109 S210
M82 ;absolute extrusion mode
; Ender 3 Custom Start G-code
G92 E0 ; Reset Extruder
G28 ; Home all axes
G1 Z2.0 F3000 ; Move Z Axis up little to prevent scratching of Heat Bed
G1 X0.1 Y20 Z0.3 F5000.0 ; Move to start position
G1 X0.1 Y200.0 Z0.3 F1500.0 E15 ; Draw the first line
G1 X0.4 Y200.0 Z0.3 F5000.0 ; Move to side a little
G1 X0.4 Y20 Z0.3 F1500.0 E30 ; Draw the second line
G92 E0 ; Reset Extruder
G1 Z2.0 F3000 ; Move Z Axis up little to prevent scratching of Heat Bed
G1 X5 Y20 Z0.3 F5000.0 ; Move over to prevent blob squish
G92 E0
G92 E0
G1 F1500 E-6.5
;LAYER_COUNT:9
;LAYER:0
M107
G0 F6000 X70.983 Y56.586 Z0.2
;TYPE:SKIRT
G1 F1500 E0
G1 F1200 X71.275 Y56.235 E1.16267
G1 X71.433 Y56.053 E1.77641
G1 X72.078 Y55.371 E4.16678
G1 X72.678 Y54.83 E6.22404
G1 X73.011 Y54.556 E7.32218
G1 X73.227 Y54.384 E8.0253
G1 X73.985 Y53.832 E10.41312
G1 X74.621 Y53.438 E12.31827
G1 X74.74 Y53.37 E12.66729
G1 X75.183 Y53.131 E13.94908
G1 X75.468 Y52.985 E14.76451
G1 X76.32 Y52.593 E17.15274
G1 X77.181 Y52.282 E19.4839
G1 X77.558 Y52.167 E20.4876
G1 X77.83 Y52.088 E21.20886
G1 X78.741 Y51.865 E23.5972
G1 X79.744 Y51.712 E26.18086
G1 X80 Y51.685 E26.83637
G1 X80.924 Y51.626 E29.19411
G1 X82.168 Y51.6 E32.36262
G1 X82.398 Y51.598 E32.94834
G1 X145.348 Y51.598 E193.2492
G1 X146.017 Y51.606 E194.95291
G1 X146.721 Y51.638 E196.74748
G1 X147.365 Y51.688 E198.39235
G1 X148.297 Y51.8 E200.78275
G1 X149.606 Y52.099 E204.20194
G1 X150.01 Y52.219 E205.27514
G1 X150.22 Y52.285 E205.83569
G1 X151.102 Y52.604 E208.22407
G1 X151.925 Y52.983 E210.53137
G1 X152.111 Y53.078 E211.06322
G1 X152.431 Y53.248 E211.98594
G1 X152.648 Y53.368 E212.61739
G1 X153.449 Y53.856 E215.00586
G1 X154.093 Y54.323 E217.03159
G1 X154.216 Y54.419 E217.42891
G1 X154.542 Y54.683 E218.49714
G1 X154.766 Y54.872 E219.24346
G1 X155.456 Y55.507 E221.63136
G1 X156.106 Y56.217 E224.0826
G1 X156.401 Y56.573 E225.25994
G1 X156.545 Y56.753 E225.84694
G1 X157.099 Y57.51 E228.2357
G1 X157.483 Y58.128 E230.08848
G1 X157.558 Y58.258 E230.47067
G1 X157.8 Y58.7 E231.75387
G1 X157.934 Y58.959 E232.49645
G1 X158.329 Y59.81 E234.88557
G1 X158.656 Y60.71 E237.32398
G1 X158.73 Y60.945 E237.95137
G1 X158.828 Y61.272 E238.82066
G1 X158.889 Y61.489 E239.39467
G1 X159.104 Y62.402 E241.7832
G1 X159.242 Y63.349 E244.22018
G1 X159.267 Y63.594 E244.84731
G1 X159.322 Y64.485 E247.12054
G1 X159.347 Y65.703 E250.22281
G1 X159.349 Y65.929 E250.79833
G1 X159.349 Y68.406 E257.10596
G1 X159.386 Y71.015 E263.75039
G1 X159.493 Y73.537 E270.17839
G1 X159.67 Y76.031 E276.54528
G1 X159.918 Y78.529 E282.93766
G1 X160.236 Y81.018 E289.32737
G1 X160.63 Y83.527 E295.79478
G1 X161.089 Y85.993 E302.18225
G1 X161.616 Y88.444 E308.56631
G1 X162.219 Y90.906 E315.02105
G1 X162.821 Y93.108 E320.83417
G1 X163.077 Y94.001 E323.19977
G1 X163.297 Y94.912 E325.5863
G1 X163.434 Y95.793 E327.85671
G1 X163.454 Y95.969 E328.30778
G1 X163.522 Y96.98 E330.88809
G1 X163.562 Y98.904 E335.78857
G1 X163.651 Y101.439 E342.24787
G1 X163.811 Y103.954 E348.66521
G1 X164.043 Y106.481 E355.12723
G1 X164.343 Y108.973 E361.51887
G1 X164.715 Y111.466 E367.93753
G1 X165.153 Y113.922 E374.29036
G1 X165.665 Y116.385 E380.69642
G1 X166.281 Y118.978 E387.48321
G1 X166.558 Y120.073 E390.35944
G1 X166.766 Y121.095 E393.01529
G1 X166.807 Y121.361 E393.70066
G1 X166.91 Y122.293 E396.08842
G1 X166.933 Y122.834 E397.46731
G1 X166.951 Y123.808 E399.94801
G1 X166.953 Y124.011 E400.46497
G1 X166.952 Y169.549 E516.42653
G1 X166.945 Y170.066 E517.74318
G1 X166.913 Y170.775 E519.55048
G1 X166.862 Y171.427 E521.21585
G1 X166.749 Y172.358 E523.60402
G1 X166.501 Y173.486 E526.54505
G1 X166.468 Y173.606 E526.86198
G1 X166.353 Y173.996 E527.89738
G1 X166.26 Y174.291 E528.68504
G1 X165.94 Y175.173 E531.07428
G1 X165.541 Y176.035 E533.4931
G1 X165.449 Y176.213 E534.00334
G1 X165.305 Y176.482 E534.78031
G1 X165.184 Y176.701 E535.41745
G1 X164.696 Y177.501 E537.80374
G1 X164.155 Y178.241 E540.13802
G1 X164.017 Y178.414 E540.70155
G1 X163.788 Y178.692 E541.61872
G1 X163.649 Y178.855 E542.16423
G1 X163.01 Y179.542 E544.55343
G1 X162.447 Y180.061 E546.50333
G1 X162.305 Y180.183 E546.98005
G1 X161.989 Y180.444 E548.02373
G1 X161.773 Y180.616 E548.72685
G1 X161.015 Y181.168 E551.11467
G1 X160.379 Y181.562 E553.01982
G1 X160.26 Y181.63 E553.36884
G1 X159.819 Y181.868 E554.64494
G1 X159.54 Y182.011 E555.44329
G1 X158.688 Y182.403 E557.83152
G1 X157.896 Y182.692 E559.9784
G1 X157.747 Y182.74 E560.37703
G1 X157.442 Y182.833 E561.18901
G1 X157.17 Y182.912 E561.91028
G1 X156.259 Y183.135 E564.29861
G1 X155.256 Y183.288 E566.88227
G1 X155 Y183.315 E567.53779
G1 X154.076 Y183.374 E569.89553
G1 X152.832 Y183.4 E573.06404
G1 X152.602 Y183.402 E573.64975
G1 X81.901 Y183.401 E753.68837
G1 X81.379 Y183.394 E755.01775
G1 X80.675 Y183.362 E756.81232
G1 X80.031 Y183.312 E758.45719
G1 X79.099 Y183.2 E760.84758
G1 X77.79 Y182.901 E764.26678
G1 X77.383 Y182.78 E765.34803
G1 X77.17 Y182.713 E765.91663
G1 X76.289 Y182.394 E768.30262
G1 X75.445 Y182.005 E770.66914
G1 X75.262 Y181.911 E771.19303
G1 X74.905 Y181.719 E772.22526
G1 X74.684 Y181.595 E772.87056
G1 X73.887 Y181.102 E775.257
G1 X73.329 Y180.697 E777.01276
G1 X73.209 Y180.604 E777.39937
G1 X72.825 Y180.292 E778.65929
G1 X72.599 Y180.1 E779.41444
G1 X71.911 Y179.463 E781.80205
G1 X71.328 Y178.828 E783.99722
G1 X71.206 Y178.684 E784.47782
G1 X70.985 Y178.414 E785.36632
G1 X70.823 Y178.21 E786.02968
G1 X70.271 Y177.451 E788.41955
G1 X69.853 Y176.768 E790.45867
G1 X69.764 Y176.61 E790.92045
G1 X69.552 Y176.214 E792.06427
G1 X69.433 Y175.981 E792.73051
G1 X69.042 Y175.129 E795.11767
G1 X68.759 Y174.352 E797.22343
G1 X68.701 Y174.172 E797.70501
G1 X68.573 Y173.746 E798.83772
G1 X68.499 Y173.48 E799.5408
G1 X68.287 Y172.567 E801.92759
G1 X68.155 Y171.658 E804.26662
G1 X68.13 Y171.415 E804.88868
G1 X68.074 Y170.515 E807.18495
G1 X68.049 Y169.297 E810.28721
G1 X68.047 Y169.071 E810.86274
G1 X68.048 Y65.451 E1074.7289
G1 X68.055 Y64.934 E1076.04555
G1 X68.087 Y64.23 E1077.84012
G1 X68.138 Y63.574 E1079.51565
G1 X68.251 Y62.643 E1081.90383
G1 X68.532 Y61.394 E1085.16388
G1 X68.651 Y60.991 E1086.23391
G1 X68.742 Y60.703 E1087.00304
G1 X69.063 Y59.821 E1089.39316
G1 X69.448 Y58.989 E1091.72767
G1 X69.54 Y58.81 E1092.24017
G1 X69.695 Y58.518 E1093.08201
G1 X69.816 Y58.299 E1093.71915
G1 X70.304 Y57.499 E1096.10543
G1 X70.845 Y56.759 E1098.43971
G1 X70.983 Y56.586 E1099.00324
G0 F6000 X71.295 Y56.836
G1 F1200 X71.578 Y56.497 E1100.12777
G1 X71.736 Y56.315 E1100.74151
G1 X72.369 Y55.647 E1103.08498
G1 X72.935 Y55.137 E1105.02508
G1 X73.26 Y54.869 E1106.09778
G1 X73.476 Y54.697 E1106.8009
G1 X74.22 Y54.155 E1109.14491
G1 X74.82 Y53.786 E1110.93861
G1 X74.939 Y53.718 E1111.28763
G1 X75.365 Y53.487 E1112.52165
G1 X75.65 Y53.341 E1113.33709
G1 X76.487 Y52.957 E1115.68209
G1 X77.301 Y52.664 E1117.88512
G1 X77.669 Y52.551 E1118.86541
G1 X77.941 Y52.472 E1119.58668
G1 X78.836 Y52.254 E1121.93241
G1 X79.786 Y52.109 E1124.37958
G1 X80.042 Y52.082 E1125.0351
G1 X80.933 Y52.026 E1127.30849
G1 X82.177 Y52 E1130.477
G1 X82.398 Y51.998 E1131.03979
G1 X145.348 Y51.998 E1291.34065
G1 X146.012 Y52.006 E1293.03164
G1 X146.691 Y52.037 E1294.7625
G1 X147.335 Y52.087 E1296.40736
G1 X148.248 Y52.198 E1298.74942
G1 X149.494 Y52.482 E1302.00371
G1 X149.89 Y52.601 E1303.05666
G1 X150.1 Y52.667 E1303.61721
G1 X150.966 Y52.981 E1305.96295
G1 X151.743 Y53.339 E1308.14148
G1 X151.929 Y53.434 E1308.67333
G1 X152.238 Y53.598 E1309.56415
G1 X152.455 Y53.718 E1310.1956
G1 X153.24 Y54.198 E1312.53867
G1 X153.847 Y54.638 E1314.44776
G1 X153.97 Y54.734 E1314.84509
G1 X154.284 Y54.989 E1315.87514
G1 X154.508 Y55.178 E1316.62147
G1 X155.185 Y55.801 E1318.96431
G1 X155.799 Y56.474 E1321.28416
G1 X156.088 Y56.823 E1322.43803
G1 X156.232 Y57.003 E1323.02502
G1 X156.776 Y57.746 E1325.36998
G1 X157.137 Y58.328 E1327.11398
G1 X157.212 Y58.458 E1327.49616
G1 X157.445 Y58.884 E1328.73262
G1 X157.579 Y59.143 E1329.47521
G1 X157.966 Y59.978 E1331.81879
G1 X158.275 Y60.83 E1334.12667
G1 X158.349 Y61.065 E1334.75406
G1 X158.442 Y61.38 E1335.59043
G1 X158.503 Y61.597 E1336.16443
G1 X158.714 Y62.494 E1338.51097
G1 X158.844 Y63.39 E1340.81651
G1 X158.869 Y63.635 E1341.44363
G1 X158.922 Y64.493 E1343.63268
G1 X158.947 Y65.711 E1346.73494
G1 X158.949 Y65.929 E1347.2901
G1 X158.949 Y68.412 E1353.613
G1 X158.986 Y71.037 E1360.29818
G1 X159.093 Y73.546 E1366.6931
G1 X159.271 Y76.062 E1373.11605
G1 X159.521 Y78.586 E1379.57482
G1 X159.842 Y81.094 E1386.01349
G1 X160.229 Y83.556 E1392.3599
G1 X160.698 Y86.078 E1398.89222
G1 X161.23 Y88.552 E1405.33623
G1 X161.828 Y90.991 E1411.73104
G1 X162.424 Y93.173 E1417.49101
G1 X162.693 Y94.111 E1419.97589
G1 X162.908 Y95.006 E1422.31983
G1 X163.036 Y95.838 E1424.46342
G1 X163.056 Y96.014 E1424.91449
G1 X163.122 Y96.988 E1427.40045
G1 X163.161 Y98.856 E1432.15831
G1 X163.253 Y101.477 E1438.83674
G1 X163.414 Y104.017 E1445.31777
G1 X163.642 Y106.495 E1451.6546
G1 X163.945 Y109.008 E1458.10025
G1 X164.32 Y111.523 E1464.57545
G1 X164.763 Y114.009 E1471.00572
G1 X165.276 Y116.48 E1477.43225
G1 X165.904 Y119.121 E1484.34502
G1 X166.17 Y120.172 E1487.10576
G1 X166.37 Y121.156 E1489.66272
G1 X166.411 Y121.422 E1490.34809
G1 X166.512 Y122.337 E1492.69227
G1 X166.533 Y122.841 E1493.97681
G1 X166.553 Y124.011 E1496.95662
G1 X166.552 Y169.544 E1612.90545
G1 X166.545 Y170.061 E1614.2221
G1 X166.514 Y170.744 E1615.96314
G1 X166.463 Y171.396 E1617.62852
G1 X166.351 Y172.309 E1619.97088
G1 X166.116 Y173.38 E1622.76304
G1 X166.083 Y173.5 E1623.07996
G1 X165.972 Y173.876 E1624.07829
G1 X165.879 Y174.171 E1624.86595
G1 X165.564 Y175.036 E1627.21016
G1 X165.186 Y175.851 E1629.4979
G1 X165.094 Y176.029 E1630.00813
G1 X164.955 Y176.288 E1630.75665
G1 X164.834 Y176.507 E1631.39379
G1 X164.354 Y177.293 E1633.73904
G1 X163.843 Y177.991 E1635.94189
G1 X163.705 Y178.164 E1636.50542
G1 X163.484 Y178.432 E1637.38999
G1 X163.345 Y178.595 E1637.93549
G1 X162.717 Y179.269 E1640.28138
G1 X162.187 Y179.757 E1642.11598
G1 X162.045 Y179.879 E1642.59271
G1 X161.74 Y180.131 E1643.60019
G1 X161.524 Y180.303 E1644.30332
G1 X160.78 Y180.845 E1646.64732
G1 X160.18 Y181.214 E1648.44103
G1 X160.061 Y181.282 E1648.79005
G1 X159.637 Y181.512 E1650.01838
G1 X159.358 Y181.655 E1650.81673
G1 X158.521 Y182.039 E1653.16174
G1 X157.773 Y182.311 E1655.18853
G1 X157.331 Y182.449 E1656.36766
G1 X157.059 Y182.528 E1657.08892
G1 X156.164 Y182.746 E1659.43466
G1 X155.214 Y182.891 E1661.88183
G1 X154.958 Y182.918 E1662.53734
G1 X154.067 Y182.974 E1664.81073
G1 X152.823 Y183 E1667.97925
G1 X152.602 Y183.002 E1668.54204
G1 X81.906 Y183.001 E1848.56793
G1 X81.384 Y182.994 E1849.89731
G1 X80.705 Y182.963 E1851.62817
G1 X80.061 Y182.913 E1853.27304
G1 X79.148 Y182.802 E1855.61509
G1 X77.902 Y182.518 E1858.86938
G1 X77.503 Y182.399 E1859.92965
G1 X77.29 Y182.332 E1860.49825
G1 X76.425 Y182.017 E1862.84247
G1 X75.628 Y181.649 E1865.07791
G1 X75.445 Y181.555 E1865.6018
G1 X75.101 Y181.37 E1866.59643
G1 X74.88 Y181.246 E1867.24173
G1 X74.098 Y180.761 E1869.58498
G1 X73.574 Y180.38 E1871.23477
G1 X73.454 Y180.287 E1871.62137
G1 X73.084 Y179.987 E1872.83436
G1 X72.858 Y179.795 E1873.58951
G1 X72.183 Y179.169 E1875.9338
G1 X71.633 Y178.569 E1878.00648
G1 X71.511 Y178.425 E1878.48708
G1 X71.298 Y178.165 E1879.34298
G1 X71.136 Y177.961 E1880.00633
G1 X70.595 Y177.216 E1882.3509
G1 X70.201 Y176.571 E1884.27558
G1 X70.112 Y176.413 E1884.73736
G1 X69.908 Y176.032 E1885.83789
G1 X69.789 Y175.799 E1886.50412
G1 X69.406 Y174.962 E1888.84807
G1 X69.14 Y174.229 E1890.83375
G1 X69.082 Y174.049 E1891.31532
G1 X68.959 Y173.639 E1892.40535
G1 X68.885 Y173.373 E1893.10843
G1 X68.677 Y172.476 E1895.45323
G1 X68.553 Y171.617 E1897.66333
G1 X68.528 Y171.374 E1898.28539
G1 X68.474 Y170.507 E1900.49747
G1 X68.449 Y169.289 E1903.59973
G1 X68.447 Y169.071 E1904.15489
G1 X68.448 Y65.456 E2168.00832
G1 X68.455 Y64.939 E2169.32497
G1 X68.486 Y64.261 E2171.05329
G1 X68.537 Y63.605 E2172.72882
G1 X68.648 Y62.691 E2175.0734
G1 X68.916 Y61.504 E2178.17215
G1 X69.033 Y61.111 E2179.21633
G1 X69.124 Y60.823 E2179.98545
G1 X69.439 Y59.958 E2182.32967
G1 X69.803 Y59.171 E2184.53772
G1 X69.895 Y58.992 E2185.05022
G1 X70.045 Y58.712 E2185.85911
G1 X70.166 Y58.493 E2186.49625
G1 X70.646 Y57.707 E2188.84149
G1 X71.157 Y57.009 E2191.04434
G1 X71.295 Y56.836 E2191.60787
G0 F6000 X71.608 Y57.085
G1 F1200 X71.88 Y56.759 E2192.68903
G1 X72.038 Y56.577 E2193.30277
G1 X72.659 Y55.922 E2195.6012
G1 X73.191 Y55.444 E2197.42243
G1 X73.509 Y55.182 E2198.47166
G1 X73.725 Y55.01 E2199.17478
G1 X74.456 Y54.479 E2201.47554
G1 X75.018 Y54.133 E2203.15614
G1 X75.137 Y54.065 E2203.50515
G1 X75.547 Y53.843 E2204.69243
G1 X75.832 Y53.697 E2205.50787
G1 X76.654 Y53.321 E2207.80967
G1 X77.421 Y53.045 E2209.88542
G1 X77.781 Y52.935 E2210.84399
G1 X78.053 Y52.856 E2211.56526
G1 X78.931 Y52.643 E2213.86592
G1 X79.828 Y52.507 E2216.17622
G1 X80.084 Y52.48 E2216.83173
G1 X80.941 Y52.426 E2219.01839
G1 X82.185 Y52.4 E2222.1869
G1 X82.398 Y52.398 E2222.72933
G1 X145.348 Y52.398 E2383.03019
G1 X146.007 Y52.406 E2384.70844
G1 X146.66 Y52.436 E2386.37304
G1 X147.304 Y52.486 E2388.01791
G1 X148.2 Y52.595 E2390.31638
G1 X149.381 Y52.866 E2393.40193
G1 X149.77 Y52.982 E2394.43562
G1 X149.98 Y53.048 E2394.99617
G1 X150.829 Y53.357 E2397.29687
G1 X151.562 Y53.695 E2399.35232
G1 X151.748 Y53.79 E2399.88417
G1 X152.044 Y53.948 E2400.73859
G1 X152.261 Y54.068 E2401.37004
G1 X153.031 Y54.54 E2403.6699
G1 X153.601 Y54.953 E2405.46235
G1 X153.724 Y55.049 E2405.85968
G1 X154.026 Y55.294 E2406.84996
G1 X154.25 Y55.483 E2407.59628
G1 X154.913 Y56.096 E2409.89565
G1 X155.492 Y56.731 E2412.08395
G1 X155.776 Y57.073 E2413.21597
G1 X155.92 Y57.253 E2413.80297
G1 X156.452 Y57.983 E2416.10316
G1 X156.79 Y58.528 E2417.73623
G1 X156.865 Y58.658 E2418.11841
G1 X157.089 Y59.068 E2419.30813
G1 X157.223 Y59.327 E2420.05071
G1 X157.602 Y60.147 E2422.35107
G1 X157.893 Y60.95 E2424.52602
G1 X157.967 Y61.185 E2425.15341
G1 X158.057 Y61.489 E2425.96075
G1 X158.118 Y61.706 E2426.53476
G1 X158.324 Y62.585 E2428.83376
G1 X158.446 Y63.431 E2431.01037
G1 X158.471 Y63.676 E2431.63749
G1 X158.522 Y64.502 E2433.74489
G1 X158.547 Y65.72 E2436.84716
G1 X158.549 Y65.929 E2437.37939
G1 X158.549 Y68.418 E2443.71758
G1 X158.586 Y71.024 E2450.35437
G1 X158.695 Y73.59 E2456.89453
G1 X158.873 Y76.097 E2463.29463
G1 X159.121 Y78.606 E2469.71488
G1 X159.449 Y81.169 E2476.29473
G1 X159.84 Y83.654 E2482.70059
G1 X160.301 Y86.137 E2489.13155
G1 X160.835 Y88.618 E2495.59405
G1 X161.446 Y91.112 E2502.13278
G1 X162.046 Y93.309 E2507.93227
G1 X162.308 Y94.221 E2510.3486
G1 X162.519 Y95.1 E2512.65054
G1 X162.639 Y95.883 E2514.66771
G1 X162.659 Y96.059 E2515.11877
G1 X162.722 Y96.997 E2517.51275
G1 X162.761 Y98.877 E2522.30116
G1 X162.853 Y101.483 E2528.94142
G1 X163.015 Y104.04 E2535.46582
G1 X163.245 Y106.546 E2541.87412
G1 X163.55 Y109.078 E2548.36842
G1 X163.924 Y111.581 E2554.81301
G1 X164.371 Y114.088 E2561.29772
G1 X164.89 Y116.589 E2567.80215
G1 X165.483 Y119.084 E2574.3326
G1 X165.783 Y120.27 E2577.44785
G1 X165.975 Y121.217 E2579.90843
G1 X166.016 Y121.483 E2580.59379
G1 X166.114 Y122.381 E2582.89411
G1 X166.133 Y122.849 E2584.08684
G1 X166.153 Y124.011 E2587.04629
G1 X166.152 Y169.538 E2702.97984
G1 X166.145 Y170.055 E2704.29649
G1 X166.115 Y170.712 E2705.97127
G1 X166.064 Y171.364 E2707.63665
G1 X165.954 Y172.261 E2709.93795
G1 X165.73 Y173.274 E2712.57985
G1 X165.697 Y173.394 E2712.89677
G1 X165.59 Y173.756 E2713.85802
G1 X165.497 Y174.051 E2714.64568
G1 X165.188 Y174.899 E2716.94398
G1 X164.83 Y175.667 E2719.10172
G1 X164.605 Y176.095 E2720.33304
G1 X164.484 Y176.314 E2720.97018
G1 X164.013 Y177.084 E2723.26871
G1 X163.53 Y177.742 E2725.34726
G1 X163.392 Y177.915 E2725.91079
G1 X163.179 Y178.172 E2726.76079
G1 X163.04 Y178.335 E2727.30629
G1 X162.424 Y178.996 E2729.60713
G1 X161.926 Y179.454 E2731.33004
