;FLAVOR:Marlin
;TIME:6675
;Filament used: 183.915m
;Layer height: 0.2
;MINX:92.75
;MINY:92.801
;MINZ:0.24
;MAXX:142.183
;MAXY:142.204
;MAXZ:75.29
;Generated with Cura_SteamEngine 4.8.0
M140 S60
M105
M190 S60
M104 S210
M105
M109 S210
M82 ;absolute extrusion mode
; Ender 3 Custom Start G-code
G92 E0 ; Reset Extruder
G28 ; Home all axes
G1 Z2.0 F3000 ; Move Z Axis up little to prevent scratching of Heat Bed
G1 X0.1 Y20 Z0.3 F5000.0 ; Move to start position
G1 X0.1 Y200.0 Z0.3 F1500.0 E15 ; Draw the first line
G1 X0.4 Y200.0 Z0.3 F5000.0 ; Move to side a little
G1 X0.4 Y20 Z0.3 F1500.0 E30 ; Draw the second line
G92 E0 ; Reset Extruder
G1 Z2.0 F3000 ; Move Z Axis up little to prevent scratching of Heat Bed
G1 X5 Y20 Z0.3 F5000.0 ; Move over to prevent blob squish
G92 E0
G92 E0
G1 F1500 E-5
;LAYER_COUNT:356
;LAYER:-6
M107
M204 S500
M205 X8 Y8
G0 F9000 X100.894 Y99.417 Z0.24
;TYPE:SUPPORT-INTERFACE
G1 F1500 E0
G1 F1125 X101.032 Y99.28 E1.18843
G1 X101.676 Y98.686 E6.54283
G1 X101.816 Y98.565 E7.67373
G1 X102.501 Y98.019 E13.02732
G1 X102.641 Y97.915 E14.09319
G1 X103.359 Y97.424 E19.4092
G1 X103.556 Y97.302 E20.82535
G1 X104.707 Y96.659 E28.88299
G1 X104.711 Y96.667 E28.93765
G1 X104.92 Y96.54 E30.4323
G1 X105.306 Y96.324 E33.13559
G1 X105.294 Y96.312 E33.23931
G1 X105.33 Y96.29 E33.49715
G1 X106.273 Y95.77 E40.0785
G1 X106.699 Y95.571 E42.95208
G1 X106.983 Y95.429 E44.89263
G1 X107.395 Y95.209 E47.74708
G1 X108.284 Y94.772 E53.80119
G1 X108.42 Y94.712 E54.70965
G1 X109.234 Y94.384 E60.07314
G1 X109.424 Y94.316 E61.30646
G1 X110.266 Y94.046 E66.71048
G1 X110.444 Y93.996 E67.84044
G1 X111.479 Y93.752 E74.3393
G1 X111.583 Y93.729 E74.99026
G1 X112.066 Y93.634 E77.99869
G1 X112.498 Y93.546 E80.6931
G1 X112.761 Y93.5 E82.32484
G1 X113.967 Y93.266 E89.83283
G1 X114.893 Y93.12 E95.56203
G1 X115.054 Y93.101 E96.55282
G1 X115.986 Y93.023 E102.2687
G1 X116.109 Y93.017 E103.02131
G1 X116.772 Y93.002 E107.07431
G1 X117.024 Y93.002 E108.61442
G1 X117.221 Y93.008 E109.81895
G1 X117.576 Y93.014 E111.98886
G1 X117.658 Y93.013 E112.49005
G1 X118.574 Y93.031 E118.08931
G1 X118.741 Y93.04 E119.11142
G1 X119.292 Y93.084 E122.4896
G1 X120.85 Y93.241 E132.05962
G1 X121.815 Y93.374 E138.01301
G1 X121.945 Y93.396 E138.81881
G1 X122.847 Y93.589 E144.45621
G1 X122.993 Y93.624 E145.37378
G1 X123.61 Y93.795 E149.28674
G1 X124.594 Y94.09 E155.56495
G1 X125.167 Y94.285 E159.2641
G1 X125.32 Y94.334 E160.24595
G1 X126.106 Y94.576 E165.27215
G1 X126.245 Y94.624 E166.17088
G1 X127.094 Y94.955 E171.73998
G1 X127.233 Y95.015 E172.66525
G1 X128.199 Y95.478 E179.2121
G1 X129.432 Y96.131 E187.73919
G1 X129.545 Y96.194 E188.52988
G1 X130.821 Y96.961 E197.62863
G1 X130.883 Y97.001 E198.07956
G1 X131.555 Y97.458 E203.04623
G1 X132.641 Y98.274 E211.34817
G1 X132.739 Y98.352 E212.11365
G1 X133.371 Y98.877 E217.13498
G1 X133.473 Y98.965 E217.95829
G1 X134.426 Y99.833 E225.83635
G1 X134.476 Y99.881 E226.25994
G1 X135.838 Y101.247 E238.04906
G1 X136.471 Y101.928 E243.73132
G1 X136.596 Y102.073 E244.90133
G1 X137.142 Y102.755 E250.2406
G1 X137.264 Y102.919 E251.48981
G1 X137.755 Y103.634 E256.7907
G1 X137.863 Y103.804 E258.02159
G1 X138.293 Y104.539 E263.22584
G1 X138.388 Y104.715 E264.44817
G1 X138.584 Y105.107 E267.12667
G1 X138.751 Y105.415 E269.26792
G1 X138.998 Y105.836 E272.25102
G1 X139.074 Y105.971 E273.19784
G1 X139.318 Y106.432 E276.38557
G1 X139.812 Y107.454 E283.32297
G1 X140.159 Y108.249 E288.62431
G1 X140.527 Y109.184 E294.76527
G1 X140.571 Y109.304 E295.5464
G1 X140.777 Y109.94 E299.63216
G1 X141.086 Y110.968 E306.19251
G1 X141.116 Y111.075 E306.87167
G1 X141.348 Y111.96 E312.46315
G1 X141.39 Y112.144 E313.6166
G1 X141.525 Y112.834 E317.91352
G1 X141.684 Y113.763 E323.67371
G1 X141.703 Y113.889 E324.45247
G1 X141.818 Y114.741 E329.70673
G1 X141.837 Y114.899 E330.67931
G1 X141.904 Y115.559 E334.73366
G1 X141.919 Y115.738 E335.83146
G1 X141.977 Y116.621 E341.23959
G1 X141.983 Y116.808 E342.38304
G1 X141.976 Y117.706 E347.87138
G1 X141.97 Y117.859 E348.80716
G1 X141.954 Y118.09 E350.22231
G1 X141.892 Y119.318 E357.73686
G1 X141.883 Y119.437 E358.46621
G1 X141.8 Y120.26 E363.52153
G1 X141.787 Y120.372 E364.21062
G1 X141.662 Y121.295 E369.90307
G1 X141.501 Y122.249 E375.81594
G1 X141.292 Y123.264 E382.1493
G1 X141.259 Y123.403 E383.02242
G1 X141.079 Y124.061 E387.19157
G1 X140.787 Y125.045 E393.46453
G1 X140.47 Y125.987 E399.53885
G1 X140.443 Y126.062 E400.02601
G1 X140.236 Y126.579 E403.42954
G1 X139.874 Y127.426 E409.05898
G1 X139.318 Y128.578 E416.87661
G1 X139.265 Y128.683 E417.59543
G1 X138.61 Y129.893 E426.00437
G1 X138.089 Y130.781 E432.29655
G1 X137.995 Y130.928 E433.36292
G1 X137.476 Y131.677 E438.93202
G1 X137.386 Y131.8 E439.86349
G1 X137.023 Y132.262 E443.45432
G1 X136.435 Y132.982 E449.13558
G1 X136.37 Y133.059 E449.75142
G1 X135.768 Y133.745 E455.32936
G1 X135.689 Y133.828 E456.02966
G1 X135.439 Y134.111 E458.33744
G1 X135.193 Y134.411 E460.7085
G1 X135.133 Y134.481 E461.27196
G1 X134.505 Y135.188 E467.05128
G1 X134.4 Y135.299 E467.98508
G1 X133.76 Y135.923 E473.44792
G1 X133.615 Y136.054 E474.64219
G1 X132.953 Y136.61 E479.9257
G1 X132.786 Y136.739 E481.21537
G1 X132.094 Y137.241 E486.44018
G1 X131.923 Y137.354 E487.69282
G1 X130.889 Y137.978 E495.07372
G1 X130.759 Y138.052 E495.98793
G1 X130.197 Y138.357 E499.89583
G1 X130.021 Y138.456 E501.12995
G1 X129.079 Y139.014 E507.82127
G1 X128.891 Y139.115 E509.12555
G1 X128.154 Y139.473 E514.13305
G1 X127.95 Y139.572 E515.51886
G1 X127.587 Y139.749 E517.98703
G1 X126.869 Y140.1 E522.8714
G1 X126.733 Y140.16 E523.77986
G1 X125.876 Y140.501 E529.41685
G1 X125.73 Y140.553 E530.36405
G1 X124.986 Y140.793 E535.14176
G1 X123.949 Y141.096 E541.74444
G1 X122.869 Y141.366 E548.54805
G1 X122.766 Y141.39 E549.1944
G1 X121.771 Y141.596 E555.40435
G1 X121.705 Y141.609 E555.81546
G1 X120.761 Y141.768 E561.66603
G1 X120.578 Y141.792 E562.79402
G1 X119.699 Y141.877 E568.19113
G1 X119.043 Y141.915 E572.20703
G1 X119.043 Y141.921 E572.2437
G1 X118.78 Y141.945 E573.85772
G1 X117.826 Y142 E579.69782
G1 X117.65 Y142.004 E580.77373
G1 X116.743 Y141.989 E586.31766
G1 X116.612 Y141.983 E587.11911
G1 X115.956 Y141.933 E591.13992
G1 X114.695 Y141.808 E598.88435
G1 X114.551 Y141.79 E599.77127
G1 X113.253 Y141.597 E607.79127
G1 X113.114 Y141.573 E608.65335
G1 X112.298 Y141.411 E613.7377
G1 X112.186 Y141.385 E614.44039
G1 X110.829 Y141.043 E622.9931
G1 X110.704 Y141.008 E623.78642
G1 X109.703 Y140.701 E630.18534
G1 X109.581 Y140.661 E630.97
G1 X108.694 Y140.355 E636.70446
G1 X108.549 Y140.298 E637.65665
G1 X107.718 Y139.94 E643.18659
G1 X106.908 Y139.554 E648.67031
G1 X106.908 Y139.564 E648.73142
G1 X106.42 Y139.315 E652.07966
G1 X105.604 Y138.881 E657.72818
G1 X105.536 Y138.843 E658.20425
G1 X104.056 Y137.956 E668.74941
G1 X103.316 Y137.465 E674.17694
G1 X103.175 Y137.364 E675.23693
G1 X102.395 Y136.761 E681.26234
G1 X101.59 Y136.093 E687.65541
G1 X101.517 Y136.029 E688.24874
G1 X100.709 Y135.293 E694.92841
G1 X100.395 Y135.022 E697.46332
G1 X99.704 Y134.405 E703.1249
G1 X99.584 Y134.29 E704.14069
G1 X98.955 Y133.639 E709.67305
G1 X98.826 Y133.495 E710.85461
G1 X98.267 Y132.826 E716.18268
G1 X98.155 Y132.681 E717.30243
G1 X97.648 Y131.973 E722.62444
G1 X97.536 Y131.803 E723.86861
G1 X96.975 Y130.87 E730.5221
G1 X96.876 Y130.7 E731.72439
G1 X96.692 Y130.361 E734.08172
G1 X96.577 Y130.16 E735.49699
G1 X96.206 Y129.547 E739.87607
G1 X96.135 Y129.421 E740.75997
G1 X95.878 Y128.934 E744.12531
G1 X95.524 Y128.206 E749.07265
G1 X95.411 Y127.988 E750.57331
G1 X95.29 Y127.763 E752.13464
G1 X94.857 Y126.897 E758.05195
G1 X94.79 Y126.752 E759.02816
G1 X94.455 Y125.936 E764.41909
G1 X94.386 Y125.748 E765.643
G1 X94.111 Y124.913 E771.01578
G1 X94.063 Y124.745 E772.08361
G1 X93.859 Y123.936 E777.18262
G1 X93.824 Y123.789 E778.10613
G1 X93.294 Y121.348 E793.37202
G1 X93.106 Y120.301 E799.87315
G1 X93.085 Y120.152 E800.79277
G1 X92.988 Y119.23 E806.45872
G1 X92.98 Y119.107 E807.21203
G1 X92.951 Y118.183 E812.86188
G1 X92.952 Y118.013 E813.90086
G1 X92.99 Y117.097 E819.50386
G1 X92.999 Y116.98 E820.22102
G1 X93.079 Y116.217 E824.90969
G1 X93.113 Y115.774 E827.62507
G1 X93.121 Y115.48 E829.42253
G1 X93.132 Y115.332 E830.32954
G1 X93.249 Y114.318 E836.56777
G1 X93.273 Y114.165 E837.51427
G1 X93.324 Y113.897 E839.18156
G1 X93.373 Y113.594 E841.05741
G1 X93.456 Y112.955 E844.9955
G1 X93.486 Y112.78 E846.08062
G1 X93.674 Y111.868 E851.77155
G1 X93.7 Y111.756 E852.47425
G1 X93.866 Y111.141 E856.36736
G1 X94.237 Y109.884 E864.3772
G1 X94.275 Y109.76 E865.16982
G1 X94.573 Y108.87 E870.9059
G1 X94.624 Y108.735 E871.78787
G1 X94.972 Y107.901 E877.31084
G1 X95.053 Y107.729 E878.47275
G1 X95.139 Y107.559 E879.6371
G1 X95.242 Y107.343 E881.0996
G1 X95.336 Y107.137 E882.48345
G1 X95.35 Y107.115 E882.64282
G1 X95.359 Y107.087 E882.82257
G1 X95.765 Y106.257 E888.46951
G1 X96.157 Y105.519 E893.57662
G1 X96.667 Y104.638 E899.79798
G1 X96.735 Y104.527 E900.59354
G1 X96.996 Y104.13 E903.4972
G1 X97.309 Y103.672 E906.88751
G1 X97.553 Y103.326 E909.47502
G1 X97.878 Y102.879 E912.85264
G1 X98.392 Y102.217 E917.97483
G1 X98.481 Y102.106 E918.84435
G1 X98.88 Y101.624 E922.66846
G1 X98.967 Y101.524 E923.47854
G1 X100.06 Y100.323 E933.40308
G1 X100.252 Y100.104 E935.18306
G1 X100.894 Y99.417 E940.92964
G0 F9000 X100.8 Y99.517
G1 F1125 X100.8 Y135.375 E1160.0776
G1 F1500 E1155.0776
G1 F300 Z0.44
G0 F9000 X102.4 Y136.764 Z0.44
G1 F300 Z0.24
G1 F1500 E1160.0776
G1 F1125 X102.4 Y98.099 E1396.38067
G1 F1500 E1391.38067
G1 F300 Z0.44
G0 F9000 X104 Y97.053 Z0.44
G1 F300 Z0.24
G1 F1500 E1396.38067
G1 F1125 X104 Y137.918 E1646.12915
G1 F1500 E1641.12915
G1 F300 Z0.44
G0 F9000 X105.6 Y138.878 Z0.44
G1 F300 Z0.24
G1 F1500 E1646.12915
G1 F1125 X105.6 Y96.141 E1907.31846
G1 F1500 E1902.31846
G1 F300 Z0.44
G0 F9000 X107.2 Y95.313 Z0.44
G1 F300 Z0.24
G1 F1500 E1907.31846
G1 F1125 X107.2 Y139.693 E2178.54904
G1 F1500 E2173.54904
G1 F300 Z0.44
G0 F9000 X108.8 Y140.391 Z0.44
G1 F300 Z0.24
G1 F1500 E2178.54904
G1 F1125 X108.8 Y94.558 E2458.6597
G1 F1500 E2453.6597
G1 F300 Z0.44
G0 F9000 X110.4 Y94.008 Z0.44
G1 F300 Z0.24
G1 F1500 E2458.6597
G1 F1125 X110.4 Y140.914 E2745.32806
G1 F1500 E2740.32806
G1 F300 Z0.44
G0 F9000 X112 Y141.338 Z0.44
G1 F300 Z0.24
G1 F1500 E2745.32806
G1 F1125 X112 Y93.646 E3036.80009
G1 F1500 E3031.80009
G1 F300 Z0.44
G0 F9000 X113.6 Y93.337 Z0.44
G1 F300 Z0.24
G1 F1500 E3036.80009
G1 F1125 X113.6 Y141.648 E3332.05517
G1 F1500 E3327.05517
G1 F300 Z0.44
G0 F9000 X115.2 Y141.858 Z0.44
G1 F300 Z0.24
G1 F1500 E3332.05517
G1 F1125 X115.2 Y93.088 E3630.11546
G1 F1500 E3625.11546
G1 F300 Z0.44
G0 F9000 X116.8 Y93.002 Z0.44
G1 F300 Z0.24
G1 F1500 E3630.11546
G1 F1125 X116.8 Y141.989 E3929.50195
G1 F1500 E3924.50195
G1 F300 Z0.44
G0 F9000 X118.4 Y141.967 Z0.44
G1 F300 Z0.24
G1 F1500 E3929.50195
G1 F1125 X118.4 Y93.028 E4228.59509
G1 F1500 E4223.59509
G1 F300 Z0.44
G0 F9000 X120 Y93.156 Z0.44
G1 F300 Z0.24
G1 F1500 E4228.59509
G1 F1125 X120 Y141.848 E4526.17867
G1 F1500 E4521.17867
G1 F300 Z0.44
G0 F9000 X121.6 Y141.627 Z0.44
G1 F300 Z0.24
G1 F1500 E4526.17867
G1 F1125 X121.6 Y93.345 E4821.25652
G1 F1500 E4816.25652
G1 F300 Z0.44
G0 F9000 X123.2 Y93.682 Z0.44
G1 F300 Z0.24
G1 F1500 E4821.25652
G1 F1125 X123.2 Y141.284 E5112.17851
G1 F1500 E5107.17851
G1 F300 Z0.44
G0 F9000 X124.8 Y140.848 Z0.44
G1 F300 Z0.24
G1 F1500 E5112.17851
G1 F1125 X124.8 Y94.161 E5397.50844
G1 F1500 E5392.50844
G1 F300 Z0.44
G0 F9000 X126.4 Y94.685 Z0.44
G1 F300 Z0.24
G1 F1500 E5397.50844
G1 F1125 X126.4 Y140.293 E5676.244
G1 F1500 E5671.244
G1 F300 Z0.44
G0 F9000 X128 Y139.548 Z0.44
G1 F300 Z0.24
G1 F1500 E5676.244
G1 F1125 X128 Y95.383 E5946.1606
G1 F1500 E5941.1606
G1 F300 Z0.44
G0 F9000 X129.6 Y96.228 Z0.44
G1 F300 Z0.24
G1 F1500 E5946.1606
G1 F1125 X129.6 Y138.706 E6205.76701
G1 F1500 E6200.76701
G1 F300 Z0.44
G0 F9000 X131.2 Y137.791 Z0.44
G1 F300 Z0.24
G1 F1500 E6205.76701
G1 F1125 X131.2 Y97.217 E6453.73704
G1 F1500 E6448.73704
G1 F300 Z0.44
G0 F9000 X132.8 Y98.403 Z0.44
G1 F300 Z0.24
G1 F1500 E6453.73704
G1 F1125 X132.8 Y136.729 E6687.96829
G1 F1500 E6682.96829
G1 F300 Z0.44
G0 F9000 X134.4 Y135.299 Z0.44
G1 F300 Z0.24
G1 F1500 E6687.96829
G1 F1125 X134.4 Y99.81 E6904.86108
G1 F1500 E6899.86108
G1 F300 Z0.44
G0 F9000 X136 Y101.422 Z0.44
G1 F300 Z0.24
G1 F1500 E6904.86108
G1 F1125 X136 Y133.481 E7100.79126
G1 F1500 E7095.79126
G1 F300 Z0.44
G0 F9000 X137.6 Y131.499 Z0.44
G1 F300 Z0.24
G1 F1500 E7100.79126
G1 F1125 X137.6 Y103.409 E7272.46469
G1 F1500 E7267.46469
G1 F300 Z0.44
G0 F9000 X139.2 Y106.21 Z0.44
G1 F300 Z0.24
G1 F1500 E7272.46469
G1 F1125 X139.2 Y128.804 E7410.54905
G1 F1500 E7405.54905
G1 F300 Z0.44
G0 F9000 X140.8 Y125.002 Z0.44
G1 F300 Z0.24
G1 F1500 E7410.54905
G1 F1125 X140.8 Y110.017 E7502.13063
G1 F1500 E7497.13063
G1 F300 Z0.44
G0 F9000 X99.2 Y101.267 Z0.44
G1 F300 Z0.24
G1 F1500 E7502.13063
G1 F1125 X99.2 Y133.892 E7701.51994
G1 F1500 E7696.51994
G1 F300 Z0.44
G0 F9000 X97.6 Y131.9 Z0.44
G1 F300 Z0.24
G1 F1500 E7701.51994
G1 F1125 X97.6 Y103.261 E7876.54861
G1 F1500 E7871.54861
G1 F300 Z0.44
G0 F9000 X96 Y105.814 Z0.44
G1 F300 Z0.24
G1 F1500 E7876.54861
G1 F1125 X96 Y129.165 E8019.25941
G1 F1500 E8014.25941
G1 F300 Z0.44
G0 F9000 X94.4 Y125.786 Z0.44
G1 F300 Z0.24
G1 F1500 E8019.25941
G1 F1125 X94.4 Y109.386 E8119.48883
G1 F1500 E8114.48883
G1 F300 Z0.44
G0 F9000 X97.536 Y131.802 Z0.44
;TIME_ELAPSED:181.878468
;LAYER:-5
G0 X97.536 Y131.802 Z0.74
;TYPE:SUPPORT
G1 F300 Z0.54
G1 F1500 E8119.48883
G1 F1125 X97.647 Y131.972 E8121.03986
G1 X98.154 Y132.68 E8127.69237
G1 X98.267 Y132.825 E8129.09674
G1 X98.825 Y133.493 E8135.74607
G1 X98.954 Y133.638 E8137.22871
G1 X99.583 Y134.288 E8144.13867
G1 X99.704 Y134.404 E8145.41921
G1 X100.395 Y135.02 E8152.4911
G1 X100.708 Y135.292 E8155.65896
G1 X101.517 Y136.028 E8164.01421
G1 X101.59 Y136.092 E8164.75586
G1 X102.394 Y136.76 E8172.74132
G1 X103.174 Y137.363 E8180.27308
G1 X103.316 Y137.463 E8181.59988
G1 X103.929 Y137.87 E8187.22107
G1 X97.044 Y130.985 E8261.6052
G1 X96.974 Y130.869 E8262.64022
G1 X96.875 Y130.699 E8264.1431
G1 X96.691 Y130.36 E8267.08975
G1 X96.577 Y130.159 E8268.85506
G1 X96.206 Y129.546 E8274.32892
G1 X96.135 Y129.42 E8275.43379
G1 X95.878 Y128.933 E8279.64046
G1 X95.524 Y128.205 E8285.82463
G1 X95.41 Y127.987 E8287.70399
G1 X95.353 Y127.88 E8288.63016
G1 X107.133 Y139.66 E8415.89888
G1 X107.717 Y139.939 E8420.84329
G1 X108.549 Y140.297 E8427.76273
G1 X108.694 Y140.354 E8428.95297
G1 X109.528 Y140.641 E8435.69096
G1 X94.263 Y125.376 E8600.6109
G1 X94.11 Y124.912 E8604.34333
G1 X94.062 Y124.744 E8605.67812
G1 X93.859 Y123.935 E8612.05002
G1 X93.823 Y123.788 E8613.2062
G1 X93.749 Y123.448 E8615.86442
G1 X111.516 Y141.214 E8807.81006
G1 X112.186 Y141.383 E8813.0888
G1 X112.298 Y141.41 E8813.96893
G1 X113.113 Y141.571 E8820.31539
G1 X113.253 Y141.596 E8821.40183
G1 X113.322 Y141.606 E8821.93446
G1 X93.357 Y121.641 E9037.63224
G1 X93.293 Y121.347 E9039.93084
G1 X93.106 Y120.3 E9048.0559
G1 X93.084 Y120.151 E9049.20652
G1 X93.061 Y119.931 E9050.89635
G1 X114.963 Y141.833 E9287.52109
G1 X115.956 Y141.932 E9295.14466
G1 X116.519 Y141.975 E9299.45819
G1 X92.958 Y118.414 E9554.00642
G1 X92.951 Y118.182 E9555.77958
G1 X92.952 Y118.011 E9557.08594
G1 X92.989 Y117.096 E9564.08174
G1 X92.993 Y117.035 E9564.54875
G1 X117.949 Y141.991 E9834.16828
G1 X118.779 Y141.944 E9840.51917
G1 X119.042 Y141.92 E9842.53669
G1 X119.043 Y141.914 E9842.58316
G1 X119.273 Y141.9 E9844.34348
G1 X93.113 Y115.741 E10126.96537
G1 X93.121 Y115.479 E10128.96784
G1 X93.132 Y115.331 E10130.10159
G1 X93.233 Y114.446 E10136.90638
G1 X120.577 Y141.791 E10432.33078
G1 X120.761 Y141.767 E10433.74834
G1 X121.705 Y141.608 E10441.06155
G1 X121.77 Y141.595 E10441.56795
G1 X121.791 Y141.59 E10441.73286
G1 X93.42 Y113.219 E10748.24735
G1 X93.456 Y112.953 E10750.29796
G1 X93.486 Y112.779 E10751.64684
G1 X93.64 Y112.025 E10757.52589
G1 X122.958 Y141.342 E11074.26617
G1 X123.949 Y141.095 E11082.06847
G1 X124.084 Y141.055 E11083.14411
G1 X93.934 Y110.905 E11408.87855
G1 X94.236 Y109.883 E11417.0198
G1 X94.258 Y109.814 E11417.57307
