;FLAVOR:Marlin
;TIME:3608
;Filament used: 128.732m
;Layer height: 0.2
;MINX:48.5
;MINY:106.2
;MINZ:0.2
;MAXX:185.162
;MAXY:128.8
;MAXZ:8.8
;Generated with Cura_SteamEngine 4.8.0
M140 S60
M105
M190 S60
M104 S210
M105
M109 S210
M82 ;absolute extrusion mode
; Ender 3 Custom Start G-code
G92 E0 ; Reset Extruder
G28 ; Home all axes
G1 Z2.0 F3000 ; Move Z Axis up little to prevent scratching of Heat Bed
G1 X0.1 Y20 Z0.3 F5000.0 ; Move to start position
G1 X0.1 Y200.0 Z0.3 F1500.0 E15 ; Draw the first line
G1 X0.4 Y200.0 Z0.3 F5000.0 ; Move to side a little
G1 X0.4 Y20 Z0.3 F1500.0 E30 ; Draw the second line
G92 E0 ; Reset Extruder
G1 Z2.0 F3000 ; Move Z Axis up little to prevent scratching of Heat Bed
G1 X5 Y20 Z0.3 F5000.0 ; Move over to prevent blob squish
G92 E0
G92 E0
G1 F1500 E-6.5
;LAYER_COUNT:44
;LAYER:0
M107
G0 F6000 X52.804 Y107.087 Z0.2
;TYPE:SKIRT
G1 F1500 E0
G1 F1200 X53.522 Y106.757 E2.01224
G1 X54.269 Y106.502 E4.02224
G1 X55.038 Y106.323 E6.03283
G1 X55.822 Y106.223 E8.04545
G1 X56.417 Y106.2 E9.56173
G1 X172.47 Y106.2 E305.08827
G1 X172.867 Y106.22 E306.10051
G1 X173.387 Y106.2 E307.42565
G1 X175.016 Y106.2 E311.57387
G1 X175.426 Y106.221 E312.61929
G1 X175.531 Y106.21 E312.88814
G1 X175.933 Y106.2 E313.91214
G1 X177.245 Y106.2 E317.25312
G1 X178.034 Y106.24 E319.26487
G1 X178.814 Y106.359 E321.27411
G1 X179.579 Y106.557 E323.28636
G1 X180.319 Y106.831 E325.29578
G1 X181.028 Y107.179 E327.30699
G1 X181.699 Y107.597 E329.3201
G1 X182.323 Y108.08 E331.32951
G1 X182.76 Y108.485 E332.84673
G1 X182.877 Y108.602 E333.26808
G1 X183.407 Y109.188 E335.28012
G1 X183.874 Y109.824 E337.28939
G1 X184.275 Y110.504 E339.29966
G1 X184.605 Y111.222 E341.3119
G1 X184.86 Y111.969 E343.3219
G1 X185.039 Y112.738 E345.33249
G1 X185.139 Y113.522 E347.34511
G1 X185.162 Y114.117 E348.86139
G1 X185.162 Y120.883 E366.09087
G1 X185.122 Y121.672 E368.10262
G1 X185.003 Y122.452 E370.11186
G1 X184.805 Y123.217 E372.12411
G1 X184.531 Y123.957 E374.13353
G1 X184.183 Y124.666 E376.14474
G1 X183.765 Y125.337 E378.15785
G1 X183.282 Y125.961 E380.16726
G1 X182.877 Y126.398 E381.68449
G1 X182.76 Y126.515 E382.10583
G1 X182.174 Y127.045 E384.11787
G1 X181.538 Y127.512 E386.12714
G1 X180.858 Y127.913 E388.13741
G1 X180.14 Y128.243 E390.14965
G1 X179.393 Y128.498 E392.15965
G1 X178.624 Y128.677 E394.17025
G1 X177.84 Y128.777 E396.18286
G1 X177.245 Y128.8 E397.69915
G1 X175.933 Y128.8 E401.04013
G1 X175.536 Y128.78 E402.05236
G1 X175.016 Y128.8 E403.37751
G1 X173.388 Y128.8 E407.52318
G1 X172.978 Y128.779 E408.5686
G1 X172.874 Y128.79 E408.83491
G1 X172.471 Y128.8 E409.86146
G1 X56.417 Y128.8 E705.39055
G1 X55.628 Y128.76 E707.4023
G1 X54.848 Y128.641 E709.41153
G1 X54.083 Y128.443 E711.42378
G1 X53.343 Y128.169 E713.43321
G1 X52.634 Y127.821 E715.44442
G1 X51.963 Y127.403 E717.45753
G1 X51.339 Y126.92 E719.46693
G1 X50.902 Y126.515 E720.98416
G1 X50.785 Y126.398 E721.40551
G1 X50.255 Y125.812 E723.41754
G1 X49.788 Y125.176 E725.42682
G1 X49.387 Y124.496 E727.43709
G1 X49.057 Y123.778 E729.44933
G1 X48.802 Y123.031 E731.45933
G1 X48.623 Y122.262 E733.46992
G1 X48.523 Y121.478 E735.48253
G1 X48.5 Y120.883 E736.99882
G1 X48.5 Y114.117 E754.2283
G1 X48.54 Y113.328 E756.24005
G1 X48.659 Y112.548 E758.24929
G1 X48.857 Y111.783 E760.26154
G1 X49.131 Y111.043 E762.27096
G1 X49.479 Y110.334 E764.28217
G1 X49.897 Y109.663 E766.29528
G1 X50.38 Y109.039 E768.30469
G1 X50.785 Y108.602 E769.82191
G1 X50.902 Y108.485 E770.24326
G1 X51.488 Y107.955 E772.2553
G1 X52.124 Y107.488 E774.26457
G1 X52.804 Y107.087 E776.27484
G0 F6000 X53.043 Y107.414
G1 F1200 X53.745 Y107.099 E778.23419
G1 X54.476 Y106.859 E780.19342
G1 X55.227 Y106.696 E782.15036
G1 X55.992 Y106.612 E784.11012
G1 X56.417 Y106.6 E785.19281
G1 X172.47 Y106.6 E1080.71934
G1 X172.878 Y106.621 E1081.75968
G1 X172.962 Y106.612 E1081.97481
G1 X173.387 Y106.6 E1083.0575
G1 X175.016 Y106.6 E1087.20571
G1 X175.498 Y106.625 E1088.43476
G1 X175.933 Y106.6 E1089.54431
G1 X177.245 Y106.6 E1092.88529
G1 X178.013 Y106.64 E1094.84364
G1 X178.773 Y106.759 E1096.80254
G1 X179.516 Y106.957 E1098.7606
G1 X180.235 Y107.231 E1100.71997
G1 X180.921 Y107.578 E1102.67762
G1 X181.568 Y107.994 E1104.63636
G1 X182.168 Y108.475 E1106.59461
G1 X182.478 Y108.767 E1107.67907
G1 X182.595 Y108.884 E1108.10042
G1 X183.109 Y109.456 E1110.05869
G1 X183.562 Y110.078 E1112.01815
G1 X183.948 Y110.743 E1113.97616
G1 X184.263 Y111.445 E1115.93551
G1 X184.503 Y112.176 E1117.89474
G1 X184.666 Y112.927 E1119.85167
G1 X184.75 Y113.692 E1121.81144
G1 X184.762 Y114.117 E1122.89412
G1 X184.762 Y120.883 E1140.1236
G1 X184.722 Y121.651 E1142.08195
G1 X184.603 Y122.411 E1144.04085
G1 X184.405 Y123.154 E1145.99892
G1 X184.131 Y123.873 E1147.95828
G1 X183.784 Y124.559 E1149.91593
G1 X183.368 Y125.206 E1151.87468
G1 X182.887 Y125.806 E1153.83292
G1 X182.595 Y126.116 E1154.91738
G1 X182.478 Y126.233 E1155.33873
G1 X181.906 Y126.747 E1157.29701
G1 X181.284 Y127.2 E1159.25646
G1 X180.619 Y127.586 E1161.21447
G1 X179.917 Y127.901 E1163.17382
G1 X179.186 Y128.141 E1165.13306
G1 X178.435 Y128.304 E1167.08999
G1 X177.67 Y128.388 E1169.04975
G1 X177.245 Y128.4 E1170.13244
G1 X175.933 Y128.4 E1173.47342
G1 X175.525 Y128.379 E1174.51376
G1 X175.441 Y128.388 E1174.72889
G1 X175.016 Y128.4 E1175.81157
G1 X173.388 Y128.4 E1179.95724
G1 X172.906 Y128.375 E1181.18629
G1 X172.471 Y128.4 E1182.29584
G1 X56.417 Y128.4 E1477.82492
G1 X55.649 Y128.36 E1479.78327
G1 X54.889 Y128.241 E1481.74217
G1 X54.146 Y128.043 E1483.70024
G1 X53.427 Y127.769 E1485.6596
G1 X52.741 Y127.422 E1487.61725
G1 X52.094 Y127.006 E1489.576
G1 X51.494 Y126.525 E1491.53424
G1 X51.184 Y126.233 E1492.6187
G1 X51.067 Y126.116 E1493.04005
G1 X50.553 Y125.544 E1494.99833
G1 X50.1 Y124.922 E1496.95778
G1 X49.714 Y124.257 E1498.91579
G1 X49.399 Y123.555 E1500.87514
G1 X49.159 Y122.824 E1502.83437
G1 X48.996 Y122.073 E1504.79131
G1 X48.912 Y121.308 E1506.75107
G1 X48.9 Y120.883 E1507.83376
G1 X48.9 Y114.117 E1525.06323
G1 X48.94 Y113.349 E1527.02158
G1 X49.059 Y112.589 E1528.98049
G1 X49.257 Y111.846 E1530.93855
G1 X49.531 Y111.127 E1532.89791
G1 X49.878 Y110.441 E1534.85556
G1 X50.294 Y109.794 E1536.81431
G1 X50.775 Y109.194 E1538.77255
G1 X51.067 Y108.884 E1539.85702
G1 X51.184 Y108.767 E1540.27836
G1 X51.756 Y108.253 E1542.23664
G1 X52.378 Y107.8 E1544.19609
G1 X53.043 Y107.414 E1546.1541
G0 F6000 X53.28 Y107.742
G1 F1200 X53.966 Y107.443 E1548.05971
G1 X54.68 Y107.219 E1549.96527
G1 X55.413 Y107.072 E1551.86901
G1 X56.417 Y107 E1554.43224
G1 X172.47 Y107 E1849.95877
G1 X172.995 Y107.028 E1851.29758
G1 X173.387 Y107 E1852.29834
G1 X175.016 Y107 E1856.44655
G1 X175.403 Y107.021 E1857.43349
G1 X175.416 Y107.019 E1857.46698
G1 X175.933 Y107 E1858.7844
G1 X177.245 Y107 E1862.12538
G1 X177.992 Y107.04 E1864.03033
G1 X178.73 Y107.159 E1865.9339
G1 X179.452 Y107.357 E1867.84035
G1 X180.148 Y107.63 E1869.74416
G1 X180.811 Y107.977 E1871.64973
G1 X181.434 Y108.392 E1873.55595
G1 X182.195 Y109.05 E1876.11777
G1 X182.312 Y109.167 E1876.53911
G1 X182.812 Y109.724 E1878.44515
G1 X183.249 Y110.33 E1880.3477
G1 X183.62 Y110.98 E1882.25355
G1 X183.919 Y111.666 E1884.15916
G1 X184.143 Y112.38 E1886.06472
G1 X184.29 Y113.113 E1887.96845
G1 X184.362 Y114.117 E1890.53169
G1 X184.362 Y120.883 E1907.76116
G1 X184.322 Y121.63 E1909.66611
G1 X184.203 Y122.368 E1911.56968
G1 X184.005 Y123.09 E1913.47612
G1 X183.732 Y123.786 E1915.37994
G1 X183.385 Y124.449 E1917.28551
G1 X182.97 Y125.072 E1919.19173
G1 X182.312 Y125.833 E1921.75355
G1 X182.195 Y125.95 E1922.17489
G1 X181.638 Y126.45 E1924.08093
G1 X181.032 Y126.887 E1925.98348
G1 X180.382 Y127.258 E1927.88933
G1 X179.696 Y127.557 E1929.79494
G1 X178.982 Y127.781 E1931.7005
G1 X178.249 Y127.928 E1933.60423
G1 X177.245 Y128 E1936.16746
G1 X175.933 Y128 E1939.50845
G1 X175.408 Y127.972 E1940.84725
G1 X175.016 Y128 E1941.84801
G1 X173.388 Y128 E1945.99368
G1 X173.002 Y127.979 E1946.97807
G1 X172.989 Y127.981 E1947.01157
G1 X172.471 Y128 E1948.33153
G1 X56.417 Y128 E2243.86061
G1 X55.67 Y127.96 E2245.76556
G1 X54.932 Y127.841 E2247.66913
G1 X54.21 Y127.643 E2249.57558
G1 X53.514 Y127.37 E2251.47939
G1 X52.851 Y127.023 E2253.38496
G1 X52.228 Y126.608 E2255.29118
G1 X51.467 Y125.95 E2257.853
G1 X51.35 Y125.833 E2258.27434
G1 X50.85 Y125.276 E2260.18038
G1 X50.413 Y124.67 E2262.08293
G1 X50.042 Y124.02 E2263.98878
G1 X49.743 Y123.334 E2265.89439
G1 X49.519 Y122.62 E2267.79995
G1 X49.372 Y121.887 E2269.70368
G1 X49.3 Y120.883 E2272.26692
G1 X49.3 Y114.117 E2289.49639
G1 X49.34 Y113.37 E2291.40134
G1 X49.459 Y112.632 E2293.30491
G1 X49.657 Y111.91 E2295.21135
G1 X49.93 Y111.214 E2297.11517
G1 X50.277 Y110.551 E2299.02074
G1 X50.692 Y109.928 E2300.92696
G1 X51.35 Y109.167 E2303.48878
G1 X51.467 Y109.05 E2303.91012
G1 X52.024 Y108.55 E2305.81616
G1 X52.63 Y108.113 E2307.71871
G1 X53.28 Y107.742 E2309.62456
G0 F6000 X53.516 Y108.072
G1 F1200 X54.185 Y107.789 E2311.47431
G1 X54.881 Y107.581 E2313.32411
G1 X55.596 Y107.451 E2315.1747
G1 X56.417 Y107.4 E2317.26939
G1 X172.47 Y107.4 E2612.79592
G1 X172.956 Y107.427 E2614.03542
G1 X173.387 Y107.4 E2615.13511
G1 X175.016 Y107.4 E2619.28332
G1 X175.528 Y107.428 E2620.58907
G1 X175.933 Y107.4 E2621.62285
G1 X177.245 Y107.4 E2624.96383
G1 X177.97 Y107.44 E2626.81284
G1 X178.687 Y107.559 E2628.66364
G1 X179.386 Y107.757 E2630.51366
G1 X180.059 Y108.03 E2632.36307
G1 X180.698 Y108.375 E2634.21229
G1 X181.295 Y108.789 E2636.06231
G1 X181.912 Y109.333 E2638.15698
G1 X182.029 Y109.45 E2638.57832
G1 X182.513 Y109.991 E2640.42682
G1 X182.936 Y110.582 E2642.27756
G1 X183.29 Y111.216 E2644.12664
G1 X183.573 Y111.885 E2645.97639
G1 X183.781 Y112.581 E2647.8262
G1 X183.911 Y113.296 E2649.67678
G1 X183.962 Y114.117 E2651.77147
G1 X183.962 Y120.883 E2669.00095
G1 X183.922 Y121.608 E2670.84995
G1 X183.803 Y122.325 E2672.70075
G1 X183.605 Y123.024 E2674.55077
G1 X183.332 Y123.697 E2676.40019
G1 X182.987 Y124.336 E2678.2494
G1 X182.573 Y124.933 E2680.09943
G1 X182.029 Y125.55 E2682.19409
G1 X181.912 Y125.667 E2682.61544
G1 X181.371 Y126.151 E2684.46394
G1 X180.78 Y126.574 E2686.31467
G1 X180.146 Y126.928 E2688.16376
G1 X179.477 Y127.211 E2690.01351
G1 X178.781 Y127.419 E2691.86331
G1 X178.066 Y127.549 E2693.71389
G1 X177.245 Y127.6 E2695.80858
G1 X175.933 Y127.6 E2699.14956
G1 X175.447 Y127.573 E2700.38906
G1 X175.016 Y127.6 E2701.48874
G1 X173.388 Y127.6 E2705.63441
G1 X172.876 Y127.572 E2706.94016
G1 X172.471 Y127.6 E2707.97394
G1 X56.417 Y127.6 E3003.50303
G1 X55.692 Y127.56 E3005.35203
G1 X54.975 Y127.441 E3007.20283
G1 X54.276 Y127.243 E3009.05286
G1 X53.603 Y126.97 E3010.90227
G1 X52.964 Y126.625 E3012.75149
G1 X52.367 Y126.211 E3014.60151
G1 X51.75 Y125.667 E3016.69617
G1 X51.633 Y125.55 E3017.11752
G1 X51.149 Y125.009 E3018.96602
G1 X50.726 Y124.418 E3020.81675
G1 X50.372 Y123.784 E3022.66584
G1 X50.089 Y123.115 E3024.51559
G1 X49.881 Y122.419 E3026.36539
G1 X49.751 Y121.704 E3028.21597
G1 X49.7 Y120.883 E3030.31066
G1 X49.7 Y114.117 E3047.54014
G1 X49.74 Y113.392 E3049.38915
G1 X49.859 Y112.675 E3051.23995
G1 X50.057 Y111.976 E3053.08997
G1 X50.33 Y111.303 E3054.93938
G1 X50.675 Y110.664 E3056.7886
G1 X51.089 Y110.067 E3058.63862
G1 X51.633 Y109.45 E3060.73328
G1 X51.75 Y109.333 E3061.15463
G1 X52.291 Y108.849 E3063.00313
G1 X52.882 Y108.426 E3064.85386
G1 X53.516 Y108.072 E3066.70295
G0 F6000 X53.751 Y108.403
G1 F1200 X54.402 Y108.136 E3068.49472
G1 X55.08 Y107.946 E3070.28775
G1 X55.775 Y107.833 E3072.08079
G1 X56.417 Y107.8 E3073.71779
G1 X172.47 Y107.8 E3369.24433
G1 X172.905 Y107.825 E3370.35387
G1 X173.387 Y107.8 E3371.58292
G1 X175.016 Y107.8 E3375.73114
G1 X175.428 Y107.823 E3376.78192
G1 X175.933 Y107.8 E3378.06923
G1 X177.245 Y107.8 E3381.41021
G1 X177.948 Y107.84 E3383.20328
G1 X178.642 Y107.959 E3384.99633
G1 X179.317 Y108.157 E3386.78762
G1 X179.966 Y108.429 E3388.57957
G1 X180.58 Y108.774 E3390.37302
G1 X181.151 Y109.185 E3392.16456
G1 X181.629 Y109.616 E3393.80352
G1 X181.746 Y109.733 E3394.22487
G1 X182.215 Y110.258 E3396.01753
G1 X182.621 Y110.833 E3397.80997
G1 X182.959 Y111.451 E3399.60369
G1 X183.226 Y112.102 E3401.39546
G1 X183.416 Y112.78 E3403.18849
G1 X183.529 Y113.475 E3404.98153
G1 X183.562 Y114.117 E3406.61853
G1 X183.562 Y120.883 E3423.84801
G1 X183.522 Y121.586 E3425.64108
G1 X183.403 Y122.28 E3427.43413
G1 X183.205 Y122.955 E3429.22542
G1 X182.933 Y123.604 E3431.01737
G1 X182.588 Y124.218 E3432.81082
G1 X182.177 Y124.789 E3434.60236
G1 X181.746 Y125.267 E3436.24132
G1 X181.629 Y125.384 E3436.66267
G1 X181.104 Y125.853 E3438.45533
G1 X180.529 Y126.259 E3440.24777
G1 X179.911 Y126.597 E3442.04149
G1 X179.26 Y126.864 E3443.83326
G1 X178.582 Y127.054 E3445.62629
G1 X177.887 Y127.167 E3447.41933
G1 X177.245 Y127.2 E3449.05633
G1 X175.933 Y127.2 E3452.39731
G1 X175.498 Y127.175 E3453.50686
G1 X175.016 Y127.2 E3454.73591
G1 X173.388 Y127.2 E3458.88158
G1 X172.976 Y127.177 E3459.93236
G1 X172.471 Y127.2 E3461.21967
G1 X56.417 Y127.2 E3756.74875
G1 X55.714 Y127.16 E3758.54182
G1 X55.02 Y127.041 E3760.33487
G1 X54.345 Y126.843 E3762.12617
G1 X53.696 Y126.571 E3763.91811
G1 X53.082 Y126.226 E3765.71156
G1 X52.511 Y125.815 E3767.5031
G1 X52.033 Y125.384 E3769.14206
G1 X51.916 Y125.267 E3769.56341
G1 X51.447 Y124.742 E3771.35608
G1 X51.041 Y124.167 E3773.14852
G1 X50.703 Y123.549 E3774.94224
G1 X50.436 Y122.898 E3776.73401
G1 X50.246 Y122.22 E3778.52703
G1 X50.133 Y121.525 E3780.32007
G1 X50.1 Y120.883 E3781.95707
G1 X50.1 Y114.117 E3799.18655
G1 X50.14 Y113.414 E3800.97962
G1 X50.259 Y112.72 E3802.77267
G1 X50.457 Y112.045 E3804.56397
G1 X50.729 Y111.396 E3806.35591
G1 X51.074 Y110.782 E3808.14936
G1 X51.485 Y110.211 E3809.9409
G1 X51.916 Y109.733 E3811.57986
G1 X52.033 Y109.616 E3812.00121
G1 X52.558 Y109.147 E3813.79388
G1 X53.133 Y108.741 E3815.58632
G1 X53.751 Y108.403 E3817.38004
G0 F6000 X53.983 Y108.735
G1 F1200 X54.617 Y108.486 E3819.11455
G1 X55.276 Y108.313 E3820.84955
G1 X55.95 Y108.219 E3822.58248
G1 X56.417 Y108.2 E3823.77267
G1 X172.47 Y108.2 E4119.29921
G1 X172.882 Y108.224 E4120.35014
G1 X172.92 Y108.219 E4120.44774
G1 X173.387 Y108.2 E4121.63793
G1 X175.016 Y108.2 E4125.78614
G1 X175.546 Y108.231 E4127.13808
G1 X175.933 Y108.2 E4128.12673
G1 X177.245 Y108.2 E4131.46771
G1 X177.925 Y108.24 E4133.20231
G1 X178.595 Y108.359 E4134.93515
G1 X179.247 Y108.556 E4136.66959
G1 X179.871 Y108.828 E4138.40299
G1 X180.459 Y109.172 E4140.13774
G1 X181.003 Y109.582 E4141.8724
G1 X181.346 Y109.899 E4143.06174
G1 X181.463 Y110.016 E4143.48309
G1 X181.916 Y110.525 E4145.21823
G1 X182.305 Y111.083 E4146.95037
G1 X182.627 Y111.683 E4148.68438
G1 X182.876 Y112.317 E4150.4189
G1 X183.049 Y112.976 E4152.15389
G1 X183.143 Y113.65 E4153.88683
G1 X183.162 Y114.117 E4155.07702
G1 X183.162 Y120.883 E4172.3065
G1 X183.122 Y121.563 E4174.0411
G1 X183.003 Y122.233 E4175.77394
G1 X182.806 Y122.885 E4177.50837
G1 X182.534 Y123.509 E4179.24178
G1 X182.19 Y124.097 E4180.97653
G1 X181.78 Y124.641 E4182.71119
G1 X181.463 Y124.984 E4183.90053
G1 X181.346 Y125.101 E4184.32188
G1 X180.837 Y125.554 E4186.05702
G1 X180.279 Y125.943 E4187.78916
G1 X179.679 Y126.265 E4189.52317
G1 X179.045 Y126.514 E4191.25769
G1 X178.386 Y126.687 E4192.99268
G1 X177.712 Y126.781 E4194.72562
G1 X177.245 Y126.8 E4195.91581
G1 X175.933 Y126.8 E4199.25679
G1 X175.521 Y126.776 E4200.30771
G1 X175.483 Y126.781 E4200.40532
G1 X175.016 Y126.8 E4201.5955
G1 X173.388 Y126.8 E4205.74117
G1 X172.858 Y126.769 E4207.09311
G1 X172.471 Y126.8 E4208.08176
G1 X56.417 Y126.8 E4503.61084
G1 X55.737 Y126.76 E4505.34544
G1 X55.067 Y126.641 E4507.07828
G1 X54.415 Y126.444 E4508.81272
G1 X53.791 Y126.172 E4510.54612
G1 X53.203 Y125.828 E4512.28087
G1 X52.659 Y125.418 E4514.01554
G1 X52.316 Y125.101 E4515.20488
G1 X52.199 Y124.984 E4515.62622
G1 X51.746 Y124.475 E4517.36137
G1 X51.357 Y123.917 E4519.09351
G1 X51.035 Y123.317 E4520.82751
G1 X50.786 Y122.683 E4522.56203
G1 X50.613 Y122.024 E4524.29702
G1 X50.519 Y121.35 E4526.02996
G1 X50.5 Y120.883 E4527.22015
G1 X50.5 Y114.117 E4544.44963
G1 X50.54 Y113.437 E4546.18423
G1 X50.659 Y112.767 E4547.91707
G1 X50.856 Y112.115 E4549.65151
