;FLAVOR:Marlin
;TIME:6249
;Filament used: 136.256m
;Layer height: 0.2
;MINX:97.83
;MINY:97.83
;MINZ:0.2
;MAXX:137.162
;MAXY:137.169
;MAXZ:75.2
;Generated with Cura_SteamEngine 4.8.0
M140 S50
M105
M190 S50
M104 S190
M105
M109 S190
M82 ;absolute extrusion mode
; Ender 3 Custom Start G-code
G92 E0 ; Reset Extruder
G28 ; Home all axes
G1 Z2.0 F3000 ; Move Z Axis up little to prevent scratching of Heat Bed
G1 X0.1 Y20 Z0.3 F5000.0 ; Move to start position
G1 X0.1 Y200.0 Z0.3 F1500.0 E15 ; Draw the first line
G1 X0.4 Y200.0 Z0.3 F5000.0 ; Move to side a little
G1 X0.4 Y20 Z0.3 F1500.0 E30 ; Draw the second line
G92 E0 ; Reset Extruder
G1 Z2.0 F3000 ; Move Z Axis up little to prevent scratching of Heat Bed
G1 X5 Y20 Z0.3 F5000.0 ; Move over to prevent blob squish
G92 E0
G92 E0
G1 F1500 E-6
;LAYER_COUNT:356
;LAYER:0
M107
M204 S500
M205 X8 Y8
G1 F300 Z1
G0 F6000 X103.601 Y103.58 Z1
;TYPE:SKIRT
G1 F300 Z0.2
G1 F1500 E0
G1 F1200 X103.915 Y103.275 E1.11471
G1 X104.246 Y102.965 E2.26953
G1 X104.473 Y102.762 E3.04501
G1 X104.795 Y102.485 E4.12663
G1 X105.08 Y102.251 E5.06566
G1 X105.477 Y101.937 E6.3546
G1 X106.043 Y101.518 E8.14787
G1 X106.549 Y101.168 E9.7146
G1 X107.18 Y100.763 E11.62392
G1 X107.783 Y100.404 E13.41098
G1 X108.234 Y100.15 E14.72906
G1 X108.474 Y100.022 E15.4217
G1 X109.089 Y99.718 E17.16867
G1 X109.337 Y99.605 E17.86266
G1 X109.664 Y99.463 E18.77048
G1 X109.887 Y99.37 E19.38575
G1 X110.23 Y99.233 E20.32629
G1 X110.854 Y98.997 E22.02514
G1 X111.255 Y98.854 E23.10926
G1 X111.518 Y98.766 E23.81548
G1 X112.179 Y98.568 E25.5726
G1 X112.66 Y98.44 E26.84009
G1 X113.338 Y98.282 E28.61286
G1 X114.055 Y98.139 E30.47464
G1 X114.611 Y98.043 E31.91144
G1 X114.884 Y98.003 E32.61405
G1 X115.518 Y97.929 E34.23947
G1 X115.632 Y97.919 E34.53089
G1 X115.984 Y97.894 E35.42951
G1 X116.777 Y97.85 E37.45197
G1 X117.164 Y97.835 E38.4382
G1 X117.412 Y97.83 E39.06985
G1 X118.103 Y97.838 E40.82959
G1 X118.501 Y97.855 E41.84401
G1 X118.795 Y97.872 E42.59393
G1 X119.025 Y97.888 E43.18103
G1 X119.561 Y97.938 E44.55187
G1 X119.704 Y97.955 E44.91858
G1 X120.029 Y97.999 E45.75374
G1 X120.766 Y98.109 E47.65128
G1 X121.306 Y98.203 E49.04706
G1 X121.6 Y98.262 E49.81065
G1 X122.171 Y98.392 E51.3019
G1 X122.358 Y98.44 E51.79353
G1 X122.716 Y98.539 E52.73938
G1 X123.327 Y98.718 E54.36067
G1 X123.78 Y98.861 E55.57034
G1 X124.106 Y98.972 E56.4473
G1 X124.677 Y99.185 E57.99921
G1 X124.843 Y99.252 E58.45505
G1 X125.246 Y99.424 E59.57085
G1 X125.632 Y99.598 E60.64904
G1 X125.995 Y99.769 E61.67084
G1 X126.534 Y100.036 E63.20256
G1 X126.942 Y100.249 E64.37459
G1 X127.117 Y100.345 E64.88287
G1 X127.664 Y100.666 E66.49793
G1 X128.159 Y100.976 E67.98522
G1 X128.751 Y101.374 E69.80175
G1 X129.241 Y101.727 E71.3396
G1 X129.831 Y102.184 E73.24001
G1 X130.334 Y102.601 E74.90382
G1 X130.706 Y102.923 E76.1567
G1 X130.922 Y103.119 E76.89943
G1 X131.42 Y103.601 E78.66429
G1 X131.725 Y103.915 E79.77899
G1 X132.035 Y104.246 E80.93382
G1 X132.238 Y104.473 E81.7093
G1 X132.515 Y104.795 E82.79091
G1 X132.749 Y105.08 E83.72994
G1 X133.063 Y105.477 E85.01889
G1 X133.482 Y106.043 E86.81215
G1 X133.832 Y106.549 E88.37888
G1 X134.236 Y107.178 E90.28255
G1 X134.588 Y107.769 E92.03423
G1 X134.833 Y108.204 E93.30556
G1 X134.968 Y108.456 E94.03355
G1 X135.282 Y109.089 E95.8329
G1 X135.395 Y109.337 E96.52689
G1 X135.537 Y109.664 E97.43471
G1 X135.63 Y109.887 E98.04998
G1 X135.767 Y110.23 E98.99052
G1 X136.003 Y110.854 E100.68937
G1 X136.142 Y111.243 E101.74129
G1 X136.23 Y111.505 E102.4451
G1 X136.438 Y112.199 E104.29002
G1 X136.565 Y112.68 E105.55685
G1 X136.714 Y113.325 E107.24259
G1 X136.855 Y114.028 E109.06841
G1 X136.949 Y114.567 E110.46168
G1 X136.992 Y114.855 E111.2032
G1 X137.069 Y115.494 E112.84217
G1 X137.104 Y115.953 E114.0144
G1 X137.146 Y116.703 E115.92725
G1 X137.162 Y117.435 E117.79172
G1 X137.155 Y118.094 E119.46994
G1 X137.137 Y118.619 E120.80763
G1 X137.12 Y118.91 E121.54992
G1 X137.064 Y119.549 E123.18335
G1 X137.045 Y119.711 E123.59871
G1 X136.997 Y120.073 E124.5286
G1 X136.892 Y120.768 E126.31849
G1 X136.803 Y121.276 E127.63181
G1 X136.741 Y121.587 E128.43934
G1 X136.607 Y122.172 E129.96762
G1 X136.56 Y122.355 E130.44875
G1 X136.462 Y122.714 E131.39638
G1 X136.282 Y123.328 E133.02572
G1 X136.142 Y123.769 E134.20395
G1 X136.031 Y124.096 E135.08331
G1 X135.807 Y124.698 E136.71898
G1 X135.74 Y124.863 E137.17247
G1 X135.583 Y125.231 E138.19129
G1 X135.411 Y125.614 E139.26043
G1 X135.229 Y125.998 E140.34255
G1 X134.964 Y126.532 E141.8606
G1 X134.784 Y126.879 E142.85604
G1 X134.686 Y127.06 E143.38017
G1 X134.338 Y127.658 E145.14205
G1 X134.027 Y128.155 E146.63501
G1 X133.626 Y128.752 E148.46637
G1 X133.275 Y129.239 E149.99504
G1 X132.822 Y129.824 E151.87915
G1 X132.402 Y130.331 E153.55568
G1 X132.111 Y130.669 E154.69143
G1 X131.808 Y131 E155.83414
G1 X131.411 Y131.408 E157.28379
G1 X131.098 Y131.713 E158.39667
G1 X130.754 Y132.035 E159.59655
G1 X130.527 Y132.238 E160.37203
G1 X130.192 Y132.526 E161.49701
G1 X129.927 Y132.742 E162.36759
G1 X129.528 Y133.058 E163.66369
G1 X128.957 Y133.482 E165.47477
G1 X128.451 Y133.832 E167.0415
G1 X127.82 Y134.237 E168.95082
G1 X127.217 Y134.596 E170.73788
G1 X126.754 Y134.857 E172.09133
G1 X126.517 Y134.983 E172.77484
G1 X125.92 Y135.277 E174.46943
G1 X125.668 Y135.392 E175.17481
G1 X125.374 Y135.521 E175.99237
G1 X125.151 Y135.615 E176.60862
G1 X124.766 Y135.769 E177.66454
G1 X124.144 Y136.004 E179.35773
G1 X123.735 Y136.15 E180.4636
G1 X123.471 Y136.238 E181.17224
G1 X122.821 Y136.432 E182.8996
G1 X122.34 Y136.56 E184.16709
G1 X121.662 Y136.718 E185.93986
G1 X120.945 Y136.861 E187.80164
G1 X120.383 Y136.958 E189.25392
G1 X120.109 Y136.998 E189.95906
G1 X119.468 Y137.072 E191.60219
G1 X119.029 Y137.105 E192.72325
G1 X118.223 Y137.15 E194.77891
G1 X117.816 Y137.165 E195.81603
G1 X117.602 Y137.169 E196.36107
G1 X117.163 Y137.169 E197.47897
G1 X116.854 Y137.16 E198.26617
G1 X116.438 Y137.142 E199.3265
G1 X115.881 Y137.103 E200.74836
G1 X115.563 Y137.073 E201.56173
G1 X114.976 Y137.002 E203.06741
G1 X114.237 Y136.892 E204.96999
G1 X113.686 Y136.796 E206.39424
G1 X113.393 Y136.737 E207.15533
G1 X112.79 Y136.597 E208.7317
G1 X112.602 Y136.548 E209.22643
G1 X112.295 Y136.464 E210.03694
G1 X111.685 Y136.286 E211.65507
G1 X111.22 Y136.139 E212.89695
G1 X110.894 Y136.028 E213.7739
G1 X110.323 Y135.815 E215.32581
G1 X110.157 Y135.748 E215.78166
G1 X109.763 Y135.581 E216.87138
G1 X109.376 Y135.407 E217.95189
G1 X108.99 Y135.224 E219.0397
G1 X108.453 Y134.957 E220.56687
G1 X108.064 Y134.753 E221.6854
G1 X107.887 Y134.656 E222.19937
G1 X107.34 Y134.336 E223.81314
G1 X106.846 Y134.027 E225.29692
G1 X106.246 Y133.624 E227.13747
G1 X105.755 Y133.27 E228.67887
G1 X105.169 Y132.817 E230.56499
G1 X104.667 Y132.401 E232.22521
G1 X104.294 Y132.077 E233.48335
G1 X104.078 Y131.881 E234.22608
G1 X103.583 Y131.403 E235.97837
G1 X103.269 Y131.08 E237.12548
G1 X102.943 Y130.729 E238.34534
G1 X102.747 Y130.509 E239.09565
G1 X102.524 Y130.251 E239.96404
G1 X102.257 Y129.926 E241.03512
G1 X101.944 Y129.531 E242.31849
G1 X101.521 Y128.96 E244.12805
G1 X101.17 Y128.453 E245.69832
G1 X100.759 Y127.814 E247.63305
G1 X100.401 Y127.212 E249.41662
G1 X100.15 Y126.766 E250.71985
G1 X100.022 Y126.526 E251.41249
G1 X99.718 Y125.911 E253.15946
G1 X99.605 Y125.663 E253.85345
G1 X99.463 Y125.336 E254.76128
G1 X99.37 Y125.113 E255.37654
G1 X99.232 Y124.766 E256.32749
G1 X98.994 Y124.136 E258.04243
G1 X98.853 Y123.74 E259.11285
G1 X98.767 Y123.483 E259.80297
G1 X98.568 Y122.821 E261.56325
G1 X98.44 Y122.34 E262.83074
G1 X98.282 Y121.662 E264.60351
G1 X98.139 Y120.945 E266.4653
G1 X98.043 Y120.389 E267.90209
G1 X98.003 Y120.116 E268.6047
G1 X97.929 Y119.482 E270.23013
G1 X97.894 Y119.018 E271.41505
G1 X97.85 Y118.227 E273.43243
G1 X97.835 Y117.821 E274.467
G1 X97.83 Y117.553 E275.14958
G1 X97.839 Y116.856 E276.92462
G1 X97.856 Y116.476 E277.89325
G1 X97.874 Y116.168 E278.67891
G1 X97.891 Y115.935 E279.27381
G1 X97.933 Y115.486 E280.42217
G1 X97.949 Y115.346 E280.781
G1 X97.999 Y114.969 E281.74943
G1 X98.112 Y114.213 E283.69596
G1 X98.203 Y113.689 E285.05028
G1 X98.258 Y113.413 E285.76693
G1 X98.409 Y112.761 E287.47118
G1 X98.458 Y112.575 E287.96098
G1 X98.541 Y112.275 E288.75363
G1 X98.725 Y111.649 E290.41516
G1 X98.86 Y111.222 E291.55555
G1 X98.965 Y110.912 E292.38902
G1 X99.214 Y110.25 E294.19009
G1 X99.282 Y110.085 E294.64454
G1 X99.42 Y109.763 E295.53664
G1 X99.595 Y109.374 E296.62284
G1 X99.767 Y109.011 E297.64573
G1 X100.037 Y108.465 E299.19682
G1 X100.262 Y108.033 E300.43716
G1 X100.354 Y107.866 E300.92269
G1 X100.663 Y107.341 E302.47396
G1 X100.972 Y106.847 E303.95775
G1 X101.375 Y106.247 E305.79829
G1 X101.729 Y105.756 E307.33969
G1 X102.184 Y105.169 E309.23095
G1 X102.601 Y104.666 E310.89475
G1 X102.923 Y104.294 E312.14763
G1 X103.119 Y104.078 E312.89036
G1 X103.601 Y103.58 E314.65522
G0 F6000 X103.879 Y103.866
G1 F1200 X104.193 Y103.561 E315.76993
G1 X104.513 Y103.264 E316.88169
G1 X104.74 Y103.061 E317.65717
G1 X105.053 Y102.79 E318.71145
G1 X105.328 Y102.565 E319.61626
G1 X105.725 Y102.251 E320.9052
G1 X106.271 Y101.847 E322.63481
G1 X106.777 Y101.497 E324.20153
G1 X107.384 Y101.107 E326.0388
G1 X107.987 Y100.748 E327.82585
G1 X108.422 Y100.503 E329.09718
G1 X108.662 Y100.375 E329.78982
G1 X109.255 Y100.082 E331.47416
G1 X109.503 Y99.969 E332.16815
G1 X109.818 Y99.832 E333.04287
G1 X110.041 Y99.739 E333.65814
G1 X110.371 Y99.607 E334.56321
G1 X110.995 Y99.371 E336.26207
G1 X111.382 Y99.234 E337.30748
G1 X111.645 Y99.146 E338.0137
G1 X112.282 Y98.954 E339.70789
G1 X112.763 Y98.826 E340.97538
G1 X113.416 Y98.675 E342.68211
G1 X114.133 Y98.532 E344.54389
G1 X114.669 Y98.439 E345.9292
G1 X114.942 Y98.399 E346.63181
G1 X115.553 Y98.328 E348.19817
G1 X116.006 Y98.293 E349.35517
G1 X116.799 Y98.249 E351.37763
G1 X117.172 Y98.235 E352.32814
G1 X117.42 Y98.23 E352.95979
G1 X118.086 Y98.238 E354.65587
G1 X118.484 Y98.255 E355.67029
G1 X118.768 Y98.271 E356.39464
G1 X118.998 Y98.287 E356.98175
G1 X119.513 Y98.335 E358.29887
G1 X119.656 Y98.352 E358.66558
G1 X119.97 Y98.394 E359.47229
G1 X120.707 Y98.504 E361.36984
G1 X121.228 Y98.595 E362.71664
G1 X121.522 Y98.654 E363.48023
G1 X122.071 Y98.78 E364.91459
G1 X122.258 Y98.828 E365.40622
G1 X122.603 Y98.923 E366.31746
G1 X123.214 Y99.102 E367.93875
G1 X123.651 Y99.24 E369.10573
G1 X123.977 Y99.351 E369.98268
G1 X124.527 Y99.555 E371.47648
G1 X124.693 Y99.622 E371.93233
G1 X125.082 Y99.788 E373.00933
G1 X125.468 Y99.962 E374.08753
G1 X125.817 Y100.128 E375.07166
G1 X126.356 Y100.395 E376.60338
G1 X126.749 Y100.6 E377.73212
G1 X126.924 Y100.696 E378.2404
G1 X127.452 Y101.005 E379.79827
G1 X127.947 Y101.315 E381.28556
G1 X128.517 Y101.698 E383.03429
G1 X129.007 Y102.051 E384.57213
G1 X129.576 Y102.492 E386.40532
G1 X130.079 Y102.909 E388.06912
G1 X130.437 Y103.219 E389.27505
G1 X130.653 Y103.415 E390.01778
G1 X131.134 Y103.879 E391.71966
G1 X131.439 Y104.193 E392.83437
G1 X131.736 Y104.513 E393.94613
G1 X131.939 Y104.74 E394.7216
G1 X132.21 Y105.053 E395.77589
G1 X132.435 Y105.328 E396.6807
G1 X132.749 Y105.725 E397.96964
G1 X133.153 Y106.271 E399.69924
G1 X133.503 Y106.777 E401.26597
G1 X133.892 Y107.383 E403.09972
G1 X134.244 Y107.974 E404.8514
G1 X134.481 Y108.392 E406.07502
G1 X134.616 Y108.644 E406.80301
G1 X134.918 Y109.255 E408.53859
G1 X135.031 Y109.503 E409.23258
G1 X135.168 Y109.818 E410.10731
G1 X135.261 Y110.041 E410.72258
G1 X135.393 Y110.371 E411.62765
G1 X135.629 Y110.995 E413.3265
G1 X135.762 Y111.37 E414.33971
G1 X135.85 Y111.632 E415.04351
G1 X136.051 Y112.301 E416.82234
G1 X136.178 Y112.782 E418.08917
G1 X136.322 Y113.403 E419.71249
G1 X136.463 Y114.106 E421.53832
G1 X136.554 Y114.626 E422.88261
G1 X136.597 Y114.914 E423.62413
G1 X136.67 Y115.53 E425.20374
G1 X136.704 Y115.975 E426.34022
G1 X136.746 Y116.725 E428.25307
G1 X136.762 Y117.431 E430.05135
G1 X136.755 Y118.09 E431.72957
G1 X136.738 Y118.595 E433.01627
G1 X136.721 Y118.886 E433.75856
G1 X136.667 Y119.503 E435.33575
G1 X136.648 Y119.665 E435.7511
G1 X136.601 Y120.013 E436.64532
G1 X136.496 Y120.708 E438.43521
G1 X136.41 Y121.197 E439.69955
G1 X136.348 Y121.508 E440.50709
G1 X136.22 Y122.073 E441.98231
G1 X136.173 Y122.256 E442.46344
G1 X136.078 Y122.601 E443.37467
G1 X135.898 Y123.215 E445.00401
G1 X135.763 Y123.64 E446.13955
G1 X135.652 Y123.967 E447.01892
G1 X135.436 Y124.548 E448.59736
G1 X135.369 Y124.713 E449.05085
G1 X135.218 Y125.068 E450.03323
G1 X135.046 Y125.451 E451.10236
G1 X134.871 Y125.82 E452.14233
G1 X134.606 Y126.354 E453.66039
G1 X134.432 Y126.689 E454.62166
G1 X134.334 Y126.87 E455.1458
G1 X133.999 Y127.446 E456.84261
G1 X133.688 Y127.943 E458.33557
G1 X133.301 Y128.518 E460.10054
G1 X132.95 Y129.005 E461.62922
G1 X132.514 Y129.569 E463.44454
G1 X132.094 Y130.076 E465.12106
G1 X131.812 Y130.404 E466.22257
G1 X131.515 Y130.729 E467.34369
G1 X131.132 Y131.122 E468.7411
G1 X130.819 Y131.427 E469.85399
G1 X130.487 Y131.736 E471.00893
G1 X130.26 Y131.939 E471.78441
G1 X129.934 Y132.22 E472.88039
G1 X129.679 Y132.429 E473.71998
G1 X129.28 Y132.745 E475.01608
G1 X128.729 Y133.153 E476.76198
G1 X128.223 Y133.503 E478.32871
G1 X127.616 Y133.893 E480.16597
G1 X127.013 Y134.252 E481.95303
G1 X126.566 Y134.503 E483.25848
G1 X126.329 Y134.629 E483.94199
G1 X125.754 Y134.913 E485.57507
G1 X125.502 Y135.028 E486.28045
G1 X125.218 Y135.153 E487.0706
G1 X124.995 Y135.247 E487.68685
G1 X124.624 Y135.395 E488.704
G1 X124.002 Y135.63 E490.39718
G1 X123.608 Y135.77 E491.46195
G1 X123.344 Y135.858 E492.17059
G1 X122.718 Y136.046 E493.83502
G1 X122.237 Y136.174 E495.1025
G1 X121.584 Y136.325 E496.80923
G1 X120.867 Y136.468 E498.67102
G1 X120.325 Y136.562 E500.07181
G1 X120.051 Y136.602 E500.77694
G1 X119.434 Y136.674 E502.35878
G1 X119.007 Y136.706 E503.44918
G1 X118.201 Y136.751 E505.50484
G1 X117.808 Y136.765 E506.50624
G1 X117.594 Y136.769 E507.05128
G1 X117.169 Y136.769 E508.13353
G1 X116.872 Y136.76 E508.89018
G1 X116.456 Y136.742 E509.95051
G1 X115.918 Y136.705 E511.32375
G1 X115.6 Y136.675 E512.13713
G1 X115.035 Y136.606 E513.58658
G1 X114.296 Y136.496 E515.48916
G1 X113.765 Y136.403 E516.86192
G1 X113.472 Y136.344 E517.62302
G1 X112.891 Y136.21 E519.14136
G1 X112.703 Y136.161 E519.63609
G1 X112.407 Y136.08 E520.41756
G1 X111.797 Y135.902 E522.0357
G1 X111.349 Y135.76 E523.23246
G1 X111.023 Y135.649 E524.10941
G1 X110.473 Y135.445 E525.60321
G1 X110.307 Y135.378 E526.05906
G1 X109.927 Y135.216 E527.11099
G1 X109.54 Y135.042 E528.1915
G1 X109.168 Y134.866 E529.23946
G1 X108.631 Y134.599 E530.76662
G1 X108.256 Y134.403 E531.84412
G1 X108.079 Y134.306 E532.35809
G1 X107.552 Y133.997 E533.91376
G1 X107.058 Y133.688 E535.39755
G1 X106.48 Y133.299 E537.1717
G1 X105.989 Y132.945 E538.71311
G1 X105.424 Y132.509 E540.53045
G1 X104.922 Y132.093 E542.19066
G1 X104.563 Y131.781 E543.40185
G1 X104.347 Y131.585 E544.14458
G1 X103.87 Y131.124 E545.83382
G1 X103.556 Y130.801 E546.98094
G1 X103.241 Y130.463 E548.15748
G1 X103.045 Y130.243 E548.90779
G1 X102.83 Y129.994 E549.74552
G1 X102.57 Y129.677 E550.78955
G1 X102.257 Y129.282 E552.07292
G1 X101.85 Y128.733 E553.81321
G1 X101.499 Y128.226 E555.38348
G1 X101.103 Y127.61 E557.24828
G1 X100.745 Y127.008 E559.03185
G1 X100.503 Y126.578 E560.28833
G1 X100.375 Y126.338 E560.98098
G1 X100.082 Y125.745 E562.66531
G1 X99.969 Y125.497 E563.3593
G1 X99.832 Y125.182 E564.23403
G1 X99.739 Y124.959 E564.84929
G1 X99.606 Y124.625 E565.76477
G1 X99.368 Y123.995 E567.47971
G1 X99.232 Y123.613 E568.51228
G1 X99.146 Y123.356 E569.20239
G1 X98.954 Y122.718 E570.89902
G1 X98.826 Y122.237 E572.16651
G1 X98.675 Y121.584 E573.87324
G1 X98.532 Y120.867 E575.73502
G1 X98.439 Y120.331 E577.12033
G1 X98.399 Y120.058 E577.82294
G1 X98.328 Y119.447 E579.38931
G1 X98.293 Y118.996 E580.54122
G1 X98.249 Y118.205 E582.5586
G1 X98.235 Y117.814 E583.55491
G1 X98.23 Y117.546 E584.23749
G1 X98.239 Y116.874 E585.94887
G1 X98.256 Y116.494 E586.9175
G1 X98.273 Y116.197 E587.67505
G1 X98.29 Y115.964 E588.26995
G1 X98.331 Y115.531 E589.37751
G1 X98.347 Y115.391 E589.73634
G1 X98.394 Y115.028 E590.66843
