;FLAVOR:Marlin
;TIME:7531
;Filament used: 188.43m
;Layer height: 0.2
;MINX:79.374
;MINY:65.455
;MINZ:0.2
;MAXX:155.626
;MAXY:169.572
;MAXZ:8.8
;Generated with Cura_SteamEngine 4.8.0
M140 S50
M105
M190 S50
M104 S200
M105
M109 S200
M82 ;absolute extrusion mode
; Ender 3 Custom Start G-code
G92 E0 ; Reset Extruder
G28 ; Home all axes
G1 Z2.0 F3000 ; Move Z Axis up little to prevent scratching of Heat Bed
G1 X0.1 Y20 Z0.3 F5000.0 ; Move to start position
G1 X0.1 Y200.0 Z0.3 F1500.0 E15 ; Draw the first line
G1 X0.4 Y200.0 Z0.3 F5000.0 ; Move to side a little
G1 X0.4 Y20 Z0.3 F1500.0 E30 ; Draw the second line
G92 E0 ; Reset Extruder
G1 Z2.0 F3000 ; Move Z Axis up little to prevent scratching of Heat Bed
G1 X5 Y20 Z0.3 F5000.0 ; Move over to prevent blob squish
G92 E0
G92 E0
G1 F1500 E-6
;LAYER_COUNT:40
;LAYER:0
M107
M204 S500
M205 X8 Y8
G1 F300 Z1
G0 F6000 X90.423 Y70.558 Z1
;TYPE:SKIRT
G1 F300 Z0.2
G1 F1500 E0
G1 F1200 X91.018 Y69.855 E2.3453
G1 X91.671 Y69.207 E4.68794
G1 X92.379 Y68.618 E7.03317
G1 X93.135 Y68.092 E9.37843
G1 X93.7 Y67.758 E11.04979
G1 X93.893 Y67.652 E11.61051
G1 X94.719 Y67.244 E13.9565
G1 X95.576 Y66.91 E16.29872
G1 X96.46 Y66.651 E18.64443
G1 X97.061 Y66.521 E20.21026
G1 X97.434 Y66.454 E21.1753
G1 X99.803 Y66.062 E27.28994
G1 X101.149 Y65.81 E30.77705
G1 X101.706 Y65.701 E32.22235
G1 X102.686 Y65.557 E34.74469
G1 X103.186 Y65.507 E36.02428
G1 X104.105 Y65.455 E38.36824
G1 X105.331 Y65.51 E41.49336
G1 X105.818 Y65.562 E42.74055
G1 X107.8 Y65.797 E47.82302
G1 X110.315 Y66.024 E54.25345
G1 X112.852 Y66.18 E60.72607
G1 X115.37 Y66.265 E67.14176
G1 X117.91 Y66.277 E73.60989
G1 X120.421 Y66.219 E80.0058
G1 X122.974 Y66.087 E86.51565
G1 X125.474 Y65.887 E92.90218
G1 X127.99 Y65.614 E99.34673
G1 X128.252 Y65.583 E100.01856
G1 X129.17 Y65.513 E102.36302
G1 X130.185 Y65.528 E104.94797
G1 X130.439 Y65.544 E105.59606
G1 X130.843 Y65.577 E106.62827
G1 X131.972 Y65.693 E109.51838
G1 X132.809 Y65.788 E111.66346
G1 X134.784 Y65.963 E116.71246
G1 X135.759 Y66.039 E119.20281
G1 X136.673 Y66.15 E121.5474
G1 X137.574 Y66.34 E123.89223
G1 X138.833 Y66.748 E127.26239
G1 X139.071 Y66.842 E127.91401
G1 X139.981 Y67.252 E130.45565
G1 X141.006 Y67.774 E133.38478
G1 X141.68 Y68.13 E135.32581
G1 X143.829 Y69.187 E141.42432
G1 X144.439 Y69.478 E143.14537
G1 X145.253 Y69.91 E145.49203
G1 X146.025 Y70.41 E147.83422
G1 X146.752 Y70.976 E150.18041
G1 X147.571 Y71.752 E153.05347
G1 X147.645 Y71.83 E153.32726
G1 X148.169 Y72.425 E155.34622
G1 X148.324 Y72.615 E155.97062
G1 X148.874 Y73.353 E158.31441
G1 X149.358 Y74.136 E160.65848
G1 X149.773 Y74.958 E163.00333
G1 X150.115 Y75.813 E165.34829
G1 X150.307 Y76.419 E166.96706
G1 X150.332 Y76.507 E167.20002
G1 X150.495 Y77.161 E168.91636
G1 X150.55 Y77.415 E169.57816
G1 X150.704 Y78.307 E171.88322
G1 X150.886 Y79.723 E175.51869
G1 X151.175 Y81.784 E180.81833
G1 X151.6 Y84.331 E187.39389
G1 X151.922 Y86.008 E191.74234
G1 X152.101 Y86.895 E194.04661
G1 X152.162 Y87.225 E194.90118
G1 X152.22 Y87.568 E195.78702
G1 X152.66 Y90.464 E203.24626
G1 X153.078 Y92.783 E209.24671
G1 X153.226 Y93.574 E211.29593
G1 X153.495 Y95.055 E215.12897
G1 X153.655 Y95.969 E217.49184
G1 X153.85 Y97.127 E220.48218
G1 X154.003 Y98.073 E222.92245
G1 X154.193 Y99.301 E226.08674
G1 X154.314 Y100.116 E228.18487
G1 X154.474 Y101.247 E231.09361
G1 X154.609 Y102.253 E233.67833
G1 X154.754 Y103.405 E236.63502
G1 X154.839 Y104.12 E238.46858
G1 X154.977 Y105.359 E241.64317
G1 X155.066 Y106.211 E243.82458
G1 X155.159 Y107.182 E246.30853
G1 X155.244 Y108.143 E248.76525
G1 X155.325 Y109.16 E251.36322
G1 X155.391 Y110.091 E253.73994
G1 X155.445 Y110.936 E255.8961
G1 X155.504 Y112.016 E258.6504
G1 X155.536 Y112.728 E260.46532
G1 X155.577 Y113.797 E263.18951
G1 X155.6 Y114.63 E265.31154
G1 X155.617 Y115.554 E267.66488
G1 X155.625 Y116.33 E269.64105
G1 X155.626 Y117.377 E272.30722
G1 X155.62 Y117.945 E273.7537
G1 X155.597 Y119.191 E276.92715
G1 X155.582 Y119.684 E278.18315
G1 X155.54 Y120.774 E280.96087
G1 X155.517 Y121.255 E282.18713
G1 X155.438 Y122.577 E285.55958
G1 X155.405 Y123.037 E286.73397
G1 X155.32 Y124.083 E289.40637
G1 X155.279 Y124.536 E290.56464
G1 X155.157 Y125.727 E293.61336
G1 X155.117 Y126.074 E294.50284
G1 X154.959 Y127.339 E297.74917
G1 X154.927 Y127.573 E298.35059
G1 X154.744 Y128.813 E301.54243
G1 X154.706 Y129.056 E302.16874
G1 X154.498 Y130.269 E305.3027
G1 X154.455 Y130.501 E305.90355
G1 X154.233 Y131.643 E308.86607
G1 X154.18 Y131.9 E309.53428
G1 X153.906 Y133.144 E312.77803
G1 X153.844 Y133.409 E313.47107
G1 X153.57 Y134.517 E316.37756
G1 X153.509 Y134.751 E316.99335
G1 X153.205 Y135.87 E319.94615
G1 X153.13 Y136.133 E320.64257
G1 X152.816 Y137.181 E323.42849
G1 X152.734 Y137.444 E324.13001
G1 X152.395 Y138.477 E326.89855
G1 X152.31 Y138.723 E327.56133
G1 X151.974 Y139.668 E330.11534
G1 X151.881 Y139.921 E330.80174
G1 X151.45 Y141.042 E333.86006
G1 X151.335 Y141.328 E334.64503
G1 X151.01 Y142.105 E336.78975
G1 X150.902 Y142.354 E337.4809
G1 X150.435 Y143.395 E340.38631
G1 X150.32 Y143.643 E341.08243
G1 X149.912 Y144.493 E343.48338
G1 X149.783 Y144.753 E344.22247
G1 X149.328 Y145.638 E346.75651
G1 X149.198 Y145.882 E347.46054
G1 X148.755 Y146.691 E349.80928
G1 X148.609 Y146.95 E350.56639
G1 X148.136 Y147.759 E352.95277
G1 X147.988 Y148.004 E353.68165
G1 X147.479 Y148.823 E356.13718
G1 X147.326 Y149.062 E356.85982
G1 X146.852 Y149.781 E359.0528
G1 X146.69 Y150.02 E359.78805
G1 X146.156 Y150.784 E362.16168
G1 X145.992 Y151.012 E362.87687
G1 X145.527 Y151.641 E364.86877
G1 X145.341 Y151.884 E365.64803
G1 X144.761 Y152.623 E368.04026
G1 X144.576 Y152.853 E368.7919
G1 X144.016 Y153.527 E371.02335
G1 X143.832 Y153.742 E371.74396
G1 X143.29 Y154.36 E373.83718
G1 X143.102 Y154.569 E374.55303
G1 X142.546 Y155.17 E376.63793
G1 X142.323 Y155.404 E377.46106
G1 X141.731 Y156.006 E379.61109
G1 X141.534 Y156.201 E380.31695
G1 X140.962 Y156.753 E382.34118
G1 X140.758 Y156.945 E383.05456
G1 X140.215 Y157.442 E384.92905
G1 X139.994 Y157.638 E385.68126
G1 X139.37 Y158.178 E387.78265
G1 X139.132 Y158.379 E388.57593
G1 X138.434 Y158.948 E390.86912
G1 X138.198 Y159.134 E391.6343
G1 X137.713 Y159.507 E393.19235
G1 X137.484 Y159.679 E393.92167
G1 X136.766 Y160.201 E396.18217
G1 X136.506 Y160.384 E396.99181
G1 X135.37 Y161.159 E400.49368
G1 X133.266 Y162.637 E407.0413
G1 X131.223 Y164.161 E413.53179
G1 X128.725 Y166.151 E421.66463
G1 X128.175 Y166.604 E423.47909
G1 X127.174 Y167.336 E426.63696
G1 X126.825 Y167.561 E427.69436
G1 X126.03 Y168.026 E430.03968
G1 X125.361 Y168.349 E431.93144
G1 X124.926 Y168.541 E433.14226
G1 X124.069 Y168.876 E435.4854
G1 X123.112 Y169.153 E438.02242
G1 X122.857 Y169.214 E438.69009
G1 X121.953 Y169.389 E441.03484
G1 X121.448 Y169.452 E442.33078
G1 X120.889 Y169.508 E443.76139
G1 X119.98 Y169.56 E446.07992
G1 X119.332 Y169.568 E447.73017
G1 X118.644 Y169.567 E449.48215
G1 X116.637 Y169.572 E454.59295
G1 X116.516 Y169.567 E454.90133
G1 X115.655 Y169.567 E457.09385
G1 X114.947 Y169.557 E458.89694
G1 X114.556 Y169.545 E459.89308
G1 X114 Y169.506 E461.3124
G1 X113.8 Y169.487 E461.82399
G1 X112.565 Y169.296 E465.00628
G1 X112.074 Y169.19 E466.28541
G1 X111.184 Y168.957 E468.62815
G1 X110.259 Y168.624 E471.13163
G1 X110.01 Y168.521 E471.81781
G1 X109.176 Y168.133 E474.16016
G1 X108.686 Y167.861 E475.58729
G1 X108.302 Y167.635 E476.72192
G1 X107.529 Y167.134 E479.06763
G1 X106.988 Y166.722 E480.79928
G1 X105.876 Y165.817 E484.45023
G1 X103.871 Y164.229 E490.96333
G1 X101.84 Y162.713 E497.41715
G1 X99.666 Y161.183 E504.18675
G1 X98.441 Y160.347 E507.96337
G1 X98.172 Y160.158 E508.80055
G1 X97.527 Y159.688 E510.83283
G1 X97.297 Y159.515 E511.56571
G1 X96.729 Y159.077 E513.39221
G1 X96.5 Y158.895 E514.13709
G1 X95.88 Y158.389 E516.17497
G1 X95.642 Y158.189 E516.96661
G1 X94.992 Y157.626 E519.15639
G1 X94.779 Y157.437 E519.88153
G1 X94.23 Y156.935 E521.77589
G1 X94.018 Y156.735 E522.51806
G1 X93.457 Y156.193 E524.50445
G1 X93.249 Y155.987 E525.24993
G1 X92.68 Y155.406 E527.32077
G1 X92.482 Y155.198 E528.05204
G1 X91.866 Y154.534 E530.35847
G1 X91.65 Y154.294 E531.1807
G1 X91.157 Y153.729 E533.09017
G1 X90.991 Y153.534 E533.7423
G1 X90.382 Y152.801 E536.16904
G1 X90.188 Y152.56 E536.95687
G1 X89.673 Y151.902 E539.08465
G1 X89.494 Y151.667 E539.8369
G1 X88.974 Y150.963 E542.06564
G1 X88.813 Y150.739 E542.76811
G1 X88.304 Y150.011 E545.03013
G1 X88.137 Y149.765 E545.78727
G1 X87.671 Y149.057 E547.94566
G1 X87.522 Y148.824 E548.64993
G1 X86.977 Y147.947 E551.27929
G1 X86.817 Y147.681 E552.06975
G1 X86.382 Y146.933 E554.2732
G1 X86.249 Y146.698 E554.96081
G1 X85.781 Y145.844 E557.44064
G1 X85.643 Y145.583 E558.19246
G1 X85.205 Y144.728 E560.63876
G1 X85.083 Y144.483 E561.33572
G1 X84.66 Y143.602 E563.82436
G1 X84.541 Y143.345 E564.54556
G1 X84.1 Y142.36 E567.29376
G1 X83.99 Y142.105 E568.00095
G1 X83.638 Y141.26 E570.33196
G1 X83.53 Y140.99 E571.07247
G1 X83.118 Y139.919 E573.99459
G1 X83.025 Y139.667 E574.67861
G1 X82.704 Y138.765 E577.11665
G1 X82.613 Y138.5 E577.83014
G1 X82.253 Y137.397 E580.78473
G1 X82.176 Y137.15 E581.44356
G1 X81.85 Y136.062 E584.33583
G1 X81.774 Y135.796 E585.0403
G1 X81.478 Y134.705 E587.91894
G1 X81.413 Y134.455 E588.57673
G1 X81.137 Y133.33 E591.52647
G1 X81.08 Y133.084 E592.1695
G1 X80.821 Y131.908 E595.23593
G1 X80.767 Y131.647 E595.91463
G1 X80.524 Y130.392 E599.16982
G1 X80.472 Y130.105 E599.91256
G1 X80.286 Y129.004 E602.75596
G1 X80.235 Y128.674 E603.60627
G1 X80.057 Y127.458 E606.73579
G1 X80.013 Y127.127 E607.58609
G1 X79.869 Y125.958 E610.58543
G1 X79.832 Y125.621 E611.44875
G1 X79.706 Y124.37 E614.65051
G1 X79.671 Y123.973 E615.66538
G1 X79.583 Y122.867 E618.49069
G1 X79.548 Y122.355 E619.79753
G1 X79.477 Y121.127 E622.92983
G1 X79.452 Y120.572 E624.34456
G1 X79.415 Y119.565 E626.91059
G1 X79.401 Y119.04 E628.24797
G1 X79.378 Y117.806 E631.39087
G1 X79.374 Y117.254 E632.79656
G1 X79.376 Y116.203 E635.47292
G1 X79.384 Y115.44 E637.41599
G1 X79.402 Y114.491 E639.83303
G1 X79.43 Y113.572 E642.17433
G1 X79.46 Y112.78 E644.19259
G1 X79.507 Y111.754 E646.80802
G1 X79.553 Y110.939 E648.8867
G1 X79.622 Y109.859 E651.6425
G1 X79.678 Y109.106 E653.5653
G1 X79.769 Y107.967 E656.47498
G1 X79.834 Y107.239 E658.33619
G1 X79.953 Y106.017 E661.46271
G1 X80.041 Y105.184 E663.59573
G1 X80.17 Y104.04 E666.52736
G1 X80.255 Y103.322 E668.3685
G1 X80.425 Y101.989 E671.79045
G1 X80.522 Y101.268 E673.64301
G1 X80.705 Y99.981 E676.95329
G1 X80.815 Y99.242 E678.85587
G1 X81.045 Y97.768 E682.6548
G1 X81.137 Y97.206 E684.10497
G1 X81.385 Y95.735 E687.90371
G1 X81.521 Y94.968 E689.88732
G1 X81.769 Y93.595 E693.44021
G1 X81.956 Y92.597 E696.02583
G1 X82.317 Y90.58 E701.24369
G1 X82.694 Y88.118 E707.5862
G1 X82.844 Y87.194 E709.96995
G1 X82.964 Y86.575 E711.57557
G1 X83.137 Y85.803 E713.59021
G1 X83.28 Y85.235 E715.08174
G1 X83.338 Y85.03 E715.62426
G1 X83.503 Y84.503 E717.03049
G1 X83.803 Y83.621 E719.40286
G1 X83.975 Y83.152 E720.67494
G1 X84.049 Y82.964 E721.18943
G1 X84.203 Y82.593 E722.21233
G1 X84.461 Y82.004 E723.84979
G1 X84.684 Y81.526 E725.19295
G1 X84.89 Y81.113 E726.36821
G1 X85.042 Y80.82 E727.20875
G1 X85.565 Y79.848 E730.01949
G1 X86.762 Y77.547 E736.62435
G1 X88.403 Y74.1 E746.346
G1 X88.897 Y73.005 E749.40502
G1 X89.311 Y72.183 E751.74872
G1 X89.796 Y71.4 E754.09413
G1 X90.179 Y70.873 E755.75309
G1 X90.423 Y70.558 E756.76773
G0 F6000 X90.739 Y70.803
G1 F1200 X91.323 Y70.114 E759.06772
G1 X91.966 Y69.48 E761.36719
G1 X92.662 Y68.904 E763.66776
G1 X93.407 Y68.393 E765.96827
G1 X93.893 Y68.109 E767.40168
G1 X94.086 Y68.003 E767.96239
G1 X94.896 Y67.603 E770.26284
G1 X95.738 Y67.277 E772.56207
G1 X96.606 Y67.027 E774.86227
G1 X97.134 Y66.914 E776.23725
G1 X97.499 Y66.849 E777.18134
G1 X99.899 Y66.452 E783.37594
G1 X101.18 Y66.212 E786.69474
G1 X101.783 Y66.094 E788.25939
G1 X102.726 Y65.955 E790.68667
G1 X103.226 Y65.905 E791.96626
G1 X104.128 Y65.855 E794.26671
G1 X105.29 Y65.908 E797.22879
G1 X105.771 Y65.959 E798.46052
G1 X107.753 Y66.194 E803.54299
G1 X110.29 Y66.423 E810.02967
G1 X112.849 Y66.58 E816.55836
G1 X115.355 Y66.665 E822.94351
G1 X117.917 Y66.677 E829.46766
G1 X120.45 Y66.618 E835.91964
G1 X122.957 Y66.489 E842.31211
G1 X125.513 Y66.285 E848.84161
G1 X128.084 Y66.006 E855.42704
G1 X128.3 Y65.98 E855.98105
G1 X129.2 Y65.912 E858.27942
G1 X130.16 Y65.927 E860.72434
G1 X130.414 Y65.943 E861.37242
G1 X130.803 Y65.975 E862.36635
G1 X131.927 Y66.09 E865.24353
G1 X132.772 Y66.186 E867.40915
G1 X134.802 Y66.366 E872.59879
G1 X135.728 Y66.438 E874.96394
G1 X136.625 Y66.547 E877.26494
G1 X137.508 Y66.736 E879.56441
G1 X138.686 Y67.12 E882.71952
G1 X138.924 Y67.214 E883.37114
G1 X139.8 Y67.609 E885.81814
G1 X140.819 Y68.128 E888.73019
G1 X141.481 Y68.477 E890.63587
G1 X143.659 Y69.549 E896.81751
G1 X144.267 Y69.839 E898.53287
G1 X145.065 Y70.263 E900.83399
G1 X145.821 Y70.756 E903.1323
G1 X146.532 Y71.314 E905.43385
G1 X147.281 Y72.028 E908.06893
G1 X147.355 Y72.106 E908.34272
G1 X147.859 Y72.678 E910.28407
G1 X148.014 Y72.868 E910.90847
G1 X148.553 Y73.593 E913.20898
G1 X149.026 Y74.362 E915.508
G1 X149.429 Y75.17 E917.80728
G1 X149.76 Y76.011 E920.10877
G1 X149.922 Y76.529 E921.49085
G1 X149.947 Y76.617 E921.72381
G1 X150.104 Y77.245 E923.37222
G1 X150.159 Y77.499 E924.03401
G1 X150.307 Y78.358 E926.25367
G1 X150.488 Y79.764 E929.86356
G1 X150.777 Y81.828 E935.17077
G1 X151.211 Y84.426 E941.87819
G1 X151.541 Y86.146 E946.33802
G1 X151.708 Y86.974 E948.48897
G1 X151.767 Y87.291 E949.31006
G1 X151.853 Y87.807 E950.64217
G1 X152.27 Y90.558 E957.72756
G1 X152.672 Y92.788 E963.49774
G1 X152.842 Y93.7 E965.86013
G1 X153.101 Y95.123 E969.5433
G1 X153.26 Y96.036 E971.90323
G1 X153.455 Y97.191 E974.88604
G1 X153.608 Y98.134 E977.31877
G1 X153.798 Y99.36 E980.47802
G1 X153.918 Y100.172 E982.56822
G1 X154.078 Y101.3 E985.4694
G1 X154.212 Y102.303 E988.04621
G1 X154.357 Y103.453 E990.99785
G1 X154.442 Y104.165 E992.82382
G1 X154.58 Y105.4 E995.98829
G1 X154.667 Y106.25 E998.16411
G1 X154.761 Y107.218 E1000.64069
G1 X154.846 Y108.174 E1003.08473
G1 X154.926 Y109.188 E1005.67488
G1 X154.992 Y110.117 E1008.04653
G1 X155.046 Y110.958 E1010.19253
G1 X155.104 Y112.034 E1012.93651
G1 X155.137 Y112.744 E1014.74647
G1 X155.177 Y113.808 E1017.45783
G1 X155.2 Y114.637 E1019.56968
G1 X155.217 Y115.559 E1021.91793
G1 X155.225 Y116.33 E1023.88137
G1 X155.226 Y117.374 E1026.5399
G1 X155.22 Y117.938 E1027.97619
G1 X155.197 Y119.18 E1031.13946
G1 X155.182 Y119.668 E1032.38273
G1 X155.14 Y120.756 E1035.15536
G1 X155.117 Y121.231 E1036.36636
G1 X155.039 Y122.549 E1039.72849
G1 X155.006 Y123.005 E1040.89272
G1 X154.922 Y124.046 E1043.55222
G1 X154.881 Y124.496 E1044.70288
G1 X154.759 Y125.683 E1047.74148
G1 X154.72 Y126.024 E1048.61549
G1 X154.562 Y127.289 E1051.86181
G1 X154.532 Y127.514 E1052.43984
G1 X154.349 Y128.754 E1055.63168
G1 X154.311 Y128.989 E1056.23787
G1 X154.103 Y130.202 E1059.37184
G1 X154.063 Y130.424 E1059.94626
G1 X153.841 Y131.566 E1062.90877
G1 X153.789 Y131.814 E1063.55403
G1 X153.515 Y133.058 E1066.79778
G1 X153.456 Y133.313 E1067.46429
G1 X153.182 Y134.421 E1070.37078
G1 X153.123 Y134.646 E1070.96311
G1 X152.819 Y135.765 E1073.9159
G1 X152.747 Y136.019 E1074.58819
G1 X152.433 Y137.067 E1077.37412
G1 X152.353 Y137.319 E1078.04739
G1 X152.014 Y138.352 E1080.81593
G1 X151.934 Y138.589 E1081.4529
G1 X151.598 Y139.534 E1084.00691
G1 X151.508 Y139.777 E1084.66678
G1 X151.077 Y140.898 E1087.7251
G1 X150.966 Y141.174 E1088.48264
G1 X150.641 Y141.951 E1090.62736
G1 X150.537 Y142.19 E1091.2911
G1 X150.07 Y143.231 E1094.19651
G1 X149.96 Y143.47 E1094.86648
G1 X149.552 Y144.32 E1097.26743
G1 X149.427 Y144.57 E1097.97919
G1 X148.972 Y145.455 E1100.51322
G1 X148.847 Y145.69 E1101.19104
G1 X148.404 Y146.499 E1103.53978
G1 X148.263 Y146.748 E1104.26846
G1 X147.79 Y147.557 E1106.65484
G1 X147.648 Y147.793 E1107.35621
G1 X147.139 Y148.612 E1109.81173
G1 X146.992 Y148.842 E1110.50683
G1 X146.518 Y149.561 E1112.69981
G1 X146.362 Y149.79 E1113.40541
G1 X145.828 Y150.554 E1115.77904
G1 X145.67 Y150.775 E1116.47084
G1 X145.205 Y151.404 E1118.46275
G1 X145.027 Y151.637 E1119.2094
