;FLAVOR:Marlin
;TIME:16132
;Filament used: 331.853m
;Layer height: 0.2
;MINX:63
;MINY:90
;MINZ:0.2
;MAXX:172
;MAXY:145
;MAXZ:15.2
;Generated with Cura_SteamEngine 4.8.0
M140 S60
M105
M190 S60
M104 S210
M105
M109 S210
M82 ;absolute extrusion mode
; Ender 3 Custom Start G-code
G92 E0 ; Reset Extruder
G28 ; Home all axes
G1 Z2.0 F3000 ; Move Z Axis up little to prevent scratching of Heat Bed
G1 X0.1 Y20 Z0.3 F5000.0 ; Move to start position
G1 X0.1 Y200.0 Z0.3 F1500.0 E15 ; Draw the first line
G1 X0.4 Y200.0 Z0.3 F5000.0 ; Move to side a little
G1 X0.4 Y20 Z0.3 F1500.0 E30 ; Draw the second line
G92 E0 ; Reset Extruder
G1 Z2.0 F3000 ; Move Z Axis up little to prevent scratching of Heat Bed
G1 X5 Y20 Z0.3 F5000.0 ; Move over to prevent blob squish
G92 E0
G92 E0
G1 F1500 E-6.5
;LAYER_COUNT:75
;LAYER:0
M107
G1 F300 Z0.4
G0 F6000 X67.626 Y92.051 Z0.4
;TYPE:SKIRT
G1 F300 Z0.2
G1 F1500 E0
G1 F1200 X68.412 Y91.539 E2.38873
G1 X69.239 Y91.097 E4.77658
G1 X70.101 Y90.727 E7.16531
G1 X70.991 Y90.431 E9.55373
G1 X71.903 Y90.213 E11.94155
G1 X72.83 Y90.072 E14.32929
G1 X73.701 Y90.013 E16.55235
G1 X74.022 Y90.004 E17.37009
G1 X74.33 Y90 E18.15447
G1 X160.293 Y90 E237.05746
G1 X161.149 Y90.011 E239.23742
G1 X162.085 Y90.065 E241.62489
G1 X163.013 Y90.197 E244.01181
G1 X163.927 Y90.409 E246.40108
G1 X164.819 Y90.698 E248.78878
G1 X165.684 Y91.061 E251.17758
G1 X166.514 Y91.497 E253.56503
G1 X167.305 Y92.002 E255.9548
G1 X168.049 Y92.573 E258.34303
G1 X168.742 Y93.205 E260.7314
G1 X169.379 Y93.893 E263.119
G1 X169.954 Y94.634 E265.50741
G1 X170.465 Y95.42 E267.89475
G1 X170.907 Y96.248 E270.28485
G1 X171.276 Y97.11 E272.67258
G1 X171.571 Y98 E275.0602
G1 X171.789 Y98.912 E277.44801
G1 X171.929 Y99.84 E279.83789
G1 X171.987 Y100.701 E282.03537
G1 X171.996 Y101.021 E282.85057
G1 X172 Y101.33 E283.6375
G1 X171.999 Y105.449 E294.12644
G1 X171.989 Y106.153 E295.91935
G1 X171.936 Y107.09 E298.30921
G1 X171.803 Y108.018 E300.69649
G1 X171.591 Y108.932 E303.08576
G1 X171.303 Y109.824 E305.47268
G1 X170.939 Y110.689 E307.86247
G1 X170.503 Y111.519 E310.24991
G1 X169.998 Y112.309 E312.63753
G1 X169.451 Y113.027 E314.93605
G1 X168.95 Y113.63 E316.93242
G1 X167.304 Y115.67 E323.60736
G1 X165.802 Y117.644 E329.9238
G1 X164.312 Y119.721 E336.43304
G1 X162.913 Y121.791 E342.79522
G1 X161.58 Y123.891 E349.12919
G1 X160.27 Y126.089 E355.64504
G1 X159.046 Y128.283 E362.04264
G1 X157.901 Y130.478 E368.34694
G1 X156.771 Y132.802 E374.92745
G1 X156.177 Y134.094 E378.54856
G1 X155.75 Y135.042 E381.1962
G1 X155.488 Y135.583 E382.7269
G1 X155.301 Y135.944 E383.76219
G1 X155.144 Y136.237 E384.60867
G1 X154.973 Y136.544 E385.50353
G1 X154.482 Y137.343 E387.89164
G1 X153.925 Y138.097 E390.27877
G1 X153.502 Y138.59 E391.93296
G1 X153.232 Y138.887 E392.95508
G1 X153.031 Y139.103 E393.70642
G1 X152.795 Y139.349 E394.57452
G1 X152.117 Y139.998 E396.96453
G1 X151.387 Y140.586 E399.35149
G1 X150.892 Y140.931 E400.88795
G1 X150.572 Y141.141 E401.86263
G1 X150.268 Y141.333 E402.77823
G1 X149.96 Y141.521 E403.69711
G1 X149.139 Y141.975 E406.08613
G1 X148.283 Y142.358 E408.47416
G1 X147.735 Y142.558 E409.95966
G1 X147.393 Y142.673 E410.87847
G1 X147.11 Y142.764 E411.63547
G1 X146.751 Y142.874 E412.5916
G1 X145.843 Y143.111 E414.98127
G1 X144.919 Y143.269 E417.36837
G1 X144.258 Y143.333 E419.05947
G1 X143.867 Y143.359 E420.05734
G1 X143.557 Y143.375 E420.8478
G1 X143.191 Y143.389 E421.78049
G1 X142.1 Y143.377 E424.55887
G1 X139.416 Y143.213 E431.40636
G1 X136.943 Y143.133 E437.7071
G1 X134.418 Y143.123 E444.13701
G1 X131.888 Y143.184 E450.58147
G1 X129.373 Y143.316 E456.99468
G1 X126.894 Y143.517 E463.32812
G1 X124.37 Y143.793 E469.79375
G1 X121.866 Y144.139 E476.23072
G1 X119.391 Y144.553 E482.62082
G1 X117.972 Y144.812 E486.29397
G1 X117.043 Y144.94 E488.682
G1 X116.533 Y144.976 E489.98393
G1 X116.429 Y144.981 E490.24907
G1 X116.026 Y144.993 E491.27576
G1 X115.372 Y145 E492.94125
G1 X110.551 Y144.999 E505.21783
G1 X109.845 Y144.989 E507.01582
G1 X109.532 Y144.98 E507.8132
G1 X108.084 Y144.917 E511.50399
G1 X107.965 Y144.91 E511.80755
G1 X105.409 Y144.839 E518.31886
G1 X102.935 Y144.839 E524.61885
G1 X99.413 Y144.957 E533.59258
G1 X99.301 Y144.963 E533.87819
G1 X98.959 Y144.975 E534.74962
G1 X97.767 Y144.998 E537.78559
G1 X97.555 Y145 E538.32547
G1 X86.551 Y144.999 E566.34693
G1 X85.852 Y144.989 E568.1271
G1 X84.915 Y144.935 E570.51711
G1 X83.987 Y144.803 E572.90403
G1 X83.073 Y144.591 E575.2933
G1 X82.181 Y144.302 E577.681
G1 X81.316 Y143.939 E580.0698
G1 X80.486 Y143.503 E582.45725
G1 X79.696 Y142.998 E584.84487
G1 X78.951 Y142.427 E587.23512
G1 X78.258 Y141.795 E589.62349
G1 X77.621 Y141.107 E592.01109
G1 X77.046 Y140.366 E594.3995
G1 X76.535 Y139.58 E596.78684
G1 X76.093 Y138.752 E599.17694
G1 X75.724 Y137.891 E601.56233
G1 X75.429 Y137 E603.95236
G1 X75.296 Y136.484 E605.30929
G1 X75 Y135.209 E608.6424
G1 X74.899 Y134.745 E609.85164
G1 X74.283 Y132.249 E616.39835
G1 X73.614 Y129.838 E622.76989
G1 X72.873 Y127.434 E629.17584
G1 X72.069 Y125.066 E635.54399
G1 X71.191 Y122.698 E641.9752
G1 X70.243 Y120.352 E648.41856
G1 X69.245 Y118.069 E654.76338
G1 X68.157 Y115.76 E661.26325
G1 X67.036 Y113.546 E667.58264
G1 X65.823 Y111.308 E674.06493
G1 X64.556 Y109.117 E680.50997
G1 X64.136 Y108.347 E682.74348
G1 X63.759 Y107.488 E685.1323
G1 X63.457 Y106.6 E687.52077
G1 X63.231 Y105.69 E689.90846
G1 X63.083 Y104.764 E692.29643
G1 X63.014 Y103.81 E694.73211
G1 X63.004 Y103.458 E695.62884
G1 X63 Y103.146 E696.4234
G1 X63.001 Y101.525 E700.55125
G1 X63.01 Y100.86 E702.24481
G1 X63.063 Y99.924 E704.63213
G1 X63.195 Y98.995 E707.02157
G1 X63.406 Y98.081 E709.41027
G1 X63.694 Y97.189 E711.79719
G1 X64.057 Y96.324 E714.18599
G1 X64.492 Y95.493 E716.57451
G1 X64.996 Y94.703 E718.96076
G1 X65.566 Y93.958 E721.34947
G1 X66.198 Y93.264 E723.73971
G1 X66.886 Y92.627 E726.12732
G1 X67.626 Y92.051 E728.51528
G0 F6000 X68.01 Y92.27
G1 F1200 X68.791 Y91.782 E730.8604
G1 X69.611 Y91.364 E733.20416
G1 X70.465 Y91.019 E735.54961
G1 X71.345 Y90.749 E737.89361
G1 X72.245 Y90.557 E740.23702
G1 X73.159 Y90.443 E742.58253
G1 X73.712 Y90.413 E743.99281
G1 X74.033 Y90.404 E744.81055
G1 X74.33 Y90.4 E745.56692
G1 X160.293 Y90.4 E964.4699
G1 X161.143 Y90.411 E966.63459
G1 X162.062 Y90.464 E968.97869
G1 X162.973 Y90.597 E971.32313
G1 X163.869 Y90.808 E973.66719
G1 X164.743 Y91.096 E976.01053
G1 X165.59 Y91.459 E978.35713
G1 X166.401 Y91.894 E980.70065
G1 X167.171 Y92.398 E983.04412
G1 X167.895 Y92.967 E985.38901
G1 X168.567 Y93.597 E987.73465
G1 X169.182 Y94.282 E990.07886
G1 X169.735 Y95.018 E992.42315
G1 X170.222 Y95.799 E994.76692
G1 X170.639 Y96.62 E997.1118
G1 X170.984 Y97.474 E999.45725
G1 X171.253 Y98.354 E1001.80051
G1 X171.445 Y99.255 E1004.1464
G1 X171.558 Y100.168 E1006.48908
G1 X171.587 Y100.712 E1007.87633
G1 X171.596 Y101.032 E1008.69152
G1 X171.6 Y101.33 E1009.45044
G1 X171.599 Y105.444 E1019.92666
G1 X171.589 Y106.148 E1021.71956
G1 X171.536 Y107.067 E1024.06366
G1 X171.403 Y107.978 E1026.4081
G1 X171.192 Y108.874 E1028.75215
G1 X170.904 Y109.748 E1031.0955
G1 X170.541 Y110.594 E1033.43976
G1 X170.106 Y111.406 E1035.78552
G1 X169.602 Y112.176 E1038.12899
G1 X169.143 Y112.771 E1040.04259
G1 X168.615 Y113.406 E1042.14557
G1 X167.02 Y115.383 E1048.61411
G1 X165.462 Y117.43 E1055.16484
G1 X164 Y119.469 E1061.55389
G1 X162.588 Y121.559 E1067.9768
G1 X161.217 Y123.718 E1074.48948
G1 X159.935 Y125.869 E1080.86602
G1 X158.7 Y128.082 E1087.31952
G1 X157.53 Y130.325 E1093.76163
G1 X156.405 Y132.639 E1100.31367
G1 X155.813 Y133.927 E1103.9234
G1 X155.385 Y134.877 E1106.57673
G1 X155.133 Y135.399 E1108.05278
G1 X154.946 Y135.76 E1109.08808
G1 X154.794 Y136.042 E1109.90386
G1 X154.623 Y136.349 E1110.79872
G1 X154.141 Y137.133 E1113.14228
G1 X153.592 Y137.872 E1115.48659
G1 X153.206 Y138.321 E1116.9944
G1 X152.936 Y138.618 E1118.01651
G1 X152.742 Y138.826 E1118.7408
G1 X152.506 Y139.072 E1119.6089
G1 X151.841 Y139.708 E1121.9521
G1 X151.122 Y140.284 E1124.29809
G1 X150.673 Y140.596 E1125.6904
G1 X150.353 Y140.806 E1126.66508
G1 X150.06 Y140.992 E1127.54884
G1 X149.752 Y141.18 E1128.46772
G1 X148.946 Y141.625 E1130.81222
G1 X148.104 Y141.998 E1133.15732
G1 X147.607 Y142.179 E1134.50424
G1 X147.265 Y142.294 E1135.42305
G1 X146.992 Y142.382 E1136.15347
G1 X146.633 Y142.492 E1137.10961
G1 X145.742 Y142.723 E1139.45353
G1 X144.834 Y142.876 E1141.79833
G1 X144.231 Y142.934 E1143.34094
G1 X143.84 Y142.96 E1144.33882
G1 X143.542 Y142.975 E1145.09863
G1 X143.176 Y142.989 E1146.03132
G1 X142.125 Y142.977 E1148.70784
G1 X139.489 Y142.816 E1155.43287
G1 X136.922 Y142.733 E1161.9731
G1 X134.41 Y142.723 E1168.36991
G1 X131.858 Y142.785 E1174.87044
G1 X129.354 Y142.916 E1181.25554
G1 X126.851 Y143.119 E1187.65031
G1 X124.308 Y143.397 E1194.16458
G1 X121.816 Y143.741 E1200.57058
G1 X119.316 Y144.16 E1207.02558
G1 X117.9 Y144.418 E1210.69075
G1 X116.988 Y144.543 E1213.03486
G1 X116.514 Y144.577 E1214.24499
G1 X116.41 Y144.582 E1214.51013
G1 X116.021 Y144.593 E1215.5011
G1 X115.372 Y144.6 E1217.15387
G1 X110.557 Y144.599 E1229.41516
G1 X109.851 Y144.589 E1231.21316
G1 X109.549 Y144.58 E1231.98254
G1 X108.106 Y144.518 E1235.66049
G1 X107.961 Y144.51 E1236.0303
G1 X105.42 Y144.439 E1242.50342
G1 X102.922 Y144.439 E1248.86453
G1 X99.439 Y144.556 E1257.73892
G1 X99.281 Y144.564 E1258.14178
G1 X98.951 Y144.575 E1258.98258
G1 X97.759 Y144.598 E1262.01855
G1 X97.555 Y144.6 E1262.53806
G1 X86.556 Y144.599 E1290.54678
G1 X85.857 Y144.589 E1292.32695
G1 X84.938 Y144.536 E1294.67105
G1 X84.027 Y144.403 E1297.01549
G1 X83.131 Y144.192 E1299.35955
G1 X82.257 Y143.904 E1301.70289
G1 X81.411 Y143.541 E1304.04715
G1 X80.599 Y143.106 E1306.39291
G1 X79.829 Y142.602 E1308.73639
G1 X79.105 Y142.033 E1311.08127
G1 X78.433 Y141.404 E1313.42518
G1 X77.818 Y140.718 E1315.77128
G1 X77.265 Y139.982 E1318.11557
G1 X76.778 Y139.201 E1320.45934
G1 X76.361 Y138.38 E1322.80422
G1 X76.016 Y137.526 E1325.14967
G1 X75.685 Y136.394 E1328.15299
G1 X75.424 Y135.273 E1331.08394
G1 X75.294 Y134.679 E1332.63235
G1 X74.663 Y132.122 E1339.33903
G1 X74.006 Y129.751 E1345.60424
G1 X73.258 Y127.325 E1352.06898
G1 X72.436 Y124.903 E1358.58208
G1 X71.57 Y122.569 E1364.92149
G1 X70.616 Y120.209 E1371.40362
G1 X69.596 Y117.875 E1377.88988
G1 X68.518 Y115.587 E1384.33052
G1 X67.388 Y113.354 E1390.70343
G1 X66.187 Y111.139 E1397.11966
G1 X64.902 Y108.916 E1403.65819
G1 X64.488 Y108.155 E1405.86427
G1 X64.12 Y107.312 E1408.20658
G1 X63.826 Y106.439 E1410.55233
G1 X63.609 Y105.544 E1412.89746
G1 X63.471 Y104.634 E1415.24126
G1 X63.414 Y103.799 E1417.37251
G1 X63.404 Y103.447 E1418.26924
G1 X63.4 Y103.146 E1419.03579
G1 X63.401 Y101.531 E1423.14836
G1 X63.41 Y100.866 E1424.84192
G1 X63.462 Y99.946 E1427.18842
G1 X63.594 Y99.035 E1429.53249
G1 X63.805 Y98.139 E1431.87655
G1 X64.092 Y97.264 E1434.22151
G1 X64.455 Y96.418 E1436.56577
G1 X64.889 Y95.606 E1438.91033
G1 X65.392 Y94.835 E1441.25455
G1 X65.961 Y94.111 E1443.59943
G1 X66.589 Y93.439 E1445.9416
G1 X67.274 Y92.823 E1448.28751
G1 X68.01 Y92.27 E1450.6318
G0 F6000 X68.394 Y92.494
G1 F1200 X69.169 Y92.031 E1452.93069
G1 X69.982 Y91.638 E1455.23017
G1 X70.827 Y91.318 E1457.53107
G1 X71.696 Y91.075 E1459.82885
G1 X72.584 Y90.909 E1462.1293
G1 X73.723 Y90.813 E1465.04002
G1 X74.044 Y90.804 E1465.85776
G1 X74.33 Y90.8 E1466.58613
G1 X160.293 Y90.8 E1685.48911
G1 X161.137 Y90.811 E1687.63852
G1 X162.039 Y90.864 E1689.93941
G1 X162.932 Y90.996 E1692.23812
G1 X163.81 Y91.207 E1694.53759
G1 X164.666 Y91.495 E1696.83744
G1 X165.493 Y91.857 E1699.13629
G1 X166.285 Y92.292 E1701.43729
G1 X167.036 Y92.794 E1703.7376
G1 X167.739 Y93.361 E1706.03748
G1 X168.389 Y93.988 E1708.33726
G1 X168.981 Y94.67 E1710.63698
G1 X169.511 Y95.401 E1712.93624
G1 X169.973 Y96.177 E1715.23601
G1 X170.366 Y96.99 E1717.53549
G1 X170.684 Y97.835 E1719.8346
G1 X170.927 Y98.705 E1722.13483
G1 X171.092 Y99.593 E1724.43481
G1 X171.187 Y100.723 E1727.32248
G1 X171.196 Y101.043 E1728.13767
G1 X171.2 Y101.33 E1728.86859
G1 X171.199 Y105.438 E1739.32952
G1 X171.189 Y106.142 E1741.12242
G1 X171.136 Y107.043 E1743.42077
G1 X171.004 Y107.937 E1745.722
G1 X170.793 Y108.815 E1748.02147
G1 X170.505 Y109.671 E1750.32132
G1 X170.143 Y110.498 E1752.62017
G1 X169.709 Y111.29 E1754.91994
G1 X169.207 Y112.041 E1757.22025
G1 X168.835 Y112.515 E1758.75462
G1 X168.343 Y113.107 E1760.71479
G1 X166.707 Y115.135 E1767.34996
G1 X165.135 Y117.201 E1773.96078
G1 X163.659 Y119.258 E1780.40786
G1 X162.252 Y121.342 E1786.81098
G1 X160.887 Y123.489 E1793.28968
G1 X159.592 Y125.664 E1799.73566
G1 X158.339 Y127.908 E1806.28043
G1 X157.173 Y130.144 E1812.70203
G1 X156.057 Y132.439 E1819.20054
G1 X155.45 Y133.76 E1822.90257
G1 X155.021 Y134.713 E1825.56391
G1 X154.778 Y135.215 E1826.98414
G1 X154.591 Y135.576 E1828.01943
G1 X154.445 Y135.847 E1828.80331
G1 X154.274 Y136.154 E1829.69817
G1 X153.8 Y136.923 E1831.99852
G1 X153.26 Y137.647 E1834.29851
G1 X152.91 Y138.052 E1835.66159
G1 X152.64 Y138.349 E1836.68371
G1 X152.454 Y138.549 E1837.37921
G1 X152.218 Y138.795 E1838.2473
G1 X151.564 Y139.419 E1840.54914
G1 X150.858 Y139.982 E1842.84861
G1 X150.453 Y140.262 E1844.10241
G1 X150.133 Y140.472 E1845.07708
G1 X149.851 Y140.65 E1845.92628
G1 X149.543 Y140.838 E1846.84516
G1 X148.752 Y141.274 E1849.14515
G1 X147.926 Y141.638 E1851.44372
G1 X147.48 Y141.8 E1852.65205
G1 X147.138 Y141.915 E1853.57086
G1 X146.875 Y141.999 E1854.27392
G1 X146.516 Y142.109 E1855.23006
G1 X145.642 Y142.336 E1857.52952
G1 X144.751 Y142.483 E1859.82911
G1 X144.205 Y142.535 E1861.22577
G1 X143.814 Y142.561 E1862.22365
G1 X143.527 Y142.576 E1862.95548
G1 X143.161 Y142.59 E1863.88818
G1 X142.149 Y142.578 E1866.46539
G1 X139.491 Y142.416 E1873.2465
G1 X136.937 Y142.333 E1879.75364
G1 X134.402 Y142.323 E1886.20901
G1 X131.863 Y142.385 E1892.67645
G1 X129.334 Y142.517 E1899.12526
G1 X126.78 Y142.724 E1905.6503
G1 X124.282 Y142.997 E1912.04927
G1 X121.756 Y143.346 E1918.54278
G1 X119.25 Y143.766 E1925.01327
G1 X117.829 Y144.025 E1928.69143
G1 X116.495 Y144.177 E1932.11041
G1 X116.391 Y144.182 E1932.37555
G1 X116.017 Y144.193 E1933.32835
G1 X115.372 Y144.2 E1934.97092
G1 X110.563 Y144.199 E1947.21694
G1 X109.857 Y144.189 E1949.01493
G1 X109.566 Y144.181 E1949.75624
G1 X108.128 Y144.119 E1953.42148
G1 X107.958 Y144.11 E1953.85499
G1 X105.431 Y144.039 E1960.29248
G1 X102.909 Y144.039 E1966.7147
G1 X99.405 Y144.157 E1975.64262
G1 X98.944 Y144.175 E1976.81744
G1 X97.752 Y144.198 E1979.85341
G1 X97.555 Y144.2 E1980.35509
G1 X86.562 Y144.199 E2008.34854
G1 X85.863 Y144.189 E2010.12871
G1 X84.962 Y144.136 E2012.42705
G1 X84.068 Y144.004 E2014.72828
G1 X83.19 Y143.793 E2017.02775
G1 X82.334 Y143.505 E2019.3276
G1 X81.507 Y143.143 E2021.62646
G1 X80.715 Y142.709 E2023.92623
G1 X79.964 Y142.206 E2026.22795
G1 X79.261 Y141.639 E2028.52783
G1 X78.611 Y141.012 E2030.82761
G1 X78.019 Y140.33 E2033.12733
G1 X77.49 Y139.599 E2035.4251
G1 X77.027 Y138.823 E2037.72617
G1 X76.635 Y138.01 E2040.02455
G1 X76.316 Y137.165 E2042.32455
G1 X76.075 Y136.303 E2044.60379
G1 X75.782 Y135.039 E2047.90789
G1 X75.68 Y134.569 E2049.13259
G1 X75.063 Y132.069 E2055.68981
G1 X74.387 Y129.631 E2062.13236
G1 X73.632 Y127.183 E2068.65589
G1 X72.818 Y124.783 E2075.10939
G1 X71.94 Y122.417 E2081.53583
G1 X70.978 Y120.034 E2088.0799
G1 X69.973 Y117.736 E2094.46685
G1 X68.879 Y115.415 E2101.00088
G1 X67.739 Y113.162 E2107.43073
G1 X66.534 Y110.939 E2113.86973
G1 X65.248 Y108.715 E2120.41174
G1 X64.84 Y107.964 E2122.58814
G1 X64.481 Y107.135 E2124.88862
G1 X64.196 Y106.278 E2127.18846
G1 X63.989 Y105.399 E2129.48805
G1 X63.86 Y104.506 E2131.78566
G1 X63.814 Y103.788 E2133.61778
G1 X63.804 Y103.436 E2134.5145
G1 X63.8 Y103.146 E2135.25305
G1 X63.801 Y101.536 E2139.35288
G1 X63.81 Y100.871 E2141.04645
G1 X63.862 Y99.969 E2143.34718
G1 X63.994 Y99.076 E2145.6459
G1 X64.204 Y98.198 E2147.94477
G1 X64.491 Y97.341 E2150.24623
G1 X64.853 Y96.514 E2152.54508
G1 X65.286 Y95.722 E2154.84363
G1 X65.788 Y94.971 E2157.14394
G1 X66.355 Y94.267 E2159.4458
G1 X66.981 Y93.617 E2161.74381
G1 X67.662 Y93.024 E2164.04328
G1 X68.394 Y92.494 E2166.34461
