;FLAVOR:Marlin
;TIME:6861
;Filament used: 189.194m
;Layer height: 0.2
;MINX:78.974
;MINY:65.055
;MINZ:0.2
;MAXX:156.026
;MAXY:169.972
;MAXZ:8.2
;Generated with Cura_SteamEngine 4.8.0
M140 S60
M105
M190 S60
M104 S210
M105
M109 S210
M82 ;absolute extrusion mode
; Ender 3 Custom Start G-code
G92 E0 ; Reset Extruder
G28 ; Home all axes
G1 Z2.0 F3000 ; Move Z Axis up little to prevent scratching of Heat Bed
G1 X0.1 Y20 Z0.3 F5000.0 ; Move to start position
G1 X0.1 Y200.0 Z0.3 F1500.0 E15 ; Draw the first line
G1 X0.4 Y200.0 Z0.3 F5000.0 ; Move to side a little
G1 X0.4 Y20 Z0.3 F1500.0 E30 ; Draw the second line
G92 E0 ; Reset Extruder
G1 Z2.0 F3000 ; Move Z Axis up little to prevent scratching of Heat Bed
G1 X5 Y20 Z0.3 F5000.0 ; Move over to prevent blob squish
G92 E0
G92 E0
G1 F1500 E-6
;LAYER_COUNT:40
;LAYER:0
M107
M204 S500
M205 X8 Y8
G1 F300 Z0.4
G0 F6000 X90.107 Y70.313 Z0.4
;TYPE:SKIRT
G1 F300 Z0.2
G1 F1500 E0
G1 F1200 X90.712 Y69.597 E2.38702
G1 X91.376 Y68.934 E4.77646
G1 X92.095 Y68.331 E7.16604
G1 X92.862 Y67.792 E9.55323
G1 X93.508 Y67.407 E11.46825
G1 X93.701 Y67.301 E12.02897
G1 X94.541 Y66.885 E14.41595
G1 X95.414 Y66.543 E16.80353
G1 X96.313 Y66.275 E19.19237
G1 X96.988 Y66.128 E20.95153
G1 X97.369 Y66.059 E21.93752
G1 X99.752 Y65.665 E28.08817
G1 X101.075 Y65.417 E31.51584
G1 X101.629 Y65.309 E32.95315
G1 X102.646 Y65.159 E35.57093
G1 X103.146 Y65.109 E36.85052
G1 X104.083 Y65.055 E39.24053
G1 X105.372 Y65.112 E42.52615
G1 X105.865 Y65.165 E43.7888
G1 X107.812 Y65.396 E48.78157
G1 X110.377 Y65.627 E55.33972
G1 X112.853 Y65.78 E61.65683
G1 X115.386 Y65.865 E68.11069
G1 X117.902 Y65.877 E74.51771
G1 X120.426 Y65.818 E80.94677
G1 X122.922 Y65.689 E87.31127
G1 X125.435 Y65.489 E93.73081
G1 X127.981 Y65.213 E100.25213
G1 X128.204 Y65.186 E100.82414
G1 X129.139 Y65.114 E103.21214
G1 X130.211 Y65.129 E105.94224
G1 X130.465 Y65.145 E106.59032
G1 X130.884 Y65.179 E107.66081
G1 X132.017 Y65.295 E110.56105
G1 X132.85 Y65.389 E112.69573
G1 X134.847 Y65.567 E117.80121
G1 X135.79 Y65.64 E120.20972
G1 X136.721 Y65.752 E122.59759
G1 X137.639 Y65.944 E124.98584
G1 X138.538 Y66.212 E127.37468
G1 X138.98 Y66.376 E128.57521
G1 X139.218 Y66.47 E129.22683
G1 X140.163 Y66.896 E131.86646
G1 X141.192 Y67.421 E134.80813
G1 X141.821 Y67.753 E136.61929
G1 X144.029 Y68.84 E142.88634
G1 X144.611 Y69.117 E144.52769
G1 X145.44 Y69.556 E146.91644
G1 X146.229 Y70.064 E149.30605
G1 X146.971 Y70.638 E151.69491
G1 X147.861 Y71.477 E154.80956
G1 X147.935 Y71.555 E155.08335
G1 X148.479 Y72.173 E157.17992
G1 X148.634 Y72.363 E157.80433
G1 X149.195 Y73.114 E160.1914
G1 X149.69 Y73.91 E162.57837
G1 X150.116 Y74.746 E164.96768
G1 X150.469 Y75.615 E167.35618
G1 X150.691 Y76.31 E169.21408
G1 X150.716 Y76.398 E169.44704
G1 X150.886 Y77.076 E171.22699
G1 X150.941 Y77.33 E171.88879
G1 X151.1 Y78.256 E174.28134
G1 X151.266 Y79.548 E177.59843
G1 X151.572 Y81.735 E183.22183
G1 X151.997 Y84.276 E189.78232
G1 X152.314 Y85.929 E194.06835
G1 X152.493 Y86.816 E196.37261
G1 X152.556 Y87.158 E197.25816
G1 X152.644 Y87.687 E198.62376
G1 X153.061 Y90.439 E205.71167
G1 X153.458 Y92.641 E211.40942
G1 X153.63 Y93.557 E213.78276
G1 X153.889 Y94.986 E217.48096
G1 X154.049 Y95.903 E219.85136
G1 X154.245 Y97.063 E222.84715
G1 X154.399 Y98.012 E225.29537
G1 X154.589 Y99.242 E228.46469
G1 X154.71 Y100.059 E230.56785
G1 X154.871 Y101.193 E233.48452
G1 X155.006 Y102.203 E236.07934
G1 X155.151 Y103.358 E239.04361
G1 X155.237 Y104.076 E240.88505
G1 X155.375 Y105.317 E244.06471
G1 X155.464 Y106.173 E246.25624
G1 X155.558 Y107.147 E248.74804
G1 X155.643 Y108.111 E251.21237
G1 X155.724 Y109.131 E253.81795
G1 X155.79 Y110.066 E256.20483
G1 X155.844 Y110.914 E258.36862
G1 X155.904 Y111.997 E261.13069
G1 X155.936 Y112.713 E262.95579
G1 X155.977 Y113.785 E265.68761
G1 X156 Y114.622 E267.81982
G1 X156.017 Y115.55 E270.18335
G1 X156.025 Y116.329 E272.16716
G1 X156.026 Y117.381 E274.84606
G1 X156.02 Y117.953 E276.30272
G1 X155.997 Y119.202 E279.48381
G1 X155.982 Y119.699 E280.74999
G1 X155.939 Y120.793 E283.53799
G1 X155.916 Y121.278 E284.77442
G1 X155.837 Y122.606 E288.16212
G1 X155.804 Y123.069 E289.34413
G1 X155.719 Y124.119 E292.02668
G1 X155.677 Y124.577 E293.19786
G1 X155.554 Y125.772 E296.25698
G1 X155.514 Y126.123 E297.15658
G1 X155.356 Y127.388 E300.40291
G1 X155.323 Y127.631 E301.02738
G1 X155.14 Y128.871 E304.21922
G1 X155.1 Y129.124 E304.87148
G1 X154.892 Y130.337 E308.00544
G1 X154.848 Y130.577 E308.62678
G1 X154.626 Y131.719 E311.5893
G1 X154.571 Y131.986 E312.28349
G1 X154.297 Y133.23 E315.52724
G1 X154.232 Y133.505 E316.24681
G1 X153.958 Y134.613 E319.1533
G1 X153.895 Y134.856 E319.79256
G1 X153.591 Y135.975 E322.74535
G1 X153.513 Y136.248 E323.46836
G1 X153.199 Y137.296 E326.25428
G1 X153.114 Y137.569 E326.98239
G1 X152.775 Y138.602 E329.75092
G1 X152.687 Y138.857 E330.43786
G1 X152.351 Y139.802 E332.99186
G1 X152.254 Y140.065 E333.70569
G1 X151.823 Y141.186 E336.76401
G1 X151.704 Y141.483 E337.57876
G1 X151.379 Y142.26 E339.72349
G1 X151.267 Y142.517 E340.43738
G1 X150.8 Y143.558 E343.34279
G1 X150.681 Y143.816 E344.0663
G1 X150.273 Y144.666 E346.46724
G1 X150.139 Y144.936 E347.23481
G1 X149.684 Y145.821 E349.76884
G1 X149.549 Y146.074 E350.49908
G1 X149.106 Y146.883 E352.84783
G1 X148.954 Y147.152 E353.63463
G1 X148.481 Y147.961 E356.021
G1 X148.328 Y148.215 E356.77609
G1 X147.819 Y149.034 E359.23162
G1 X147.66 Y149.282 E359.98179
G1 X147.186 Y150.001 E362.17478
G1 X147.018 Y150.249 E362.93757
G1 X146.484 Y151.013 E365.3112
G1 X146.313 Y151.25 E366.0554
G1 X145.848 Y151.879 E368.04731
G1 X145.656 Y152.131 E368.85406
G1 X145.076 Y152.87 E371.24628
G1 X144.884 Y153.109 E372.02696
G1 X144.324 Y153.783 E374.2584
G1 X144.133 Y154.006 E375.00609
G1 X143.591 Y154.624 E377.0993
G1 X143.396 Y154.841 E377.84221
G1 X142.84 Y155.442 E379.92712
G1 X142.608 Y155.685 E380.78265
G1 X142.016 Y156.287 E382.93268
G1 X141.812 Y156.489 E383.66375
G1 X141.24 Y157.041 E385.68798
G1 X141.028 Y157.24 E386.42841
G1 X140.485 Y157.737 E388.3029
G1 X140.256 Y157.941 E389.08387
G1 X139.632 Y158.481 E391.18526
G1 X139.384 Y158.689 E392.0095
G1 X138.686 Y159.258 E394.3027
G1 X138.442 Y159.452 E395.09649
G1 X137.957 Y159.825 E396.65454
G1 X137.719 Y160.002 E397.40984
G1 X137.001 Y160.524 E399.67034
G1 X136.732 Y160.714 E400.50898
G1 X135.597 Y161.488 E404.00731
G1 X133.489 Y162.969 E410.56766
G1 X131.481 Y164.467 E416.94712
G1 X128.972 Y166.465 E425.11457
G1 X128.43 Y166.912 E426.90359
G1 X127.39 Y167.672 E430.18371
G1 X127.041 Y167.897 E431.24111
G1 X126.232 Y168.371 E433.62878
G1 X125.523 Y168.715 E435.63552
G1 X125.088 Y168.907 E436.84634
G1 X124.214 Y169.249 E439.23629
G1 X123.205 Y169.542 E441.91183
G1 X122.95 Y169.603 E442.5795
G1 X122.03 Y169.782 E444.96619
G1 X121.487 Y169.85 E446.35973
G1 X120.928 Y169.906 E447.79034
G1 X119.986 Y169.96 E450.19306
G1 X119.332 Y169.968 E451.85858
G1 X118.638 Y169.967 E453.62584
G1 X116.638 Y169.972 E458.71881
G1 X116.515 Y169.967 E459.03229
G1 X115.65 Y169.967 E461.23499
G1 X114.942 Y169.957 E463.03808
G1 X114.539 Y169.944 E464.06485
G1 X113.962 Y169.905 E465.53752
G1 X113.762 Y169.886 E466.04911
G1 X112.481 Y169.687 E469.35027
G1 X111.99 Y169.581 E470.6294
G1 X111.082 Y169.344 E473.01907
G1 X110.106 Y168.994 E475.6594
G1 X109.857 Y168.891 E476.34559
G1 X109.007 Y168.496 E478.73239
G1 X108.483 Y168.206 E480.25747
G1 X108.099 Y167.98 E481.3921
G1 X107.311 Y167.47 E483.78233
G1 X106.736 Y167.032 E485.62297
G1 X105.705 Y166.193 E489.00786
G1 X103.59 Y164.518 E495.87809
G1 X101.616 Y163.045 E502.15009
G1 X99.448 Y161.518 E508.9028
G1 X98.215 Y160.677 E512.70343
G1 X97.937 Y160.481 E513.56961
G1 X97.292 Y160.011 E515.60189
G1 X97.053 Y159.832 E516.36227
G1 X96.485 Y159.394 E518.18877
G1 X96.247 Y159.205 E518.96268
G1 X95.627 Y158.699 E521.00056
G1 X95.38 Y158.492 E521.82121
G1 X94.73 Y157.929 E524.01099
G1 X94.509 Y157.732 E524.7649
G1 X93.96 Y157.23 E526.65925
G1 X93.74 Y157.023 E527.42848
G1 X93.179 Y156.481 E529.41487
G1 X92.963 Y156.267 E530.18915
G1 X92.394 Y155.686 E532.25999
G1 X92.189 Y155.47 E533.01832
G1 X91.573 Y154.806 E535.32475
G1 X91.349 Y154.557 E536.17763
G1 X90.856 Y153.992 E538.08711
G1 X90.683 Y153.79 E538.76436
G1 X90.074 Y153.057 E541.19111
G1 X89.873 Y152.807 E542.00797
G1 X89.358 Y152.149 E544.13575
G1 X89.172 Y151.904 E544.91906
G1 X88.652 Y151.2 E547.1478
G1 X88.485 Y150.968 E547.87572
G1 X87.976 Y150.24 E550.13774
G1 X87.803 Y149.985 E550.92243
G1 X87.337 Y149.277 E553.08082
G1 X87.182 Y149.035 E553.81263
G1 X86.637 Y148.158 E556.44199
G1 X86.471 Y147.882 E557.26215
G1 X86.036 Y147.134 E559.46559
G1 X85.899 Y146.89 E560.17818
G1 X85.431 Y146.036 E562.65801
G1 X85.287 Y145.765 E563.43948
G1 X84.849 Y144.91 E565.88578
G1 X84.723 Y144.656 E566.6078
G1 X84.3 Y143.775 E569.09644
G1 X84.176 Y143.509 E569.84378
G1 X83.735 Y142.524 E572.59198
G1 X83.621 Y142.259 E573.32659
G1 X83.269 Y141.414 E575.6576
G1 X83.156 Y141.133 E576.42885
G1 X82.744 Y140.062 E579.35097
G1 X82.648 Y139.801 E580.05913
G1 X82.327 Y138.899 E582.49717
G1 X82.233 Y138.624 E583.23723
G1 X81.873 Y137.521 E586.19182
G1 X81.793 Y137.265 E586.87481
G1 X81.467 Y136.177 E589.76707
G1 X81.388 Y135.9 E590.50057
G1 X81.092 Y134.809 E593.37922
G1 X81.025 Y134.55 E594.06047
G1 X80.749 Y133.425 E597.01021
G1 X80.689 Y133.17 E597.67729
G1 X80.43 Y131.994 E600.74372
G1 X80.374 Y131.724 E601.4459
G1 X80.131 Y130.464 E604.71359
G1 X80.078 Y130.172 E605.46931
G1 X79.891 Y129.066 E608.32569
G1 X79.839 Y128.733 E609.18395
G1 X79.66 Y127.511 E612.32895
G1 X79.616 Y127.176 E613.18935
G1 X79.472 Y126.003 E616.19879
G1 X79.434 Y125.661 E617.07505
G1 X79.308 Y124.406 E620.28694
G1 X79.272 Y124.004 E621.31473
G1 X79.184 Y122.895 E624.14765
G1 X79.148 Y122.378 E625.46737
G1 X79.084 Y121.275 E628.28086
G1 X79.052 Y120.587 E630.03473
G1 X79.016 Y119.576 E632.61085
G1 X79.001 Y119.048 E633.95593
G1 X78.978 Y117.81 E637.10902
G1 X78.974 Y117.253 E638.52744
G1 X78.976 Y116.198 E641.21398
G1 X78.984 Y115.432 E643.16469
G1 X79.003 Y114.479 E645.59197
G1 X79.03 Y113.557 E647.94083
G1 X79.06 Y112.761 E649.96927
G1 X79.108 Y111.732 E652.59244
G1 X79.154 Y110.913 E654.6813
G1 X79.223 Y109.83 E657.44473
G1 X79.279 Y109.074 E659.37514
G1 X79.371 Y107.932 E662.29264
G1 X79.436 Y107.201 E664.16146
G1 X79.555 Y105.975 E667.29811
G1 X79.643 Y105.14 E669.4362
G1 X79.772 Y103.993 E672.37543
G1 X79.858 Y103.271 E674.22698
G1 X80.029 Y101.936 E677.65431
G1 X80.126 Y101.212 E679.51443
G1 X80.309 Y99.922 E682.83228
G1 X80.42 Y99.181 E684.74027
G1 X80.65 Y97.703 E688.54927
G1 X80.991 Y95.665 E693.81114
G1 X81.127 Y94.896 E695.79977
G1 X81.376 Y93.521 E699.35812
G1 X81.563 Y92.523 E701.94374
G1 X81.921 Y90.522 E707.12015
G1 X82.299 Y88.054 E713.47815
G1 X82.449 Y87.13 E715.8619
G1 X82.573 Y86.488 E717.52695
G1 X82.746 Y85.716 E719.54159
G1 X82.895 Y85.126 E721.09118
G1 X82.953 Y84.921 E721.6337
G1 X83.124 Y84.374 E723.0931
G1 X83.424 Y83.492 E725.46547
G1 X83.602 Y83.005 E726.78584
G1 X83.676 Y82.817 E727.30033
G1 X83.836 Y82.433 E728.35967
G1 X84.094 Y81.844 E729.99712
G1 X84.327 Y81.347 E731.3949
G1 X84.533 Y80.934 E732.57017
G1 X84.69 Y80.63 E733.44144
G1 X85.217 Y79.652 E736.27045
G1 X86.403 Y77.369 E742.82173
G1 X88.035 Y73.943 E752.48524
G1 X88.532 Y72.841 E755.56365
G1 X88.954 Y72.003 E757.95291
G1 X89.445 Y71.204 E760.34101
G1 X89.863 Y70.628 E762.15331
G1 X90.107 Y70.313 E763.16795
G0 F6000 X90.423 Y70.558
G1 F1200 X91.018 Y69.855 E765.51325
G1 X91.671 Y69.207 E767.85589
G1 X92.379 Y68.618 E770.20112
G1 X93.135 Y68.092 E772.54639
G1 X93.7 Y67.758 E774.21774
G1 X93.893 Y67.652 E774.77846
G1 X94.719 Y67.244 E777.12445
G1 X95.576 Y66.91 E779.46667
G1 X96.46 Y66.651 E781.81238
G1 X97.061 Y66.521 E783.37821
G1 X97.434 Y66.454 E784.34325
G1 X99.803 Y66.062 E790.45789
G1 X101.149 Y65.81 E793.945
G1 X101.706 Y65.701 E795.3903
G1 X102.686 Y65.557 E797.91264
G1 X103.186 Y65.507 E799.19223
G1 X104.105 Y65.455 E801.53619
G1 X105.331 Y65.51 E804.66131
G1 X105.818 Y65.562 E805.9085
G1 X107.8 Y65.797 E810.99097
G1 X110.315 Y66.024 E817.4214
G1 X112.852 Y66.18 E823.89402
G1 X115.37 Y66.265 E830.30971
G1 X117.91 Y66.277 E836.77784
G1 X120.421 Y66.219 E843.17375
G1 X122.974 Y66.087 E849.6836
G1 X125.474 Y65.887 E856.07013
G1 X127.99 Y65.614 E862.51468
G1 X128.252 Y65.583 E863.18651
G1 X129.17 Y65.513 E865.53097
G1 X130.185 Y65.528 E868.11592
G1 X130.439 Y65.544 E868.76401
G1 X130.843 Y65.577 E869.79622
G1 X131.972 Y65.693 E872.68633
G1 X132.809 Y65.788 E874.83141
G1 X134.784 Y65.963 E879.88041
G1 X135.759 Y66.039 E882.37076
G1 X136.673 Y66.15 E884.71535
G1 X137.574 Y66.34 E887.06018
G1 X138.833 Y66.748 E890.43034
G1 X139.071 Y66.842 E891.08196
G1 X139.981 Y67.252 E893.6236
G1 X141.006 Y67.774 E896.55273
G1 X141.68 Y68.13 E898.49376
G1 X143.829 Y69.187 E904.59227
G1 X144.439 Y69.478 E906.31332
G1 X145.253 Y69.91 E908.65998
G1 X146.025 Y70.41 E911.00217
G1 X146.752 Y70.976 E913.34836
G1 X147.571 Y71.752 E916.22142
G1 X147.645 Y71.83 E916.49521
G1 X148.169 Y72.425 E918.51417
G1 X148.324 Y72.615 E919.13857
G1 X148.874 Y73.353 E921.48237
G1 X149.358 Y74.136 E923.82643
G1 X149.773 Y74.958 E926.17128
G1 X150.115 Y75.813 E928.51624
G1 X150.307 Y76.419 E930.13501
G1 X150.332 Y76.507 E930.36797
G1 X150.495 Y77.161 E932.08431
G1 X150.55 Y77.415 E932.74611
G1 X150.704 Y78.307 E935.05117
G1 X150.886 Y79.723 E938.68664
G1 X151.175 Y81.784 E943.98628
G1 X151.6 Y84.331 E950.56184
G1 X151.922 Y86.008 E954.91029
G1 X152.101 Y86.895 E957.21456
G1 X152.162 Y87.225 E958.06913
G1 X152.22 Y87.568 E958.95497
G1 X152.66 Y90.464 E966.41421
G1 X153.078 Y92.783 E972.41466
G1 X153.226 Y93.574 E974.46388
G1 X153.495 Y95.055 E978.29692
G1 X153.655 Y95.969 E980.65979
G1 X153.85 Y97.127 E983.65013
G1 X154.003 Y98.073 E986.0904
G1 X154.193 Y99.301 E989.25469
G1 X154.314 Y100.116 E991.35282
G1 X154.474 Y101.247 E994.26156
G1 X154.609 Y102.253 E996.84628
G1 X154.754 Y103.405 E999.80297
G1 X154.839 Y104.12 E1001.63653
G1 X154.977 Y105.359 E1004.81112
G1 X155.066 Y106.211 E1006.99253
G1 X155.159 Y107.182 E1009.47648
G1 X155.244 Y108.143 E1011.9332
G1 X155.325 Y109.16 E1014.53117
G1 X155.391 Y110.091 E1016.90789
G1 X155.445 Y110.936 E1019.06405
G1 X155.504 Y112.016 E1021.81835
G1 X155.536 Y112.728 E1023.63327
G1 X155.577 Y113.797 E1026.35746
G1 X155.6 Y114.63 E1028.47949
G1 X155.617 Y115.554 E1030.83283
G1 X155.625 Y116.33 E1032.80901
G1 X155.626 Y117.377 E1035.47517
G1 X155.62 Y117.945 E1036.92165
G1 X155.597 Y119.191 E1040.0951
G1 X155.582 Y119.684 E1041.3511
G1 X155.54 Y120.774 E1044.12882
G1 X155.517 Y121.255 E1045.35508
G1 X155.438 Y122.577 E1048.72753
G1 X155.405 Y123.037 E1049.90192
G1 X155.32 Y124.083 E1052.57432
G1 X155.279 Y124.536 E1053.73259
G1 X155.157 Y125.727 E1056.78131
G1 X155.117 Y126.074 E1057.67079
G1 X154.959 Y127.339 E1060.91712
G1 X154.927 Y127.573 E1061.51854
G1 X154.744 Y128.813 E1064.71038
G1 X154.706 Y129.056 E1065.33669
G1 X154.498 Y130.269 E1068.47065
G1 X154.455 Y130.501 E1069.0715
G1 X154.233 Y131.643 E1072.03402
G1 X154.18 Y131.9 E1072.70223
G1 X153.906 Y133.144 E1075.94598
G1 X153.844 Y133.409 E1076.63902
G1 X153.57 Y134.517 E1079.54551
G1 X153.509 Y134.751 E1080.1613
G1 X153.205 Y135.87 E1083.1141
G1 X153.13 Y136.133 E1083.81052
G1 X152.816 Y137.181 E1086.59644
G1 X152.734 Y137.444 E1087.29796
G1 X152.395 Y138.477 E1090.0665
G1 X152.31 Y138.723 E1090.72928
G1 X151.974 Y139.668 E1093.28329
G1 X151.881 Y139.921 E1093.96969
G1 X151.45 Y141.042 E1097.02801
G1 X151.335 Y141.328 E1097.81298
G1 X151.01 Y142.105 E1099.9577
G1 X150.902 Y142.354 E1100.64885
G1 X150.435 Y143.395 E1103.55426
G1 X150.32 Y143.643 E1104.25038
G1 X149.912 Y144.493 E1106.65133
G1 X149.783 Y144.753 E1107.39042
G1 X149.328 Y145.638 E1109.92446
G1 X149.198 Y145.882 E1110.62849
G1 X148.755 Y146.691 E1112.97723
G1 X148.609 Y146.95 E1113.73434
G1 X148.136 Y147.759 E1116.12072
G1 X147.988 Y148.004 E1116.8496
G1 X147.479 Y148.823 E1119.30513
G1 X147.326 Y149.062 E1120.02777
G1 X146.852 Y149.781 E1122.22075
G1 X146.69 Y150.02 E1122.956
G1 X146.156 Y150.784 E1125.32963
G1 X145.992 Y151.012 E1126.04482
G1 X145.527 Y151.641 E1128.03672
