;FLAVOR:Marlin
;TIME:747
;Filament used: 9.45932m
;Layer height: 0.2
;MINX:90.922
;MINY:100.417
;MINZ:0.2
;MAXX:144.078
;MAXY:131.667
;MAXZ:6.4
;Generated with Cura_SteamEngine 4.8.0
M140 S60
M105
M190 S60
M104 S200
M105
M109 S200
M82 ;absolute extrusion mode
; Ender 3 Custom Start G-code
G92 E0 ; Reset Extruder
G28 ; Home all axes
G1 Z2.0 F3000 ; Move Z Axis up little to prevent scratching of Heat Bed
G1 X0.1 Y20 Z0.3 F5000.0 ; Move to start position
G1 X0.1 Y200.0 Z0.3 F1500.0 E15 ; Draw the first line
G1 X0.4 Y200.0 Z0.3 F5000.0 ; Move to side a little
G1 X0.4 Y20 Z0.3 F1500.0 E30 ; Draw the second line
G92 E0 ; Reset Extruder
G1 Z2.0 F3000 ; Move Z Axis up little to prevent scratching of Heat Bed
G1 X5 Y20 Z0.3 F5000.0 ; Move over to prevent blob squish
G92 E0
G92 E0
G1 F1500 E-6
;LAYER_COUNT:17
;LAYER:0
M107
M204 S500
M205 X8 Y8
G1 F300 Z0.6
G0 F6000 X95.215 Y108.027 Z0.6
;TYPE:SKIRT
G1 F300 Z0.2
G1 F1500 E0
G1 F1200 X95.388 Y107.878 E0.58141
G1 X96.319 Y107.162 E3.57222
G1 X96.395 Y107.11 E3.80671
G1 X96.859 Y106.81 E5.21373
G1 X97.054 Y106.691 E5.79546
G1 X97.86 Y106.246 E8.13996
G1 X98.355 Y106.016 E9.5299
G1 X98.636 Y105.894 E10.30999
G1 X99.495 Y105.564 E12.65328
G1 X100.223 Y105.349 E14.58627
G1 X100.492 Y105.28 E15.29345
G1 X101.756 Y105.037 E18.57114
G1 X102.086 Y104.994 E19.41858
G1 X102.359 Y104.962 E20.11853
G1 X102.58 Y104.939 E20.68434
G1 X102.897 Y104.911 E21.49472
G1 X105.722 Y104.703 E28.70799
G1 X108.368 Y104.472 E35.4716
G1 X110.858 Y104.182 E41.8552
G1 X113.377 Y103.817 E48.33677
G1 X113.793 Y103.746 E49.41142
G1 X115.086 Y103.538 E52.74635
G1 X115.379 Y103.495 E53.50046
G1 X115.787 Y103.441 E54.54848
G1 X116.546 Y103.368 E56.49018
G1 X116.814 Y103.352 E57.17385
G1 X117.547 Y103.333 E59.04105
G1 X117.757 Y103.335 E59.57583
G1 X118.664 Y103.383 E61.88872
G1 X119.02 Y103.417 E62.79939
G1 X119.443 Y103.466 E63.88376
G1 X119.739 Y103.508 E64.64506
G1 X120.657 Y103.653 E67.01171
G1 X121.794 Y103.848 E69.94933
G1 X124.272 Y104.202 E76.32357
G1 X126.799 Y104.49 E82.80018
G1 X129.191 Y104.696 E88.91391
G1 X131.684 Y104.879 E95.27936
G1 X132.777 Y104.976 E98.0736
G1 X132.888 Y104.988 E98.35791
G1 X133.526 Y105.077 E99.99829
G1 X133.726 Y105.111 E100.51489
G1 X134.626 Y105.304 E102.85883
G1 X135.13 Y105.449 E104.19431
G1 X135.343 Y105.516 E104.76291
G1 X136.208 Y105.831 E107.10713
G1 X136.754 Y106.074 E108.62899
G1 X137.168 Y106.273 E109.7987
G1 X137.98 Y106.708 E112.14446
G1 X138.918 Y107.333 E115.01472
G1 X139.139 Y107.498 E115.71704
G1 X139.852 Y108.08 E118.06076
G1 X140.31 Y108.515 E119.66926
G1 X140.516 Y108.722 E120.41293
G1 X141.295 Y109.596 E123.39428
G1 X141.381 Y109.704 E123.74584
G1 X141.848 Y110.337 E125.74897
G1 X141.97 Y110.516 E126.30059
G1 X142.559 Y111.488 E129.19474
G1 X142.613 Y111.589 E129.48639
G1 X142.895 Y112.157 E131.10125
G1 X142.987 Y112.357 E131.66184
G1 X143.4 Y113.397 E134.51136
G1 X143.427 Y113.477 E134.72637
G1 X143.574 Y113.948 E135.98282
G1 X143.633 Y114.154 E136.52848
G1 X143.848 Y115.05 E138.8749
G1 X143.941 Y115.603 E140.30287
G1 X143.976 Y115.853 E140.9457
G1 X144.064 Y116.77 E143.29155
G1 X144.078 Y117.401 E144.89878
G1 X144.075 Y117.811 E145.94286
G1 X144.028 Y118.73 E148.28613
G1 X143.873 Y119.792 E151.01915
G1 X143.812 Y120.1 E151.81869
G1 X143.461 Y121.421 E155.29932
G1 X143.425 Y121.528 E155.5868
G1 X143.256 Y121.992 E156.8443
G1 X143.177 Y122.195 E157.399
G1 X142.673 Y123.299 E160.48941
G1 X142.635 Y123.371 E160.69673
G1 X142.394 Y123.803 E161.95641
G1 X142.275 Y124.005 E162.55342
G1 X141.774 Y124.778 E164.89913
G1 X141.386 Y125.288 E166.53095
G1 X141.209 Y125.507 E167.248
G1 X140.46 Y126.339 E170.09872
G1 X140.362 Y126.437 E170.45165
G1 X139.804 Y126.957 E172.39393
G1 X139.633 Y127.105 E172.96983
G1 X138.682 Y127.838 E176.02739
G1 X138.606 Y127.89 E176.26189
G1 X138.121 Y128.203 E177.73179
G1 X137.925 Y128.322 E178.31569
G1 X137.118 Y128.765 E180.65997
G1 X136.642 Y128.986 E181.99637
G1 X136.363 Y129.107 E182.77078
G1 X135.503 Y129.436 E185.11553
G1 X134.796 Y129.645 E186.99291
G1 X134.525 Y129.715 E187.70565
G1 X133.244 Y129.963 E191.02826
G1 X132.914 Y130.006 E191.87571
G1 X132.641 Y130.038 E192.57565
G1 X132.42 Y130.061 E193.14147
G1 X132.103 Y130.089 E193.95184
G1 X129.278 Y130.297 E201.16512
G1 X126.632 Y130.528 E207.92873
G1 X124.142 Y130.818 E214.31232
G1 X121.623 Y131.183 E220.79389
G1 X121.207 Y131.254 E221.86855
G1 X119.914 Y131.462 E225.20347
G1 X119.621 Y131.505 E225.95758
G1 X119.213 Y131.559 E227.00561
G1 X118.454 Y131.632 E228.9473
G1 X118.186 Y131.648 E229.63098
G1 X117.453 Y131.667 E231.49817
G1 X117.243 Y131.665 E232.03296
G1 X116.336 Y131.617 E234.34585
G1 X115.98 Y131.583 E235.25652
G1 X115.557 Y131.534 E236.34088
G1 X115.261 Y131.492 E237.10219
G1 X114.343 Y131.347 E239.46884
G1 X113.206 Y131.152 E242.40646
G1 X110.728 Y130.798 E248.7807
G1 X108.201 Y130.51 E255.25731
G1 X105.809 Y130.304 E261.37103
G1 X103.316 Y130.121 E267.73648
G1 X102.223 Y130.024 E270.53073
G1 X102.112 Y130.012 E270.81503
G1 X101.474 Y129.923 E272.45542
G1 X101.274 Y129.889 E272.97202
G1 X100.374 Y129.696 E275.31595
G1 X99.87 Y129.551 E276.65144
G1 X99.657 Y129.484 E277.22004
G1 X98.792 Y129.169 E279.56425
G1 X98.246 Y128.926 E281.08611
G1 X97.832 Y128.727 E282.25582
G1 X97.02 Y128.292 E284.60158
G1 X96.289 Y127.817 E286.82153
G1 X95.929 Y127.554 E287.95684
G1 X95.764 Y127.428 E288.48551
G1 X94.899 Y126.69 E291.38097
G1 X94.82 Y126.615 E291.65836
G1 X94.406 Y126.2 E293.15109
G1 X94.257 Y126.042 E293.70412
G1 X93.528 Y125.181 E296.57697
G1 X93.468 Y125.102 E296.82959
G1 X93.089 Y124.571 E298.49086
G1 X92.961 Y124.379 E299.07848
G1 X92.383 Y123.402 E301.96917
G1 X92.151 Y122.937 E303.29248
G1 X92.05 Y122.722 E303.89737
G1 X91.695 Y121.873 E306.24072
G1 X91.488 Y121.251 E307.91004
G1 X91.401 Y120.96 E308.68348
G1 X91.176 Y120.068 E311.02608
G1 X91.057 Y119.377 E312.8116
G1 X91.022 Y119.124 E313.462
G1 X90.936 Y118.207 E315.80736
G1 X90.922 Y117.593 E317.37131
G1 X90.925 Y117.187 E318.40521
G1 X90.972 Y116.267 E320.75102
G1 X91.105 Y115.318 E323.19125
G1 X91.142 Y115.12 E323.70418
G1 X91.349 Y114.23 E326.03104
G1 X91.409 Y114.014 E326.60191
G1 X91.757 Y112.974 E329.39457
G1 X91.836 Y112.773 E329.94453
G1 X92.246 Y111.858 E332.49778
G1 X92.283 Y111.785 E332.70619
G1 X92.656 Y111.111 E334.66781
G1 X92.783 Y110.9 E335.29494
G1 X93.292 Y110.132 E337.64117
G1 X93.637 Y109.683 E339.08308
G1 X93.81 Y109.47 E339.78185
G1 X94.543 Y108.658 E342.56746
G1 X94.637 Y108.564 E342.90598
G1 X95.215 Y108.027 E344.91504
G0 F6000 X95.476 Y108.33
G1 F1200 X95.649 Y108.181 E345.49645
G1 X96.545 Y107.492 E348.37469
G1 X96.621 Y107.44 E348.60919
G1 X97.068 Y107.151 E349.96465
G1 X97.263 Y107.032 E350.54637
G1 X98.054 Y106.596 E352.84636
G1 X98.514 Y106.383 E354.13722
G1 X98.795 Y106.261 E354.91732
G1 X99.638 Y105.938 E357.21618
G1 X100.323 Y105.737 E359.03406
G1 X100.592 Y105.668 E359.74124
G1 X101.808 Y105.434 E362.89457
G1 X102.138 Y105.391 E363.74201
G1 X102.4 Y105.36 E364.41384
G1 X102.621 Y105.337 E364.97966
G1 X102.927 Y105.31 E365.76191
G1 X105.784 Y105.099 E373.05701
G1 X108.378 Y104.873 E379.6876
G1 X110.925 Y104.577 E386.21713
G1 X113.43 Y104.214 E392.66269
G1 X113.857 Y104.14 E393.76625
G1 X115.15 Y103.932 E397.10117
G1 X115.432 Y103.891 E397.82683
G1 X115.84 Y103.837 E398.87486
G1 X116.57 Y103.767 E400.74231
G1 X116.838 Y103.751 E401.42598
G1 X117.543 Y103.733 E403.22184
G1 X117.753 Y103.735 E403.75662
G1 X118.626 Y103.781 E405.98278
G1 X118.982 Y103.815 E406.89345
G1 X119.392 Y103.862 E407.94435
G1 X119.677 Y103.903 E408.67757
G1 X120.589 Y104.047 E411.02873
G1 X121.741 Y104.245 E414.00528
G1 X124.202 Y104.596 E420.33559
G1 X126.792 Y104.891 E426.97361
G1 X129.128 Y105.093 E432.94439
G1 X131.801 Y105.29 E439.76959
G1 X132.53 Y105.354 E441.63311
G1 X132.845 Y105.386 E442.43938
G1 X133.458 Y105.471 E444.01531
G1 X133.658 Y105.505 E444.53191
G1 X134.541 Y105.696 E446.83245
G1 X135.01 Y105.831 E448.07524
G1 X135.223 Y105.898 E448.64384
G1 X136.071 Y106.207 E450.94215
G1 X136.581 Y106.435 E452.36473
G1 X136.995 Y106.634 E453.53444
G1 X137.791 Y107.061 E455.83467
G1 X138.678 Y107.654 E458.55167
G1 X138.899 Y107.819 E459.254
G1 X139.598 Y108.391 E461.554
G1 X140.027 Y108.797 E463.05809
G1 X140.233 Y109.004 E463.80176
G1 X140.982 Y109.845 E466.66955
G1 X141.068 Y109.953 E467.02111
G1 X141.518 Y110.562 E468.94936
G1 X141.64 Y110.741 E469.50098
G1 X142.206 Y111.677 E472.28638
G1 X142.26 Y111.778 E472.57803
G1 X142.532 Y112.324 E474.13138
G1 X142.624 Y112.524 E474.69198
G1 X143.021 Y113.525 E477.43416
G1 X143.048 Y113.605 E477.64916
G1 X143.19 Y114.059 E478.8605
G1 X143.249 Y114.265 E479.40616
G1 X143.459 Y115.143 E481.70503
G1 X143.544 Y115.659 E483.03673
G1 X143.579 Y115.909 E483.67955
G1 X143.665 Y116.808 E485.97929
G1 X143.678 Y117.398 E487.48208
G1 X143.675 Y117.808 E488.52616
G1 X143.628 Y118.71 E490.8262
G1 X143.481 Y119.715 E493.41264
G1 X143.42 Y120.023 E494.21219
G1 X143.081 Y121.294 E497.56192
G1 X143.045 Y121.401 E497.8494
G1 X142.884 Y121.847 E499.05686
G1 X142.805 Y122.05 E499.61156
G1 X142.32 Y123.112 E502.58459
G1 X142.282 Y123.184 E502.7919
G1 X142.049 Y123.6 E504.00608
G1 X141.93 Y123.802 E504.6031
G1 X141.438 Y124.559 E506.90215
G1 X141.075 Y125.037 E508.43057
G1 X140.898 Y125.256 E509.14762
G1 X140.177 Y126.056 E511.89008
G1 X140.079 Y126.154 E512.243
G1 X139.542 Y126.654 E514.11145
G1 X139.371 Y126.802 E514.68734
G1 X138.456 Y127.508 E517.63032
G1 X138.38 Y127.56 E517.86482
G1 X137.914 Y127.861 E519.2775
G1 X137.718 Y127.98 E519.8614
G1 X136.926 Y128.414 E522.16117
G1 X136.482 Y128.619 E523.4065
G1 X136.203 Y128.74 E524.18091
G1 X135.36 Y129.062 E526.47886
G1 X134.696 Y129.258 E528.24185
G1 X134.425 Y129.328 E528.95459
G1 X133.192 Y129.566 E532.15236
G1 X132.862 Y129.609 E532.9998
G1 X132.6 Y129.64 E533.67163
G1 X132.379 Y129.663 E534.23745
G1 X132.073 Y129.69 E535.0197
G1 X129.216 Y129.901 E542.3148
G1 X126.622 Y130.127 E548.94539
G1 X124.075 Y130.423 E555.47492
G1 X121.57 Y130.786 E561.92048
G1 X121.143 Y130.86 E563.02404
G1 X119.85 Y131.068 E566.35896
G1 X119.568 Y131.109 E567.08462
G1 X119.16 Y131.163 E568.13265
G1 X118.43 Y131.233 E570.0001
G1 X118.162 Y131.249 E570.68377
G1 X117.457 Y131.267 E572.47963
G1 X117.247 Y131.265 E573.01441
G1 X116.374 Y131.219 E575.24057
G1 X116.018 Y131.185 E576.15124
G1 X115.608 Y131.138 E577.20214
G1 X115.323 Y131.097 E577.93536
G1 X114.411 Y130.953 E580.28652
G1 X113.259 Y130.755 E583.26307
G1 X110.798 Y130.404 E589.59338
G1 X108.208 Y130.109 E596.2314
G1 X105.872 Y129.907 E602.20218
G1 X103.199 Y129.71 E609.02738
G1 X102.47 Y129.646 E610.8909
G1 X102.155 Y129.614 E611.69717
G1 X101.542 Y129.529 E613.2731
G1 X101.342 Y129.495 E613.7897
G1 X100.459 Y129.304 E616.09024
G1 X99.99 Y129.169 E617.33303
G1 X99.777 Y129.102 E617.90163
G1 X98.929 Y128.793 E620.19994
G1 X98.419 Y128.565 E621.62252
G1 X98.005 Y128.366 E622.79223
G1 X97.209 Y127.939 E625.09246
G1 X96.521 Y127.491 E627.18313
G1 X96.171 Y127.236 E628.28586
G1 X96.006 Y127.11 E628.81453
G1 X95.174 Y126.4 E631.59978
G1 X95.095 Y126.325 E631.87717
G1 X94.697 Y125.926 E633.31228
G1 X94.548 Y125.768 E633.86531
G1 X93.846 Y124.939 E636.63154
G1 X93.786 Y124.86 E636.88416
G1 X93.422 Y124.349 E638.48179
G1 X93.294 Y124.157 E639.06941
G1 X92.738 Y123.217 E641.85048
G1 X92.513 Y122.767 E643.13165
G1 X92.412 Y122.552 E643.73655
G1 X92.065 Y121.718 E646.0368
G1 X91.871 Y121.137 E647.5966
G1 X91.784 Y120.846 E648.37004
G1 X91.564 Y119.97 E650.67003
G1 X91.453 Y119.322 E652.34418
G1 X91.418 Y119.069 E652.99457
G1 X91.334 Y118.17 E655.29383
G1 X91.322 Y117.596 E656.75583
G1 X91.325 Y117.19 E657.78973
G1 X91.372 Y116.288 E660.08977
G1 X91.499 Y115.391 E662.39674
G1 X91.536 Y115.193 E662.90967
G1 X91.734 Y114.337 E665.14701
G1 X91.794 Y114.121 E665.71788
G1 X92.129 Y113.12 E668.40586
G1 X92.208 Y112.919 E668.95582
G1 X92.603 Y112.039 E671.41211
G1 X92.64 Y111.966 E671.62052
G1 X92.999 Y111.317 E673.50918
G1 X93.126 Y111.106 E674.13631
G1 X93.625 Y110.354 E676.4345
G1 X93.948 Y109.935 E677.78171
G1 X94.121 Y109.722 E678.48047
G1 X94.826 Y108.941 E681.15971
G1 X94.92 Y108.847 E681.49823
G1 X95.476 Y108.33 E683.43159
G1 F1500 E677.43159
G1 F300 Z0.6
;MESH:Micro_Servo_Wing.stl
G0 F6000 X102.999 Y118.612 Z0.6
;TYPE:WALL-INNER
G1 F300 Z0.2
G1 F1500 E683.43159
G1 F1200 X103.354 Y118.491 E684.38665
G1 X103.505 Y118.439 E684.79333
G1 X103.872 Y118.05 E686.15519
G1 X103.905 Y117.935 E686.45985
G1 X103.944 Y118.014 E686.4617
G1 X104.042 Y118.215 E686.99018
G1 X104.472 Y118.532 E688.35056
G1 X104.999 Y118.612 E689.70793
G1 X105.505 Y118.439 E691.06968
G1 X105.872 Y118.05 E692.43153
G1 X105.905 Y117.935 E692.73619
G1 X105.944 Y118.014 E692.73804
G1 X106.042 Y118.215 E693.26653
G1 X106.472 Y118.532 E694.6269
G1 X106.999 Y118.612 E695.98427
G1 X107.505 Y118.439 E697.34602
G1 X107.872 Y118.05 E698.70787
G1 X107.905 Y117.935 E699.01254
G1 X107.944 Y118.014 E699.01438
G1 X108.042 Y118.215 E699.54287
G1 X108.472 Y118.532 E700.90324
G1 X108.999 Y118.612 E702.26061
G1 X109.505 Y118.439 E703.62236
G1 X109.872 Y118.05 E704.98422
G1 X109.905 Y117.935 E705.28888
G1 X109.944 Y118.014 E705.29073
G1 X110.042 Y118.215 E705.81921
G1 X110.472 Y118.532 E707.17959
G1 X110.999 Y118.612 E708.53696
G1 X111.505 Y118.439 E709.8987
G1 X111.872 Y118.05 E711.26056
G1 X111.905 Y117.935 E711.56522
G1 X111.944 Y118.014 E711.56707
G1 X112.042 Y118.215 E712.09555
G1 X112.472 Y118.532 E713.45593
G1 X112.999 Y118.612 E714.8133
G1 X113.505 Y118.439 E716.17505
G1 X113.872 Y118.05 E717.5369
G1 X114.018 Y117.534 E718.90247
G1 X113.905 Y117.011 E720.26501
G1 X113.565 Y116.603 E721.61744
G1 X113.076 Y116.395 E722.97063
G1 X112.537 Y116.444 E724.34884
G1 X112.086 Y116.735 E725.71562
G1 X111.925 Y117.022 E726.5536
G1 X111.912 Y117.045 E726.62088
G1 X111.905 Y117.011
G1 X111.844 Y116.938
G1 X111.565 Y116.603 E727.73106
G1 X111.076 Y116.395 E729.08426
G1 X110.537 Y116.444 E730.46247
G1 X110.086 Y116.735 E731.82925
G1 X109.925 Y117.022 E732.66723
G1 X109.912 Y117.045 E732.7345
G1 X109.905 Y117.011
G1 X109.844 Y116.938
G1 X109.565 Y116.603 E733.84468
G1 X109.076 Y116.395 E735.19788
G1 X108.537 Y116.444 E736.57609
G1 X108.086 Y116.735 E737.94287
G1 X107.925 Y117.022 E738.78085
G1 X107.912 Y117.045 E738.84813
G1 X107.905 Y117.011
G1 X107.844 Y116.938
G1 X107.565 Y116.603 E739.95831
G1 X107.076 Y116.395 E741.3115
G1 X106.537 Y116.444 E742.68971
G1 X106.086 Y116.735 E744.05649
G1 X105.925 Y117.022 E744.89447
G1 X105.912 Y117.045 E744.96175
G1 X105.905 Y117.011
G1 X105.844 Y116.938
G1 X105.565 Y116.603 E746.07193
G1 X105.076 Y116.395 E747.42513
G1 X104.537 Y116.444 E748.80334
G1 X104.086 Y116.735 E750.17012
G1 X103.925 Y117.022 E751.0081
G1 X103.912 Y117.045 E751.07537
G1 X103.905 Y117.011
G1 X103.844 Y116.938
G1 X103.565 Y116.603 E752.18555
G1 X103.257 Y116.472 E753.03786
G1 X103.163 Y116.432 E753.298
G1 X103.076 Y116.395 E753.53875
G1 X102.864 Y116.414 E754.08077
G1 X102.599 Y116.438 E754.75834
G1 X102.85 Y116.263 E754.96482
G1 X103.014 Y116.209 E755.12784
G1 X103.297 Y116.116 E755.73139
G1 X103.4 Y116.103 E755.97793
G1 X103.415 Y116.101 E756.01647
G1 X115.032 Y115.252 E785.67781
G1 X115.336 Y115.23 E786.45396
G1 X115.529 Y115.215 E786.94692
G1 X115.347 Y115.373 E787.13006
G1 X115.149 Y115.605 E787.67719
G1 X115.06 Y115.71 E788.0277
G1 X114.826 Y116.084 E789.15113
G1 X114.649 Y116.489 E790.27665
G1 X114.531 Y116.915 E791.40229
G1 X114.48 Y117.352 E792.52266
G1 X114.488 Y117.793 E793.64584
G1 X114.563 Y118.228 E794.7699
G1 X114.7 Y118.65 E795.89973
G1 X114.898 Y119.044 E797.0226
G1 X115.122 Y119.366 E798.02146
G1 X115.151 Y119.408 E798.15143
G1 X115.454 Y119.729 E799.27549
G1 X115.526 Y119.786 E799.50934
G1 X115.451 Y119.781 E799.51108
G1 X115.126 Y119.757 E800.00494
G1 X115.075 Y119.754 E800.12777
G1 X103.422 Y118.899 E829.88166
G1 X103.328 Y118.876 E830.12809
G1 X102.963 Y118.79 E830.83305
G1 X102.91 Y118.757 E830.99204
G1 X102.58 Y118.552 E831.98132
G1 X102.575 Y118.548 E831.99763
G1 X102.999 Y118.612 E832.29158
G0 F6000 X102.963 Y118.202
;TYPE:WALL-OUTER
G1 F1200 X103.282 Y118.093 E833.15002
G1 X103.514 Y117.847 E834.01109
