;FLAVOR:Marlin
;TIME:6314
;Filament used: 149.828m
;Layer height: 0.2
;MINX:97.83
;MINY:97.83
;MINZ:0.2
;MAXX:137.162
;MAXY:137.17
;MAXZ:84.2
;Generated with Cura_SteamEngine 4.8.0
M140 S60
M105
M190 S60
M104 S210
M105
M109 S210
M82 ;absolute extrusion mode
; Ender 3 Custom Start G-code
G92 E0 ; Reset Extruder
G28 ; Home all axes
G1 Z2.0 F3000 ; Move Z Axis up little to prevent scratching of Heat Bed
G1 X0.1 Y20 Z0.3 F5000.0 ; Move to start position
G1 X0.1 Y200.0 Z0.3 F1500.0 E15 ; Draw the first line
G1 X0.4 Y200.0 Z0.3 F5000.0 ; Move to side a little
G1 X0.4 Y20 Z0.3 F1500.0 E30 ; Draw the second line
G92 E0 ; Reset Extruder
G1 Z2.0 F3000 ; Move Z Axis up little to prevent scratching of Heat Bed
G1 X5 Y20 Z0.3 F5000.0 ; Move over to prevent blob squish
G92 E0
G92 E0
G1 F1500 E-5
;LAYER_COUNT:406
;LAYER:0
M107
M204 S500
M205 X8 Y8
G1 F300 Z0.4
G0 F6000 X103.601 Y103.58 Z0.4
;TYPE:SKIRT
G1 F300 Z0.2
G1 F1500 E0
G1 F1200 X103.915 Y103.275 E1.11471
G1 X104.246 Y102.965 E2.26953
G1 X104.473 Y102.762 E3.04501
G1 X104.795 Y102.485 E4.12663
G1 X105.08 Y102.251 E5.06566
G1 X105.477 Y101.937 E6.3546
G1 X106.043 Y101.518 E8.14787
G1 X106.549 Y101.168 E9.7146
G1 X107.18 Y100.763 E11.62392
G1 X107.783 Y100.404 E13.41098
G1 X108.234 Y100.15 E14.72906
G1 X108.474 Y100.022 E15.4217
G1 X109.089 Y99.718 E17.16867
G1 X109.337 Y99.605 E17.86266
G1 X109.664 Y99.463 E18.77048
G1 X109.887 Y99.37 E19.38575
G1 X110.23 Y99.233 E20.32629
G1 X110.854 Y98.997 E22.02514
G1 X111.255 Y98.854 E23.10926
G1 X111.518 Y98.766 E23.81548
G1 X112.179 Y98.568 E25.5726
G1 X112.66 Y98.44 E26.84009
G1 X113.338 Y98.282 E28.61286
G1 X114.055 Y98.139 E30.47464
G1 X114.617 Y98.042 E31.92693
G1 X114.891 Y98.002 E32.63206
G1 X115.532 Y97.928 E34.27519
G1 X115.971 Y97.895 E35.39625
G1 X116.777 Y97.85 E37.45191
G1 X117.184 Y97.835 E38.48903
G1 X117.398 Y97.831 E39.03407
G1 X117.771 Y97.83 E39.98391
G1 X118.146 Y97.84 E40.93918
G1 X118.562 Y97.858 E41.99951
G1 X119.119 Y97.897 E43.42137
G1 X119.437 Y97.927 E44.23474
G1 X120.024 Y97.998 E45.74042
G1 X120.763 Y98.108 E47.643
G1 X121.314 Y98.204 E49.06725
G1 X121.607 Y98.263 E49.82834
G1 X122.21 Y98.403 E51.40471
G1 X122.398 Y98.452 E51.89944
G1 X122.705 Y98.536 E52.70995
G1 X123.315 Y98.714 E54.32808
G1 X123.78 Y98.861 E55.56996
G1 X124.106 Y98.972 E56.44691
G1 X124.698 Y99.193 E58.05605
G1 X124.863 Y99.26 E58.50953
G1 X125.226 Y99.415 E59.51465
G1 X125.614 Y99.589 E60.59749
G1 X126.01 Y99.776 E61.71267
G1 X126.547 Y100.043 E63.23983
G1 X126.936 Y100.247 E64.35836
G1 X127.113 Y100.344 E64.87234
G1 X127.66 Y100.664 E66.48611
G1 X128.154 Y100.973 E67.96989
G1 X128.751 Y101.374 E69.80125
G1 X129.241 Y101.727 E71.3391
G1 X129.831 Y102.184 E73.23951
G1 X130.334 Y102.601 E74.90332
G1 X130.706 Y102.923 E76.15619
G1 X130.922 Y103.119 E76.89893
G1 X131.42 Y103.601 E78.66378
G1 X131.725 Y103.915 E79.77849
G1 X132.035 Y104.246 E80.93332
G1 X132.238 Y104.473 E81.70879
G1 X132.515 Y104.795 E82.79041
G1 X132.749 Y105.08 E83.72944
G1 X133.063 Y105.477 E85.01839
G1 X133.482 Y106.043 E86.81165
G1 X133.832 Y106.549 E88.37838
G1 X134.236 Y107.178 E90.28204
G1 X134.588 Y107.769 E92.03373
G1 X134.833 Y108.204 E93.30506
G1 X134.968 Y108.456 E94.03305
G1 X135.282 Y109.089 E95.8324
G1 X135.395 Y109.337 E96.52639
G1 X135.537 Y109.664 E97.43421
G1 X135.63 Y109.887 E98.04948
G1 X135.767 Y110.23 E98.99002
G1 X136.003 Y110.854 E100.68887
G1 X136.142 Y111.243 E101.74079
G1 X136.23 Y111.505 E102.44459
G1 X136.438 Y112.199 E104.28952
G1 X136.565 Y112.68 E105.55635
G1 X136.714 Y113.325 E107.24208
G1 X136.855 Y114.028 E109.06791
G1 X136.949 Y114.567 E110.46118
G1 X136.992 Y114.855 E111.2027
G1 X137.069 Y115.494 E112.84167
G1 X137.104 Y115.953 E114.01389
G1 X137.146 Y116.703 E115.92675
G1 X137.162 Y117.435 E117.79121
G1 X137.155 Y118.094 E119.46944
G1 X137.137 Y118.619 E120.80713
G1 X137.12 Y118.91 E121.54941
G1 X137.064 Y119.549 E123.18285
G1 X137.045 Y119.711 E123.59821
G1 X136.997 Y120.073 E124.5281
G1 X136.892 Y120.768 E126.31799
G1 X136.803 Y121.276 E127.6313
G1 X136.741 Y121.587 E128.43884
G1 X136.607 Y122.172 E129.96711
G1 X136.56 Y122.355 E130.44824
G1 X136.462 Y122.714 E131.39588
G1 X136.282 Y123.328 E133.02522
G1 X136.142 Y123.769 E134.20345
G1 X136.031 Y124.096 E135.08281
G1 X135.807 Y124.698 E136.71848
G1 X135.74 Y124.863 E137.17196
G1 X135.583 Y125.231 E138.19079
G1 X135.411 Y125.614 E139.25993
G1 X135.229 Y125.998 E140.34204
G1 X134.964 Y126.532 E141.8601
G1 X134.784 Y126.879 E142.85554
G1 X134.686 Y127.06 E143.37967
G1 X134.338 Y127.658 E145.14155
G1 X134.027 Y128.155 E146.63451
G1 X133.626 Y128.752 E148.46587
G1 X133.275 Y129.239 E149.99454
G1 X132.822 Y129.824 E151.87865
G1 X132.402 Y130.331 E153.55517
G1 X132.111 Y130.669 E154.69093
G1 X131.808 Y131 E155.83364
G1 X131.411 Y131.408 E157.28329
G1 X131.098 Y131.713 E158.39617
G1 X130.754 Y132.035 E159.59605
G1 X130.527 Y132.238 E160.37152
G1 X130.192 Y132.526 E161.49651
G1 X129.927 Y132.742 E162.36709
G1 X129.528 Y133.058 E163.66319
G1 X128.957 Y133.482 E165.47427
G1 X128.451 Y133.832 E167.041
G1 X127.82 Y134.237 E168.95032
G1 X127.217 Y134.596 E170.73738
G1 X126.754 Y134.857 E172.09083
G1 X126.517 Y134.983 E172.77433
G1 X125.92 Y135.277 E174.46893
G1 X125.668 Y135.392 E175.1743
G1 X125.374 Y135.521 E175.99187
G1 X125.151 Y135.615 E176.60812
G1 X124.766 Y135.769 E177.66404
G1 X124.144 Y136.004 E179.35722
G1 X123.735 Y136.15 E180.4631
G1 X123.471 Y136.238 E181.17174
G1 X122.821 Y136.432 E182.8991
G1 X122.34 Y136.56 E184.16658
G1 X121.662 Y136.718 E185.93936
G1 X120.945 Y136.861 E187.80114
G1 X120.389 Y136.957 E189.23793
G1 X120.116 Y136.997 E189.94054
G1 X119.482 Y137.071 E191.56597
G1 X119.368 Y137.081 E191.85739
G1 X119.016 Y137.106 E192.756
G1 X118.223 Y137.15 E194.77847
G1 X117.836 Y137.165 E195.7647
G1 X117.588 Y137.17 E196.39635
G1 X116.897 Y137.162 E198.15609
G1 X116.499 Y137.145 E199.17051
G1 X116.205 Y137.128 E199.92042
G1 X115.975 Y137.112 E200.50753
G1 X115.439 Y137.062 E201.87837
G1 X115.296 Y137.045 E202.24508
G1 X114.971 Y137.001 E203.08023
G1 X114.234 Y136.891 E204.97778
G1 X113.694 Y136.797 E206.37356
G1 X113.4 Y136.738 E207.13715
G1 X112.829 Y136.608 E208.6284
G1 X112.642 Y136.56 E209.12002
G1 X112.284 Y136.461 E210.06588
G1 X111.673 Y136.282 E211.68717
G1 X111.22 Y136.139 E212.89684
G1 X110.894 Y136.028 E213.77379
G1 X110.323 Y135.815 E215.3257
G1 X110.157 Y135.748 E215.78155
G1 X109.751 Y135.575 E216.90537
G1 X109.363 Y135.4 E217.98925
G1 X109.003 Y135.23 E219.00306
G1 X108.466 Y134.964 E220.52909
G1 X108.063 Y134.753 E221.68747
G1 X107.886 Y134.656 E222.20144
G1 X107.33 Y134.331 E223.84142
G1 X106.837 Y134.022 E225.32305
G1 X106.246 Y133.624 E227.13747
G1 X105.755 Y133.27 E228.67887
G1 X105.169 Y132.817 E230.56499
G1 X104.667 Y132.401 E232.22521
G1 X104.294 Y132.077 E233.48335
G1 X104.078 Y131.881 E234.22608
G1 X103.583 Y131.403 E235.97837
G1 X103.269 Y131.08 E237.12548
G1 X102.943 Y130.729 E238.34534
G1 X102.747 Y130.509 E239.09565
G1 X102.524 Y130.251 E239.96405
G1 X102.257 Y129.926 E241.03512
G1 X101.944 Y129.531 E242.31849
G1 X101.521 Y128.96 E244.12805
G1 X101.17 Y128.453 E245.69833
G1 X100.759 Y127.814 E247.63305
G1 X100.401 Y127.212 E249.41662
G1 X100.15 Y126.766 E250.71985
G1 X100.022 Y126.526 E251.41249
G1 X99.718 Y125.911 E253.15946
G1 X99.605 Y125.663 E253.85346
G1 X99.463 Y125.336 E254.76128
G1 X99.37 Y125.113 E255.37655
G1 X99.232 Y124.766 E256.32749
G1 X98.994 Y124.136 E258.04243
G1 X98.853 Y123.74 E259.11285
G1 X98.767 Y123.483 E259.80297
G1 X98.568 Y122.821 E261.56326
G1 X98.44 Y122.34 E262.83074
G1 X98.282 Y121.662 E264.60351
G1 X98.139 Y120.945 E266.4653
G1 X98.043 Y120.389 E267.90209
G1 X98.003 Y120.116 E268.6047
G1 X97.929 Y119.482 E270.23013
G1 X97.894 Y119.018 E271.41505
G1 X97.85 Y118.227 E273.43243
G1 X97.835 Y117.821 E274.46701
G1 X97.83 Y117.553 E275.14958
G1 X97.839 Y116.856 E276.92463
G1 X97.856 Y116.476 E277.89326
G1 X97.874 Y116.168 E278.67891
G1 X97.891 Y115.935 E279.27382
G1 X97.933 Y115.486 E280.42218
G1 X97.949 Y115.346 E280.781
G1 X97.999 Y114.969 E281.74943
G1 X98.112 Y114.213 E283.69596
G1 X98.203 Y113.689 E285.05029
G1 X98.258 Y113.413 E285.76693
G1 X98.409 Y112.761 E287.47118
G1 X98.458 Y112.575 E287.96099
G1 X98.541 Y112.275 E288.75363
G1 X98.725 Y111.649 E290.41516
G1 X98.86 Y111.222 E291.55556
G1 X98.965 Y110.912 E292.38902
G1 X99.214 Y110.25 E294.19009
G1 X99.282 Y110.085 E294.64454
G1 X99.42 Y109.763 E295.53664
G1 X99.595 Y109.374 E296.62284
G1 X99.767 Y109.011 E297.64573
G1 X100.037 Y108.465 E299.19682
G1 X100.262 Y108.033 E300.43717
G1 X100.354 Y107.866 E300.92269
G1 X100.663 Y107.341 E302.47396
G1 X100.972 Y106.847 E303.95775
G1 X101.375 Y106.247 E305.79829
G1 X101.729 Y105.756 E307.33969
G1 X102.184 Y105.169 E309.23095
G1 X102.601 Y104.666 E310.89475
G1 X102.923 Y104.294 E312.14763
G1 X103.119 Y104.078 E312.89036
G1 X103.601 Y103.58 E314.65522
G0 F6000 X103.879 Y103.866
G1 F1200 X104.193 Y103.561 E315.76993
G1 X104.513 Y103.264 E316.88169
G1 X104.74 Y103.061 E317.65717
G1 X105.053 Y102.79 E318.71145
G1 X105.328 Y102.565 E319.61626
G1 X105.725 Y102.251 E320.9052
G1 X106.271 Y101.847 E322.63481
G1 X106.777 Y101.497 E324.20154
G1 X107.384 Y101.107 E326.0388
G1 X107.987 Y100.748 E327.82586
G1 X108.422 Y100.503 E329.09718
G1 X108.662 Y100.375 E329.78983
G1 X109.255 Y100.082 E331.47416
G1 X109.503 Y99.969 E332.16815
G1 X109.818 Y99.832 E333.04288
G1 X110.041 Y99.739 E333.65814
G1 X110.371 Y99.607 E334.56322
G1 X110.995 Y99.371 E336.26207
G1 X111.382 Y99.234 E337.30748
G1 X111.645 Y99.146 E338.0137
G1 X112.282 Y98.954 E339.70789
G1 X112.763 Y98.826 E340.97538
G1 X113.416 Y98.675 E342.68211
G1 X114.133 Y98.532 E344.54389
G1 X114.675 Y98.438 E345.94469
G1 X114.949 Y98.398 E346.64982
G1 X115.566 Y98.326 E348.23166
G1 X115.993 Y98.294 E349.32205
G1 X116.799 Y98.249 E351.37771
G1 X117.192 Y98.235 E352.37911
G1 X117.406 Y98.231 E352.92415
G1 X117.765 Y98.23 E353.83834
G1 X118.128 Y98.24 E354.76307
G1 X118.544 Y98.258 E355.82339
G1 X119.082 Y98.295 E357.19663
G1 X119.4 Y98.325 E358.01001
G1 X119.965 Y98.394 E359.45946
G1 X120.704 Y98.504 E361.36204
G1 X121.235 Y98.597 E362.7348
G1 X121.528 Y98.656 E363.4959
G1 X122.109 Y98.79 E365.01424
G1 X122.297 Y98.839 E365.50897
G1 X122.593 Y98.92 E366.29044
G1 X123.203 Y99.098 E367.90858
G1 X123.651 Y99.24 E369.10534
G1 X123.977 Y99.351 E369.98229
G1 X124.548 Y99.564 E371.5342
G1 X124.713 Y99.631 E371.98769
G1 X125.062 Y99.78 E372.95402
G1 X125.45 Y99.954 E374.03686
G1 X125.832 Y100.134 E375.11219
G1 X126.369 Y100.401 E376.63936
G1 X126.744 Y100.597 E377.71685
G1 X126.921 Y100.694 E378.23083
G1 X127.448 Y101.003 E379.78649
G1 X127.942 Y101.312 E381.27028
G1 X128.517 Y101.698 E383.03383
G1 X129.007 Y102.051 E384.57168
G1 X129.576 Y102.492 E386.40487
G1 X130.079 Y102.909 E388.06867
G1 X130.437 Y103.219 E389.2746
G1 X130.653 Y103.415 E390.01733
G1 X131.134 Y103.879 E391.7192
G1 X131.439 Y104.193 E392.83391
G1 X131.736 Y104.513 E393.94567
G1 X131.939 Y104.74 E394.72115
G1 X132.21 Y105.053 E395.77544
G1 X132.435 Y105.328 E396.68024
G1 X132.749 Y105.725 E397.96919
G1 X133.153 Y106.271 E399.69879
G1 X133.503 Y106.777 E401.26552
G1 X133.892 Y107.383 E403.09926
G1 X134.244 Y107.974 E404.85095
G1 X134.481 Y108.392 E406.07456
G1 X134.616 Y108.644 E406.80256
G1 X134.918 Y109.255 E408.53814
G1 X135.031 Y109.503 E409.23213
G1 X135.168 Y109.818 E410.10685
G1 X135.261 Y110.041 E410.72212
G1 X135.393 Y110.371 E411.62719
G1 X135.629 Y110.995 E413.32605
G1 X135.762 Y111.37 E414.33926
G1 X135.85 Y111.632 E415.04306
G1 X136.051 Y112.301 E416.82189
G1 X136.178 Y112.782 E418.08872
G1 X136.322 Y113.403 E419.71204
G1 X136.463 Y114.106 E421.53787
G1 X136.554 Y114.626 E422.88216
G1 X136.597 Y114.914 E423.62367
G1 X136.67 Y115.53 E425.20328
G1 X136.704 Y115.975 E426.33977
G1 X136.746 Y116.725 E428.25262
G1 X136.762 Y117.431 E430.0509
G1 X136.755 Y118.09 E431.72912
G1 X136.738 Y118.595 E433.01582
G1 X136.721 Y118.886 E433.75811
G1 X136.667 Y119.503 E435.33529
G1 X136.648 Y119.665 E435.75065
G1 X136.601 Y120.013 E436.64487
G1 X136.496 Y120.708 E438.43476
G1 X136.41 Y121.197 E439.6991
G1 X136.348 Y121.508 E440.50664
G1 X136.22 Y122.073 E441.98186
G1 X136.173 Y122.256 E442.46299
G1 X136.078 Y122.601 E443.37422
G1 X135.898 Y123.215 E445.00356
G1 X135.763 Y123.64 E446.1391
G1 X135.652 Y123.967 E447.01847
G1 X135.436 Y124.548 E448.59691
G1 X135.369 Y124.713 E449.0504
G1 X135.218 Y125.068 E450.03278
G1 X135.046 Y125.451 E451.10191
G1 X134.871 Y125.82 E452.14188
G1 X134.606 Y126.354 E453.65993
G1 X134.432 Y126.689 E454.62121
G1 X134.334 Y126.87 E455.14535
G1 X133.999 Y127.446 E456.84215
G1 X133.688 Y127.943 E458.33512
G1 X133.301 Y128.518 E460.10009
G1 X132.95 Y129.005 E461.62876
G1 X132.514 Y129.569 E463.44409
G1 X132.094 Y130.076 E465.12061
G1 X131.812 Y130.404 E466.22211
G1 X131.515 Y130.729 E467.34324
G1 X131.132 Y131.122 E468.74065
G1 X130.819 Y131.427 E469.85353
G1 X130.487 Y131.736 E471.00848
G1 X130.26 Y131.939 E471.78396
G1 X129.934 Y132.22 E472.87994
G1 X129.679 Y132.429 E473.71953
G1 X129.28 Y132.745 E475.01563
G1 X128.729 Y133.153 E476.76153
G1 X128.223 Y133.503 E478.32826
G1 X127.616 Y133.893 E480.16552
G1 X127.013 Y134.252 E481.95258
G1 X126.566 Y134.503 E483.25803
G1 X126.329 Y134.629 E483.94153
G1 X125.754 Y134.913 E485.57462
G1 X125.502 Y135.028 E486.28
G1 X125.218 Y135.153 E487.07015
G1 X124.995 Y135.247 E487.6864
G1 X124.624 Y135.395 E488.70354
G1 X124.002 Y135.63 E490.39673
G1 X123.608 Y135.77 E491.4615
G1 X123.344 Y135.858 E492.17013
G1 X122.718 Y136.046 E493.83457
G1 X122.237 Y136.174 E495.10205
G1 X121.584 Y136.325 E496.80878
G1 X120.867 Y136.468 E498.67056
G1 X120.331 Y136.561 E500.05587
G1 X120.058 Y136.601 E500.75848
G1 X119.447 Y136.672 E502.32485
G1 X118.994 Y136.707 E503.48184
G1 X118.201 Y136.751 E505.50431
G1 X117.828 Y136.765 E506.45481
G1 X117.58 Y136.77 E507.08647
G1 X116.914 Y136.762 E508.78254
G1 X116.516 Y136.745 E509.79697
G1 X116.232 Y136.729 E510.52131
G1 X116.002 Y136.713 E511.10842
G1 X115.487 Y136.665 E512.42554
G1 X115.344 Y136.648 E512.79225
G1 X115.03 Y136.606 E513.59897
G1 X114.293 Y136.496 E515.49651
G1 X113.772 Y136.405 E516.84331
G1 X113.478 Y136.346 E517.6069
G1 X112.929 Y136.22 E519.04127
G1 X112.742 Y136.172 E519.5329
G1 X112.397 Y136.077 E520.44413
G1 X111.786 Y135.898 E522.06542
G1 X111.349 Y135.76 E523.2324
G1 X111.023 Y135.649 E524.10936
G1 X110.473 Y135.445 E525.60316
G1 X110.307 Y135.378 E526.05901
G1 X109.916 Y135.211 E527.14169
G1 X109.528 Y135.036 E528.22558
G1 X109.181 Y134.872 E529.20292
G1 X108.644 Y134.606 E530.72895
G1 X108.255 Y134.403 E531.8463
G1 X108.078 Y134.306 E532.36028
G1 X107.543 Y133.992 E533.93996
G1 X107.05 Y133.683 E535.42158
G1 X106.48 Y133.299 E537.17173
G1 X105.989 Y132.945 E538.71313
G1 X105.424 Y132.509 E540.53047
G1 X104.922 Y132.093 E542.19069
G1 X104.563 Y131.781 E543.40188
G1 X104.347 Y131.585 E544.14461
G1 X103.87 Y131.124 E545.83385
G1 X103.556 Y130.801 E546.98097
G1 X103.241 Y130.463 E548.15751
G1 X103.045 Y130.243 E548.90782
G1 X102.83 Y129.994 E549.74555
G1 X102.57 Y129.677 E550.78957
G1 X102.257 Y129.282 E552.07294
G1 X101.85 Y128.733 E553.81323
G1 X101.499 Y128.226 E555.38351
G1 X101.103 Y127.61 E557.24831
G1 X100.745 Y127.008 E559.03188
G1 X100.503 Y126.578 E560.28836
G1 X100.375 Y126.338 E560.981
G1 X100.082 Y125.745 E562.66534
G1 X99.969 Y125.497 E563.35933
G1 X99.832 Y125.182 E564.23405
G1 X99.739 Y124.959 E564.84932
G1 X99.606 Y124.625 E565.7648
G1 X99.368 Y123.995 E567.47974
G1 X99.232 Y123.613 E568.51231
G1 X99.146 Y123.356 E569.20242
G1 X98.954 Y122.718 E570.89905
G1 X98.826 Y122.237 E572.16653
G1 X98.675 Y121.584 E573.87326
G1 X98.532 Y120.867 E575.73505
G1 X98.439 Y120.331 E577.12035
G1 X98.399 Y120.058 E577.82296
G1 X98.328 Y119.447 E579.38933
G1 X98.293 Y118.996 E580.54125
G1 X98.249 Y118.205 E582.55863
G1 X98.235 Y117.814 E583.55494
G1 X98.23 Y117.546 E584.23751
G1 X98.239 Y116.874 E585.9489
G1 X98.256 Y116.494 E586.91753
G1 X98.273 Y116.197 E587.67507
G1 X98.29 Y115.964 E588.26998
G1 X98.331 Y115.531 E589.37754
G1 X98.347 Y115.391 E589.73636
G1 X98.394 Y115.028 E590.66845
