;FLAVOR:Marlin
;TIME:14511
;Filament used: 333.04m
;Layer height: 0.2
;MINX:79.7
;MINY:99.75
;MINZ:0.2
;MAXX:155.3
;MAXY:135.25
;MAXZ:41
;Generated with Cura_SteamEngine 4.8.0
M140 S60
M105
M190 S60
M104 S210
M105
M109 S210
M82 ;absolute extrusion mode
; Ender 3 Custom Start G-code
G92 E0 ; Reset Extruder
G28 ; Home all axes
G1 Z2.0 F3000 ; Move Z Axis up little to prevent scratching of Heat Bed
G1 X0.1 Y20 Z0.3 F5000.0 ; Move to start position
G1 X0.1 Y200.0 Z0.3 F1500.0 E15 ; Draw the first line
G1 X0.4 Y200.0 Z0.3 F5000.0 ; Move to side a little
G1 X0.4 Y20 Z0.3 F1500.0 E30 ; Draw the second line
G92 E0 ; Reset Extruder
G1 Z2.0 F3000 ; Move Z Axis up little to prevent scratching of Heat Bed
G1 X5 Y20 Z0.3 F5000.0 ; Move over to prevent blob squish
G92 E0
G92 E0
G1 F1500 E-6.5
;LAYER_COUNT:205
;LAYER:0
M107
G0 F6000 X82.466 Y101.698 Z0.2
;TYPE:SKIRT
G1 F1500 E0
G1 F1200 X83.085 Y101.208 E2.01037
G1 X83.751 Y100.783 E4.02221
G1 X84.456 Y100.428 E6.03224
G1 X85.194 Y100.146 E8.04407
G1 X85.956 Y99.94 E10.05414
G1 X87.033 Y99.784 E12.82532
G1 X87.209 Y99.771 E13.27472
G1 X87.784 Y99.75 E14.73992
G1 X147.383 Y99.75 E166.50753
G1 X148.172 Y99.79 E168.51928
G1 X148.952 Y99.909 E170.52852
G1 X149.717 Y100.107 E172.54077
G1 X150.457 Y100.381 E174.55019
G1 X151.166 Y100.729 E176.5614
G1 X151.837 Y101.147 E178.57451
G1 X152.461 Y101.63 E180.58392
G1 X152.898 Y102.035 E182.10115
G1 X153.015 Y102.152 E182.52249
G1 X153.545 Y102.738 E184.53453
G1 X154.012 Y103.374 E186.5438
G1 X154.413 Y104.054 E188.55407
G1 X154.743 Y104.772 E190.56631
G1 X154.998 Y105.519 E192.57631
G1 X155.177 Y106.288 E194.58691
G1 X155.277 Y107.072 E196.59952
G1 X155.3 Y107.667 E198.11581
G1 X155.3 Y127.333 E248.19486
G1 X155.26 Y128.122 E250.20662
G1 X155.141 Y128.902 E252.21585
G1 X154.943 Y129.667 E254.2281
G1 X154.669 Y130.407 E256.23752
G1 X154.321 Y131.116 E258.24873
G1 X153.903 Y131.787 E260.26185
G1 X153.42 Y132.411 E262.27125
G1 X153.015 Y132.848 E263.78848
G1 X152.898 Y132.965 E264.20983
G1 X152.312 Y133.495 E266.22186
G1 X151.676 Y133.962 E268.23114
G1 X150.996 Y134.363 E270.24141
G1 X150.278 Y134.693 E272.25365
G1 X149.531 Y134.948 E274.26365
G1 X148.762 Y135.127 E276.27424
G1 X147.978 Y135.227 E278.28685
G1 X147.383 Y135.25 E279.80314
G1 X87.617 Y135.25 E431.99601
G1 X86.828 Y135.21 E434.00776
G1 X86.048 Y135.091 E436.017
G1 X85.283 Y134.893 E438.02925
G1 X84.543 Y134.619 E440.03867
G1 X83.834 Y134.271 E442.04988
G1 X83.163 Y133.853 E444.06299
G1 X82.539 Y133.37 E446.0724
G1 X82.102 Y132.965 E447.58962
G1 X81.985 Y132.848 E448.01097
G1 X81.455 Y132.262 E450.02301
G1 X80.988 Y131.626 E452.03228
G1 X80.587 Y130.946 E454.04255
G1 X80.257 Y130.228 E456.05479
G1 X80.002 Y129.481 E458.06479
G1 X79.823 Y128.712 E460.07538
G1 X79.723 Y127.928 E462.088
G1 X79.7 Y127.333 E463.60428
G1 X79.7 Y107.679 E513.65278
G1 X79.74 Y106.89 E515.66454
G1 X79.859 Y106.11 E517.67377
G1 X80.057 Y105.345 E519.68602
G1 X80.331 Y104.605 E521.69544
G1 X80.679 Y103.896 E523.70665
G1 X81.097 Y103.225 E525.71977
G1 X81.791 Y102.364 E528.53585
G1 X81.899 Y102.248 E528.93945
G1 X82.466 Y101.698 E530.95099
G0 F6000 X82.745 Y101.986
G1 F1200 X83.35 Y101.511 E532.90971
G1 X84.001 Y101.102 E534.86749
G1 X84.691 Y100.762 E536.82629
G1 X85.413 Y100.496 E538.78566
G1 X86.158 Y100.306 E540.74351
G1 X87.063 Y100.183 E543.06926
G1 X87.239 Y100.17 E543.51867
G1 X87.784 Y100.15 E544.90743
G1 X147.383 Y100.15 E696.67504
G1 X148.151 Y100.19 E698.63338
G1 X148.911 Y100.309 E700.59229
G1 X149.654 Y100.507 E702.55035
G1 X150.373 Y100.781 E704.50971
G1 X151.059 Y101.128 E706.46737
G1 X151.706 Y101.544 E708.42611
G1 X152.306 Y102.025 E710.38435
G1 X152.616 Y102.317 E711.46882
G1 X152.733 Y102.434 E711.89017
G1 X153.247 Y103.006 E713.84844
G1 X153.7 Y103.628 E715.8079
G1 X154.086 Y104.293 E717.76591
G1 X154.401 Y104.995 E719.72525
G1 X154.641 Y105.726 E721.68449
G1 X154.804 Y106.477 E723.64142
G1 X154.888 Y107.242 E725.60119
G1 X154.9 Y107.667 E726.68387
G1 X154.9 Y127.333 E776.76293
G1 X154.86 Y128.101 E778.72128
G1 X154.741 Y128.861 E780.68018
G1 X154.543 Y129.604 E782.63825
G1 X154.269 Y130.323 E784.59761
G1 X153.922 Y131.009 E786.55526
G1 X153.506 Y131.656 E788.51401
G1 X153.025 Y132.256 E790.47225
G1 X152.733 Y132.566 E791.55671
G1 X152.616 Y132.683 E791.97806
G1 X152.044 Y133.197 E793.93634
G1 X151.422 Y133.65 E795.89579
G1 X150.757 Y134.036 E797.8538
G1 X150.055 Y134.351 E799.81315
G1 X149.324 Y134.591 E801.77238
G1 X148.573 Y134.754 E803.72932
G1 X147.808 Y134.838 E805.68908
G1 X147.383 Y134.85 E806.77177
G1 X87.617 Y134.85 E958.96463
G1 X86.849 Y134.81 E960.92298
G1 X86.089 Y134.691 E962.88189
G1 X85.346 Y134.493 E964.83995
G1 X84.627 Y134.219 E966.79931
G1 X83.941 Y133.872 E968.75696
G1 X83.294 Y133.456 E970.71571
G1 X82.694 Y132.975 E972.67395
G1 X82.384 Y132.683 E973.75842
G1 X82.267 Y132.566 E974.17977
G1 X81.753 Y131.994 E976.13804
G1 X81.3 Y131.372 E978.09749
G1 X80.914 Y130.707 E980.0555
G1 X80.599 Y130.005 E982.01485
G1 X80.359 Y129.274 E983.97409
G1 X80.196 Y128.523 E985.93102
G1 X80.112 Y127.758 E987.89079
G1 X80.1 Y127.333 E988.97347
G1 X80.1 Y107.679 E1039.02197
G1 X80.14 Y106.911 E1040.98032
G1 X80.259 Y106.151 E1042.93922
G1 X80.457 Y105.408 E1044.89729
G1 X80.731 Y104.689 E1046.85665
G1 X81.078 Y104.003 E1048.8143
G1 X81.494 Y103.356 E1050.77304
G1 X82.084 Y102.637 E1053.14149
G1 X82.192 Y102.521 E1053.54509
G1 X82.745 Y101.986 E1055.50445
G0 F6000 X83.023 Y102.274
G1 F1200 X83.614 Y101.815 E1057.40999
G1 X84.25 Y101.421 E1059.31515
G1 X84.925 Y101.098 E1061.22068
G1 X85.63 Y100.848 E1063.12548
G1 X86.358 Y100.676 E1065.03036
G1 X87.092 Y100.582 E1066.91474
G1 X87.268 Y100.569 E1067.36414
G1 X87.784 Y100.55 E1068.67901
G1 X147.383 Y100.55 E1220.44662
G1 X148.13 Y100.59 E1222.35156
G1 X148.868 Y100.709 E1224.25514
G1 X149.59 Y100.907 E1226.16158
G1 X150.286 Y101.18 E1228.0654
G1 X150.949 Y101.527 E1229.97097
G1 X151.572 Y101.942 E1231.87718
G1 X152.333 Y102.6 E1234.439
G1 X152.45 Y102.717 E1234.86035
G1 X152.95 Y103.274 E1236.76638
G1 X153.387 Y103.88 E1238.66894
G1 X153.758 Y104.53 E1240.57479
G1 X154.057 Y105.216 E1242.48039
G1 X154.281 Y105.93 E1244.38596
G1 X154.428 Y106.663 E1246.28969
G1 X154.5 Y107.667 E1248.85292
G1 X154.5 Y127.333 E1298.93198
G1 X154.46 Y128.08 E1300.83692
G1 X154.341 Y128.818 E1302.7405
G1 X154.143 Y129.54 E1304.64694
G1 X153.87 Y130.236 E1306.55076
G1 X153.523 Y130.899 E1308.45633
G1 X153.108 Y131.522 E1310.36254
G1 X152.45 Y132.283 E1312.92436
G1 X152.333 Y132.4 E1313.34571
G1 X151.776 Y132.9 E1315.25174
G1 X151.17 Y133.337 E1317.1543
G1 X150.52 Y133.708 E1319.06015
G1 X149.834 Y134.007 E1320.96575
G1 X149.12 Y134.231 E1322.87132
G1 X148.387 Y134.378 E1324.77505
G1 X147.383 Y134.45 E1327.33828
G1 X87.617 Y134.45 E1479.53115
G1 X86.87 Y134.41 E1481.43609
G1 X86.132 Y134.291 E1483.33967
G1 X85.41 Y134.093 E1485.24611
G1 X84.714 Y133.82 E1487.14993
G1 X84.051 Y133.473 E1489.0555
G1 X83.428 Y133.058 E1490.96171
G1 X82.667 Y132.4 E1493.52353
G1 X82.55 Y132.283 E1493.94488
G1 X82.05 Y131.726 E1495.85091
G1 X81.613 Y131.12 E1497.75347
G1 X81.242 Y130.47 E1499.65932
G1 X80.943 Y129.784 E1501.56492
G1 X80.719 Y129.07 E1503.47049
G1 X80.572 Y128.337 E1505.37422
G1 X80.5 Y127.333 E1507.93745
G1 X80.5 Y107.679 E1557.98595
G1 X80.54 Y106.932 E1559.8909
G1 X80.659 Y106.194 E1561.79447
G1 X80.857 Y105.472 E1563.70091
G1 X81.13 Y104.776 E1565.60473
G1 X81.477 Y104.113 E1567.5103
G1 X81.892 Y103.49 E1569.41651
G1 X82.377 Y102.909 E1571.34376
G1 X82.485 Y102.793 E1571.74736
G1 X83.023 Y102.274 E1573.65093
G0 F6000 X83.301 Y102.562
G1 F1200 X83.877 Y102.119 E1575.50134
G1 X84.497 Y101.742 E1577.34912
G1 X85.156 Y101.435 E1579.20041
G1 X85.844 Y101.203 E1581.04932
G1 X86.554 Y101.048 E1582.8999
G1 X87.122 Y100.981 E1584.35633
G1 X87.298 Y100.968 E1584.80573
G1 X87.784 Y100.95 E1586.04417
G1 X147.383 Y100.95 E1737.81178
G1 X148.108 Y100.99 E1739.66078
G1 X148.825 Y101.109 E1741.51158
G1 X149.524 Y101.307 E1743.36161
G1 X150.197 Y101.58 E1745.21102
G1 X150.836 Y101.925 E1747.06024
G1 X151.433 Y102.339 E1748.91026
G1 X152.05 Y102.883 E1751.00492
G1 X152.167 Y103 E1751.42627
G1 X152.651 Y103.541 E1753.27477
G1 X153.074 Y104.132 E1755.1255
G1 X153.428 Y104.766 E1756.97459
G1 X153.711 Y105.435 E1758.82434
G1 X153.919 Y106.131 E1760.67414
G1 X154.049 Y106.846 E1762.52472
G1 X154.1 Y107.667 E1764.61941
G1 X154.1 Y127.333 E1814.69847
G1 X154.06 Y128.058 E1816.54748
G1 X153.941 Y128.775 E1818.39828
G1 X153.743 Y129.474 E1820.2483
G1 X153.47 Y130.147 E1822.09771
G1 X153.125 Y130.786 E1823.94693
G1 X152.711 Y131.383 E1825.79695
G1 X152.167 Y132 E1827.89161
G1 X152.05 Y132.117 E1828.31296
G1 X151.509 Y132.601 E1830.16146
G1 X150.918 Y133.024 E1832.01219
G1 X150.284 Y133.378 E1833.86128
G1 X149.615 Y133.661 E1835.71103
G1 X148.919 Y133.869 E1837.56083
G1 X148.204 Y133.999 E1839.41142
G1 X147.383 Y134.05 E1841.50611
G1 X87.617 Y134.05 E1993.69898
G1 X86.892 Y134.01 E1995.54798
G1 X86.175 Y133.891 E1997.39878
G1 X85.476 Y133.693 E1999.2488
G1 X84.803 Y133.42 E2001.09822
G1 X84.164 Y133.075 E2002.94744
G1 X83.567 Y132.661 E2004.79746
G1 X82.95 Y132.117 E2006.89212
G1 X82.833 Y132 E2007.31347
G1 X82.349 Y131.459 E2009.16197
G1 X81.926 Y130.868 E2011.0127
G1 X81.572 Y130.234 E2012.86179
G1 X81.289 Y129.565 E2014.71154
G1 X81.081 Y128.869 E2016.56134
G1 X80.951 Y128.154 E2018.41192
G1 X80.9 Y127.333 E2020.50661
G1 X80.9 Y107.679 E2070.55511
G1 X80.94 Y106.954 E2072.40412
G1 X81.059 Y106.237 E2074.25492
G1 X81.257 Y105.538 E2076.10494
G1 X81.53 Y104.865 E2077.95435
G1 X81.875 Y104.226 E2079.80357
G1 X82.289 Y103.629 E2081.65359
G1 X82.669 Y103.182 E2083.1476
G1 X82.777 Y103.066 E2083.55119
G1 X83.301 Y102.562 E2085.4026
G0 F6000 X83.578 Y102.851
G1 F1200 X84.139 Y102.425 E2087.19637
G1 X84.743 Y102.064 E2088.98822
G1 X85.385 Y101.775 E2090.78107
G1 X86.056 Y101.56 E2092.57533
G1 X86.746 Y101.423 E2094.3667
G1 X87.151 Y101.38 E2095.40382
G1 X87.327 Y101.367 E2095.85322
G1 X87.784 Y101.35 E2097.01776
G1 X147.383 Y101.35 E2248.78537
G1 X148.086 Y101.39 E2250.57844
G1 X148.78 Y101.509 E2252.37149
G1 X149.455 Y101.707 E2254.16279
G1 X150.104 Y101.979 E2255.95473
G1 X150.718 Y102.324 E2257.74818
G1 X151.289 Y102.735 E2259.53972
G1 X151.767 Y103.166 E2261.17868
G1 X151.884 Y103.283 E2261.60003
G1 X152.353 Y103.808 E2263.3927
G1 X152.759 Y104.383 E2265.18514
G1 X153.097 Y105.001 E2266.97886
G1 X153.364 Y105.652 E2268.77063
G1 X153.554 Y106.33 E2270.56365
G1 X153.667 Y107.025 E2272.35669
G1 X153.7 Y107.667 E2273.99369
G1 X153.7 Y127.333 E2324.07275
G1 X153.66 Y128.036 E2325.86582
G1 X153.541 Y128.73 E2327.65887
G1 X153.343 Y129.405 E2329.45017
G1 X153.071 Y130.054 E2331.24211
G1 X152.726 Y130.668 E2333.03556
G1 X152.315 Y131.239 E2334.8271
G1 X151.884 Y131.717 E2336.46606
G1 X151.767 Y131.834 E2336.88741
G1 X151.242 Y132.303 E2338.68008
G1 X150.667 Y132.709 E2340.47252
G1 X150.049 Y133.047 E2342.26624
G1 X149.398 Y133.314 E2344.05801
G1 X148.72 Y133.504 E2345.85103
G1 X148.025 Y133.617 E2347.64407
G1 X147.383 Y133.65 E2349.28107
G1 X87.617 Y133.65 E2501.47394
G1 X86.914 Y133.61 E2503.26701
G1 X86.22 Y133.491 E2505.06006
G1 X85.545 Y133.293 E2506.85136
G1 X84.896 Y133.021 E2508.6433
G1 X84.282 Y132.676 E2510.43675
G1 X83.711 Y132.265 E2512.22829
G1 X83.233 Y131.834 E2513.86725
G1 X83.116 Y131.717 E2514.2886
G1 X82.647 Y131.192 E2516.08127
G1 X82.241 Y130.617 E2517.87371
G1 X81.903 Y129.999 E2519.66743
G1 X81.636 Y129.348 E2521.4592
G1 X81.446 Y128.67 E2523.25222
G1 X81.333 Y127.975 E2525.04527
G1 X81.3 Y127.333 E2526.68226
G1 X81.3 Y107.679 E2576.73076
G1 X81.34 Y106.976 E2578.52383
G1 X81.459 Y106.282 E2580.31688
G1 X81.657 Y105.607 E2582.10818
G1 X81.929 Y104.958 E2583.90012
G1 X82.274 Y104.344 E2585.69358
G1 X82.685 Y103.773 E2587.48511
G1 X82.962 Y103.454 E2588.56095
G1 X83.07 Y103.338 E2588.96455
G1 X83.578 Y102.851 E2590.75658
G0 F6000 X83.855 Y103.141
G1 F1200 X84.4 Y102.731 E2592.49328
G1 X84.988 Y102.389 E2594.22546
G1 X85.612 Y102.117 E2595.95887
G1 X86.264 Y101.921 E2597.69257
G1 X87.181 Y101.779 E2600.05552
G1 X87.357 Y101.766 E2600.50492
G1 X87.784 Y101.75 E2601.59303
G1 X147.383 Y101.75 E2753.36064
G1 X148.063 Y101.79 E2755.09524
G1 X148.733 Y101.909 E2756.82808
G1 X149.385 Y102.106 E2758.56252
G1 X150.009 Y102.378 E2760.29592
G1 X150.597 Y102.722 E2762.03067
G1 X151.141 Y103.132 E2763.76533
G1 X151.484 Y103.449 E2764.95467
G1 X151.601 Y103.566 E2765.37602
G1 X152.054 Y104.075 E2767.11116
G1 X152.443 Y104.633 E2768.8433
G1 X152.765 Y105.233 E2770.57731
G1 X153.014 Y105.867 E2772.31183
G1 X153.187 Y106.526 E2774.04682
G1 X153.281 Y107.2 E2775.77976
G1 X153.3 Y107.667 E2776.96995
G1 X153.3 Y127.333 E2827.04901
G1 X153.26 Y128.013 E2828.7836
G1 X153.141 Y128.683 E2830.51645
G1 X152.944 Y129.335 E2832.25088
G1 X152.672 Y129.959 E2833.98429
G1 X152.328 Y130.547 E2835.71903
G1 X151.918 Y131.091 E2837.4537
G1 X151.601 Y131.434 E2838.64304
G1 X151.484 Y131.551 E2839.06439
G1 X150.975 Y132.004 E2840.79953
G1 X150.417 Y132.393 E2842.53167
G1 X149.817 Y132.715 E2844.26568
G1 X149.183 Y132.964 E2846.0002
G1 X148.524 Y133.137 E2847.73519
G1 X147.85 Y133.231 E2849.46813
G1 X147.383 Y133.25 E2850.65832
G1 X87.617 Y133.25 E3002.85118
G1 X86.937 Y133.21 E3004.58578
G1 X86.267 Y133.091 E3006.31863
G1 X85.615 Y132.894 E3008.05306
G1 X84.991 Y132.622 E3009.78647
G1 X84.403 Y132.278 E3011.52121
G1 X83.859 Y131.868 E3013.25588
G1 X83.516 Y131.551 E3014.44522
G1 X83.399 Y131.434 E3014.86657
G1 X82.946 Y130.925 E3016.60171
G1 X82.557 Y130.367 E3018.33385
G1 X82.235 Y129.767 E3020.06786
G1 X81.986 Y129.133 E3021.80238
G1 X81.813 Y128.474 E3023.53737
G1 X81.719 Y127.8 E3025.27031
G1 X81.7 Y127.333 E3026.46049
G1 X81.7 Y107.679 E3076.50899
G1 X81.74 Y106.999 E3078.24359
G1 X81.859 Y106.329 E3079.97644
G1 X82.056 Y105.677 E3081.71087
G1 X82.328 Y105.053 E3083.44428
G1 X82.672 Y104.465 E3085.17902
G1 X83.255 Y103.727 E3087.57398
G1 X83.363 Y103.611 E3087.97758
G1 X83.855 Y103.141 E3089.71024
G0 F6000 X84.132 Y103.431
G1 F1200 X84.659 Y103.039 E3091.38278
G1 X85.231 Y102.715 E3093.05681
G1 X85.837 Y102.462 E3094.72906
G1 X86.47 Y102.284 E3096.4035
G1 X87.21 Y102.178 E3098.30713
G1 X87.386 Y102.165 E3098.75653
G1 X87.784 Y102.15 E3099.77075
G1 X147.383 Y102.15 E3251.53835
G1 X148.039 Y102.19 E3253.21195
G1 X148.685 Y102.309 E3254.88465
G1 X149.312 Y102.506 E3256.55825
G1 X149.91 Y102.778 E3258.23117
G1 X150.471 Y103.12 E3259.90427
G1 X151.201 Y103.732 E3262.33004
G1 X151.318 Y103.849 E3262.75139
G1 X151.754 Y104.341 E3264.42542
G1 X152.126 Y104.882 E3266.09732
G1 X152.43 Y105.464 E3267.76937
G1 X152.661 Y106.079 E3269.44229
G1 X152.816 Y106.718 E3271.11668
G1 X152.9 Y107.667 E3273.54273
G1 X152.9 Y127.333 E3323.62179
G1 X152.86 Y127.989 E3325.29538
G1 X152.741 Y128.635 E3326.96809
G1 X152.544 Y129.262 E3328.64168
G1 X152.272 Y129.86 E3330.3146
G1 X151.93 Y130.421 E3331.98771
G1 X151.318 Y131.151 E3334.41348
G1 X151.201 Y131.268 E3334.83483
G1 X150.709 Y131.704 E3336.50886
G1 X150.168 Y132.076 E3338.18076
G1 X149.586 Y132.38 E3339.85281
G1 X148.971 Y132.611 E3341.52572
G1 X148.332 Y132.766 E3343.20011
G1 X147.383 Y132.85 E3345.62617
G1 X87.617 Y132.85 E3497.81904
G1 X86.961 Y132.81 E3499.49263
G1 X86.315 Y132.691 E3501.16533
G1 X85.688 Y132.494 E3502.83893
G1 X85.09 Y132.222 E3504.51185
G1 X84.529 Y131.88 E3506.18496
G1 X83.799 Y131.268 E3508.61073
G1 X83.682 Y131.151 E3509.03208
G1 X83.246 Y130.659 E3510.7061
G1 X82.874 Y130.118 E3512.37801
G1 X82.57 Y129.536 E3514.05006
G1 X82.339 Y128.921 E3515.72297
G1 X82.184 Y128.282 E3517.39736
G1 X82.1 Y127.333 E3519.82342
G1 X82.1 Y107.679 E3569.87192
G1 X82.14 Y107.023 E3571.54551
G1 X82.259 Y106.377 E3573.21821
G1 X82.456 Y105.75 E3574.89181
G1 X82.728 Y105.152 E3576.56473
G1 X83.07 Y104.591 E3578.23783
G1 X83.548 Y103.999 E3580.17542
G1 X83.656 Y103.883 E3580.57901
G1 X84.132 Y103.431 E3582.25056
G0 F6000 X84.408 Y103.721
G1 F1200 X84.918 Y103.348 E3583.85954
G1 X85.471 Y103.043 E3585.46773
G1 X86.059 Y102.809 E3587.07927
G1 X86.671 Y102.652 E3588.68818
G1 X87.24 Y102.577 E3590.14966
G1 X87.416 Y102.564 E3590.59906
