;FLAVOR:Marlin
;TIME:20504
;Filament used: 505.566m
;Layer height: 0.2
;MINX:48.5
;MINY:91.7
;MINZ:0.2
;MAXX:185.162
;MAXY:172.298
;MAXZ:41.5
;ZOFFSETPROCESSED
;Generated with Cura_SteamEngine 4.8.0
M140 S60
M105
M190 S60
M104 S210
M105
M109 S210
M82 ;absolute extrusion mode
; Ender 3 Custom Start G-code
G92 E0 ; Reset Extruder
G28 ; Home all axes
G1 Z2.0 F3000 ; Move Z Axis up little to prevent scratching of Heat Bed
G1 X0.1 Y20 Z0.3 F5000.0 ; Move to start position
G1 X0.1 Y200.0 Z0.3 F1500.0 E15 ; Draw the first line
G1 X0.4 Y200.0 Z0.3 F5000.0 ; Move to side a little
G1 X0.4 Y20 Z0.3 F1500.0 E30 ; Draw the second line
G92 E0 ; Reset Extruder
G1 Z2.0 F3000 ; Move Z Axis up little to prevent scratching of Heat Bed
G1 X5 Y20 Z0.3 F5000.0 ; Move over to prevent blob squish
G92 E0
G92 E0
G1 F1500 E-6.5
;LAYER_COUNT:205
;LAYER:0
M107
G1 F300 Z0.5 ;adjusted by z offset
G92 Z0.7 ;consider this the original z before offset
G0 F6000 X52.804 Y92.587 Z0.7
;TYPE:SKIRT
G1 F300 Z0.2
G1 F1500 E0
G1 F1200 X53.522 Y92.257 E2.01224
G1 X54.269 Y92.002 E4.02224
G1 X55.038 Y91.823 E6.03283
G1 X55.822 Y91.723 E8.04545
G1 X56.417 Y91.7 E9.56173
G1 X172.47 Y91.7 E305.08827
G1 X172.867 Y91.72 E306.10051
G1 X173.387 Y91.7 E307.42565
G1 X175.016 Y91.7 E311.57387
G1 X175.426 Y91.721 E312.61929
G1 X175.531 Y91.71 E312.88814
G1 X175.933 Y91.7 E313.91214
G1 X177.245 Y91.7 E317.25312
G1 X178.034 Y91.74 E319.26487
G1 X178.814 Y91.859 E321.27411
G1 X179.579 Y92.057 E323.28636
G1 X180.319 Y92.331 E325.29578
G1 X181.028 Y92.679 E327.30699
G1 X181.699 Y93.097 E329.3201
G1 X182.323 Y93.58 E331.32951
G1 X182.76 Y93.985 E332.84673
G1 X182.877 Y94.102 E333.26808
G1 X183.407 Y94.688 E335.28012
G1 X183.874 Y95.324 E337.28939
G1 X184.275 Y96.004 E339.29966
G1 X184.605 Y96.722 E341.3119
G1 X184.86 Y97.469 E343.3219
G1 X185.039 Y98.238 E345.33249
G1 X185.139 Y99.022 E347.34511
G1 X185.162 Y99.617 E348.86139
G1 X185.162 Y106.383 E366.09087
G1 X185.122 Y107.172 E368.10262
G1 X185.003 Y107.952 E370.11186
G1 X184.805 Y108.717 E372.12411
G1 X184.531 Y109.457 E374.13353
G1 X184.183 Y110.166 E376.14474
G1 X183.765 Y110.837 E378.15785
G1 X183.282 Y111.461 E380.16726
G1 X182.877 Y111.898 E381.68449
G1 X182.76 Y112.015 E382.10583
G1 X182.174 Y112.545 E384.11787
G1 X181.538 Y113.012 E386.12714
G1 X180.858 Y113.413 E388.13741
G1 X180.14 Y113.743 E390.14965
G1 X179.393 Y113.998 E392.15965
G1 X178.624 Y114.177 E394.17025
G1 X177.84 Y114.277 E396.18286
G1 X177.245 Y114.3 E397.69915
G1 X175.933 Y114.3 E401.04013
G1 X175.536 Y114.28 E402.05236
G1 X175.016 Y114.3 E403.37751
G1 X173.388 Y114.3 E407.52318
G1 X172.978 Y114.279 E408.5686
G1 X172.874 Y114.29 E408.83491
G1 X172.471 Y114.3 E409.86146
G1 X155.3 Y114.3 E453.58705
G1 X155.3 Y127.333 E486.77532
G1 X155.26 Y128.122 E488.78707
G1 X155.141 Y128.902 E490.7963
G1 X154.943 Y129.667 E492.80855
G1 X154.669 Y130.407 E494.81798
G1 X154.321 Y131.116 E496.82919
G1 X153.903 Y131.787 E498.8423
G1 X153.42 Y132.411 E500.8517
G1 X153.015 Y132.848 E502.36893
G1 X152.898 Y132.965 E502.79028
G1 X152.312 Y133.495 E504.80231
G1 X151.676 Y133.962 E506.81159
G1 X150.996 Y134.363 E508.82186
G1 X150.278 Y134.693 E510.8341
G1 X149.531 Y134.948 E512.8441
G1 X148.762 Y135.127 E514.85469
G1 X147.978 Y135.227 E516.8673
G1 X147.383 Y135.25 E518.38359
G1 X140.69 Y135.25 E535.42718
G1 X140.931 Y135.703 E536.73382
G1 X141.132 Y136.149 E537.97956
G1 X141.235 Y136.387 E538.63994
G1 X141.446 Y136.9 E540.05247
G1 X141.514 Y137.071 E540.52108
G1 X141.691 Y137.532 E541.77856
G1 X141.936 Y138.283 E543.79016
G1 X142.104 Y139.054 E545.79957
G1 X142.194 Y139.839 E547.81165
G1 X142.203 Y140.629 E549.8235
G1 X142.097 Y141.6 E552.31082
G1 X142.465 Y142.255 E554.22398
G1 X142.781 Y142.979 E556.23559
G1 X143.022 Y143.731 E558.24648
G1 X143.186 Y144.503 E560.25623
G1 X143.279 Y145.491 E562.78328
G1 X143.294 Y145.976 E564.01891
G1 X143.298 Y146.217 E564.63269
G1 X143.298 Y146.775 E566.05363
G1 X143.294 Y147.012 E566.65723
G1 X143.279 Y147.505 E567.91323
G1 X143.215 Y148.292 E569.92392
G1 X143.072 Y149.069 E571.93577
G1 X142.851 Y149.827 E573.94636
G1 X142.555 Y150.559 E575.95702
G1 X142.099 Y151.397 E578.38644
G1 X142.184 Y152.047 E580.05575
G1 X142.207 Y152.837 E582.06832
G1 X142.151 Y153.624 E584.07747
G1 X142.015 Y154.402 E586.08867
G1 X141.695 Y155.456 E588.89363
G1 X141.52 Y155.914 E590.14216
G1 X141.442 Y156.11 E590.67934
G1 X141.227 Y156.63 E592.11223
G1 X141.129 Y156.858 E592.74418
G1 X140.93 Y157.299 E593.97622
G1 X140.569 Y158.002 E595.98863
G1 X140.139 Y158.664 E597.99881
G1 X139.644 Y159.279 E600.00916
G1 X139.09 Y159.842 E602.02053
G1 X138.355 Y160.436 E604.427
G1 X138.145 Y161.175 E606.38336
G1 X137.854 Y161.91 E608.39637
G1 X137.491 Y162.611 E610.40659
G1 X137.058 Y163.271 E612.41668
G1 X136.452 Y164.003 E614.83659
G1 X136.114 Y164.364 E616.09591
G1 X135.928 Y164.556 E616.77663
G1 X135.539 Y164.944 E618.17573
G1 X135.369 Y165.108 E618.77723
G1 X135.01 Y165.445 E620.0311
G1 X134.408 Y165.956 E622.04189
G1 X133.757 Y166.403 E624.05282
G1 X133.064 Y166.782 E626.0642
G1 X132.337 Y167.089 E628.07379
G1 X131.436 Y167.355 E630.46607
G1 X130.958 Y167.96 E632.42951
G1 X130.408 Y168.527 E634.44105
G1 X129.804 Y169.035 E636.4508
G1 X129.151 Y169.48 E638.46306
G1 X128.302 Y169.928 E640.90755
G1 X127.857 Y170.129 E642.15097
G1 X127.613 Y170.235 E642.82841
G1 X127.1 Y170.446 E644.24094
G1 X126.929 Y170.514 E644.70955
G1 X126.468 Y170.691 E645.96703
G1 X125.717 Y170.936 E647.97863
G1 X124.946 Y171.104 E649.98804
G1 X124.161 Y171.194 E652.00012
G1 X123.371 Y171.203 E654.01197
G1 X122.4 Y171.097 E656.49929
G1 X121.745 Y171.465 E658.41245
G1 X121.021 Y171.781 E660.42406
G1 X120.269 Y172.022 E662.43495
G1 X119.497 Y172.186 E664.4447
G1 X118.506 Y172.279 E666.97935
G1 X118.014 Y172.294 E668.2328
G1 X117.776 Y172.298 E668.83895
G1 X117.225 Y172.298 E670.24206
G1 X116.988 Y172.294 E670.84566
G1 X116.495 Y172.279 E672.10166
G1 X115.708 Y172.215 E674.11235
G1 X114.931 Y172.072 E676.12419
G1 X114.173 Y171.851 E678.13479
G1 X113.441 Y171.555 E680.14545
G1 X112.603 Y171.099 E682.57487
G1 X111.953 Y171.184 E684.24418
G1 X111.163 Y171.207 E686.25675
G1 X110.376 Y171.151 E688.26589
G1 X109.598 Y171.015 E690.2771
G1 X108.543 Y170.695 E693.0845
G1 X108.08 Y170.518 E694.34673
G1 X107.884 Y170.44 E694.88391
G1 X107.369 Y170.227 E696.30309
G1 X107.142 Y170.129 E696.93271
G1 X106.701 Y169.93 E698.16475
G1 X105.998 Y169.569 E700.17716
G1 X105.336 Y169.139 E702.18734
G1 X104.721 Y168.644 E704.19769
G1 X104.158 Y168.09 E706.20906
G1 X103.565 Y167.356 E708.61195
G1 X102.81 Y167.14 E710.61167
G1 X102.076 Y166.848 E712.62326
G1 X101.376 Y166.483 E714.63357
G1 X100.716 Y166.049 E716.64506
G1 X99.997 Y165.452 E719.02485
G1 X99.636 Y165.114 E720.28417
G1 X99.444 Y164.928 E720.9649
G1 X99.055 Y164.538 E722.36759
G1 X98.891 Y164.368 E722.9691
G1 X98.555 Y164.01 E724.21937
G1 X98.044 Y163.407 E726.2321
G1 X97.597 Y162.757 E728.24093
G1 X97.218 Y162.064 E730.25231
G1 X96.911 Y161.336 E732.26424
G1 X96.645 Y160.436 E734.65408
G1 X96.04 Y159.958 E736.61753
G1 X95.473 Y159.408 E738.62907
G1 X94.965 Y158.804 E740.63882
G1 X94.52 Y158.151 E742.65107
G1 X94.072 Y157.302 E745.09557
G1 X93.871 Y156.857 E746.33898
G1 X93.765 Y156.612 E747.01876
G1 X93.552 Y156.094 E748.445
G1 X93.484 Y155.923 E748.91362
G1 X93.309 Y155.467 E750.15738
G1 X93.064 Y154.716 E752.16898
G1 X92.895 Y153.944 E754.18142
G1 X92.806 Y153.16 E756.19068
G1 X92.797 Y152.37 E758.20253
G1 X92.903 Y151.4 E760.68732
G1 X92.535 Y150.745 E762.60049
G1 X92.219 Y150.021 E764.61209
G1 X91.978 Y149.269 E766.62298
G1 X91.814 Y148.497 E768.63273
G1 X91.721 Y147.509 E771.15978
G1 X91.706 Y147.024 E772.39541
G1 X91.702 Y146.783 E773.0092
G1 X91.702 Y146.225 E774.43013
G1 X91.706 Y145.988 E775.03373
G1 X91.721 Y145.495 E776.28973
G1 X91.785 Y144.708 E778.30042
G1 X91.928 Y143.931 E780.31227
G1 X92.149 Y143.173 E782.32286
G1 X92.445 Y142.441 E784.33352
G1 X92.901 Y141.603 E786.76295
G1 X92.816 Y140.953 E788.43225
G1 X92.793 Y140.163 E790.44482
G1 X92.849 Y139.376 E792.45397
G1 X92.985 Y138.598 E794.46517
G1 X93.305 Y137.544 E797.27013
G1 X93.48 Y137.086 E798.51866
G1 X93.558 Y136.89 E799.05584
G1 X93.773 Y136.37 E800.48873
G1 X93.869 Y136.148 E801.10464
G1 X94.068 Y135.706 E802.339
G1 X94.302 Y135.25 E803.64416
G1 X87.617 Y135.25 E820.66737
G1 X86.828 Y135.21 E822.67912
G1 X86.048 Y135.091 E824.68836
G1 X85.283 Y134.893 E826.70061
G1 X84.543 Y134.619 E828.71003
G1 X83.834 Y134.271 E830.72124
G1 X83.163 Y133.853 E832.73435
G1 X82.539 Y133.37 E834.74376
G1 X82.102 Y132.965 E836.26098
G1 X81.985 Y132.848 E836.68233
G1 X81.455 Y132.262 E838.69437
G1 X80.988 Y131.626 E840.70364
G1 X80.587 Y130.946 E842.71391
G1 X80.257 Y130.228 E844.72615
G1 X80.002 Y129.481 E846.73615
G1 X79.823 Y128.712 E848.74674
G1 X79.723 Y127.928 E850.75936
G1 X79.7 Y127.333 E852.27565
G1 X79.7 Y114.3 E885.46391
G1 X56.417 Y114.3 E944.75358
G1 X55.628 Y114.26 E946.76533
G1 X54.848 Y114.141 E948.77457
G1 X54.083 Y113.943 E950.78682
G1 X53.343 Y113.669 E952.79624
G1 X52.634 Y113.321 E954.80745
G1 X51.963 Y112.903 E956.82056
G1 X51.339 Y112.42 E958.82997
G1 X50.902 Y112.015 E960.34719
G1 X50.785 Y111.898 E960.76854
G1 X50.255 Y111.312 E962.78058
G1 X49.788 Y110.676 E964.78985
G1 X49.387 Y109.996 E966.80012
G1 X49.057 Y109.278 E968.81236
G1 X48.802 Y108.531 E970.82236
G1 X48.623 Y107.762 E972.83295
G1 X48.523 Y106.978 E974.84557
G1 X48.5 Y106.383 E976.36186
G1 X48.5 Y99.617 E993.59133
G1 X48.54 Y98.828 E995.60308
G1 X48.659 Y98.048 E997.61232
G1 X48.857 Y97.283 E999.62457
G1 X49.131 Y96.543 E1001.63399
G1 X49.479 Y95.834 E1003.6452
G1 X49.897 Y95.163 E1005.65832
G1 X50.38 Y94.539 E1007.66772
G1 X50.785 Y94.102 E1009.18495
G1 X50.902 Y93.985 E1009.60629
G1 X51.488 Y93.455 E1011.61833
G1 X52.124 Y92.988 E1013.6276
G1 X52.804 Y92.587 E1015.63787
G0 F6000 X53.043 Y92.914
G1 F1200 X53.745 Y92.599 E1017.59722
G1 X54.476 Y92.359 E1019.55646
G1 X55.227 Y92.196 E1021.51339
G1 X55.992 Y92.112 E1023.47315
G1 X56.417 Y92.1 E1024.55584
G1 X172.47 Y92.1 E1320.08238
G1 X172.878 Y92.121 E1321.12272
G1 X172.962 Y92.112 E1321.33784
G1 X173.387 Y92.1 E1322.42053
G1 X175.016 Y92.1 E1326.56874
G1 X175.498 Y92.125 E1327.7978
G1 X175.933 Y92.1 E1328.90734
G1 X177.245 Y92.1 E1332.24832
G1 X178.013 Y92.14 E1334.20667
G1 X178.773 Y92.259 E1336.16557
G1 X179.516 Y92.457 E1338.12364
G1 X180.235 Y92.731 E1340.083
G1 X180.921 Y93.078 E1342.04065
G1 X181.568 Y93.494 E1343.9994
G1 X182.168 Y93.975 E1345.95764
G1 X182.478 Y94.267 E1347.04211
G1 X182.595 Y94.384 E1347.46345
G1 X183.109 Y94.956 E1349.42173
G1 X183.562 Y95.578 E1351.38118
G1 X183.948 Y96.243 E1353.33919
G1 X184.263 Y96.945 E1355.29854
G1 X184.503 Y97.676 E1357.25778
G1 X184.666 Y98.427 E1359.21471
G1 X184.75 Y99.192 E1361.17447
G1 X184.762 Y99.617 E1362.25716
G1 X184.762 Y106.383 E1379.48664
G1 X184.722 Y107.151 E1381.44498
G1 X184.603 Y107.911 E1383.40389
G1 X184.405 Y108.654 E1385.36195
G1 X184.131 Y109.373 E1387.32131
G1 X183.784 Y110.059 E1389.27897
G1 X183.368 Y110.706 E1391.23771
G1 X182.887 Y111.306 E1393.19595
G1 X182.595 Y111.616 E1394.28042
G1 X182.478 Y111.733 E1394.70177
G1 X181.906 Y112.247 E1396.66004
G1 X181.284 Y112.7 E1398.61949
G1 X180.619 Y113.086 E1400.57751
G1 X179.917 Y113.401 E1402.53685
G1 X179.186 Y113.641 E1404.49609
G1 X178.435 Y113.804 E1406.45302
G1 X177.67 Y113.888 E1408.41279
G1 X177.245 Y113.9 E1409.49547
G1 X175.933 Y113.9 E1412.83645
G1 X175.525 Y113.879 E1413.87679
G1 X175.441 Y113.888 E1414.09192
G1 X175.016 Y113.9 E1415.1746
G1 X173.388 Y113.9 E1419.32027
G1 X172.906 Y113.875 E1420.54932
G1 X172.471 Y113.9 E1421.65887
G1 X154.9 Y113.9 E1466.40306
G1 X154.9 Y127.333 E1500.60991
G1 X154.86 Y128.101 E1502.56826
G1 X154.741 Y128.861 E1504.52716
G1 X154.543 Y129.604 E1506.48522
G1 X154.269 Y130.323 E1508.44459
G1 X153.922 Y131.009 E1510.40224
G1 X153.506 Y131.656 E1512.36098
G1 X153.025 Y132.256 E1514.31923
G1 X152.733 Y132.566 E1515.40369
G1 X152.616 Y132.683 E1515.82504
G1 X152.044 Y133.197 E1517.78331
G1 X151.422 Y133.65 E1519.74277
G1 X150.757 Y134.036 E1521.70078
G1 X150.055 Y134.351 E1523.66013
G1 X149.324 Y134.591 E1525.61936
G1 X148.573 Y134.754 E1527.57629
G1 X147.808 Y134.838 E1529.53606
G1 X147.383 Y134.85 E1530.61874
G1 X139.997 Y134.85 E1549.42704
G1 X140.151 Y135.077 E1550.12556
G1 X140.567 Y135.868 E1552.4014
G1 X140.768 Y136.314 E1553.64714
G1 X140.865 Y136.539 E1554.27107
G1 X141.076 Y137.052 E1555.6836
G1 X141.317 Y137.676 E1557.387
G1 X141.555 Y138.407 E1559.34465
G1 X141.716 Y139.159 E1561.303
G1 X141.798 Y139.924 E1563.26221
G1 X141.8 Y140.693 E1565.22046
G1 X141.69 Y141.652 E1567.67855
G1 X141.74 Y141.78 E1568.02848
G1 X142.116 Y142.451 E1569.98715
G1 X142.421 Y143.157 E1571.94556
G1 X142.65 Y143.891 E1573.90353
G1 X142.803 Y144.645 E1575.8627
G1 X142.879 Y145.503 E1578.05614
G1 X142.894 Y145.988 E1579.29177
G1 X142.898 Y146.217 E1579.875
G1 X142.898 Y146.775 E1581.29594
G1 X142.895 Y147 E1581.86895
G1 X142.88 Y147.493 E1583.12494
G1 X142.816 Y148.26 E1585.08488
G1 X142.674 Y149.015 E1587.04118
G1 X142.453 Y149.752 E1589.0005
G1 X142.158 Y150.462 E1590.95835
G1 X141.751 Y151.202 E1593.10895
G1 X141.687 Y151.336 E1593.4871
G1 X141.787 Y152.099 E1595.44668
G1 X141.806 Y152.868 E1597.40552
G1 X141.746 Y153.635 E1599.36464
G1 X141.607 Y154.391 E1601.32205
G1 X141.322 Y155.313 E1603.77951
G1 X141.147 Y155.771 E1605.02804
G1 X141.073 Y155.957 E1605.53779
G1 X140.858 Y156.477 E1606.97068
G1 X140.764 Y156.694 E1607.57288
G1 X140.565 Y157.135 E1608.80492
G1 X140.213 Y157.818 E1610.76156
G1 X139.791 Y158.462 E1612.72222
G1 X139.305 Y159.058 E1614.68054
G1 X138.76 Y159.601 E1616.63964
G1 X138.108 Y160.122 E1618.76491
G1 X137.996 Y160.217 E1619.13889
G1 X137.971 Y160.326 E1619.42367
G1 X137.76 Y161.066 E1621.38317
G1 X137.474 Y161.78 E1623.34179
G1 X137.115 Y162.46 E1625.2999
G1 X136.687 Y163.1 E1627.2605
G1 X136.16 Y163.73 E1629.35207
G1 X135.822 Y164.091 E1630.61139
G1 X135.646 Y164.272 E1631.25428
G1 X135.257 Y164.66 E1632.65338
G1 X135.096 Y164.816 E1633.22425
G1 X134.737 Y165.153 E1634.47811
G1 X134.149 Y165.65 E1636.43866
G1 X133.514 Y166.083 E1638.39583
G1 X132.836 Y166.447 E1640.35543
G1 X132.125 Y166.74 E1642.31369
G1 X131.326 Y166.971 E1644.43165
G1 X131.186 Y167.018 E1644.80771
G1 X131.122 Y167.108 E1645.08893
G1 X130.644 Y167.711 E1647.04839
G1 X130.106 Y168.261 E1649.00759
G1 X129.514 Y168.752 E1650.96614
G1 X128.875 Y169.18 E1652.92462
G1 X128.137 Y169.564 E1655.0431
G1 X127.692 Y169.765 E1656.28652
G1 X127.461 Y169.865 E1656.92751
G1 X126.948 Y170.076 E1658.34004
G1 X126.324 Y170.317 E1660.04343
G1 X125.593 Y170.555 E1662.00109
G1 X124.841 Y170.716 E1663.95943
G1 X124.076 Y170.798 E1665.91865
G1 X123.307 Y170.8 E1667.8769
G1 X122.348 Y170.69 E1670.33498
G1 X122.22 Y170.74 E1670.68492
G1 X121.549 Y171.116 E1672.64359
G1 X120.843 Y171.421 E1674.60199
G1 X120.109 Y171.65 E1676.55996
G1 X119.355 Y171.803 E1678.51914
G1 X118.494 Y171.88 E1680.72041
G1 X118.002 Y171.895 E1681.97386
G1 X117.776 Y171.898 E1682.54941
G1 X117.225 Y171.898 E1683.95252
G1 X117 Y171.895 E1684.52553
G1 X116.507 Y171.88 E1685.78153
G1 X115.74 Y171.816 E1687.74147
G1 X114.985 Y171.674 E1689.69777
G1 X114.248 Y171.453 E1691.65708
G1 X113.538 Y171.158 E1693.61493
G1 X112.798 Y170.751 E1695.76554
G1 X112.664 Y170.687 E1696.14369
G1 X111.901 Y170.787 E1698.10327
G1 X111.132 Y170.806 E1700.06211
G1 X110.365 Y170.746 E1702.02123
G1 X109.609 Y170.607 E1703.97863
G1 X108.686 Y170.321 E1706.43928
G1 X108.223 Y170.144 E1707.70152
G1 X108.037 Y170.07 E1708.21127
G1 X107.522 Y169.857 E1709.63045
G1 X107.306 Y169.764 E1710.22931
G1 X106.865 Y169.565 E1711.46134
G1 X106.182 Y169.213 E1713.41798
G1 X105.538 Y168.791 E1715.37864
G1 X104.942 Y168.305 E1717.33697
G1 X104.399 Y167.76 E1719.29606
G1 X103.878 Y167.108 E1721.42133
G1 X103.767 Y166.992 E1721.83017
G1 X103.659 Y166.967 E1722.11247
G1 X102.92 Y166.755 E1724.07022
G1 X102.207 Y166.467 E1726.02838
G1 X101.527 Y166.107 E1727.98768
G1 X100.888 Y165.678 E1729.94758
G1 X100.27 Y165.16 E1732.00101
G1 X99.909 Y164.822 E1733.26033
G1 X99.728 Y164.646 E1733.90322
