;FLAVOR:Marlin
;TIME:19565
;Filament used: 514.017m
;Layer height: 0.2
;MINX:48.5
;MINY:73.803
;MINZ:0.2
;MAXX:185.162
;MAXY:176.72
;MAXZ:41
;ZOFFSETPROCESSED
;Generated with Cura_SteamEngine 4.8.0
M140 S60
M105
M190 S60
M104 S210
M105
M109 S210
M82 ;absolute extrusion mode
; Ender 3 Custom Start G-code
G92 E0 ; Reset Extruder
G28 ; Home all axes
G1 Z2.0 F3000 ; Move Z Axis up little to prevent scratching of Heat Bed
G1 X0.1 Y20 Z0.3 F5000.0 ; Move to start position
G1 X0.1 Y200.0 Z0.3 F1500.0 E15 ; Draw the first line
G1 X0.4 Y200.0 Z0.3 F5000.0 ; Move to side a little
G1 X0.4 Y20 Z0.3 F1500.0 E30 ; Draw the second line
G92 E0 ; Reset Extruder
G1 Z2.0 F3000 ; Move Z Axis up little to prevent scratching of Heat Bed
G1 X5 Y20 Z0.3 F5000.0 ; Move over to prevent blob squish
G92 E0
G92 E0
G1 F1500 E-6.5
;LAYER_COUNT:205
;LAYER:0
M107
G0 F6000 X81.899 Y76.301 Z0.4 ;adjusted by z offset
;TYPE:SKIRT
G1 F1500 E0
G1 F1200 X82.466 Y75.751 E2.01154
G1 X83.085 Y75.261 E4.02191
G1 X83.751 Y74.836 E6.03375
G1 X84.456 Y74.481 E8.04378
G1 X85.194 Y74.199 E10.05561
G1 X85.956 Y73.993 E12.06568
G1 X87.033 Y73.837 E14.83686
G1 X87.209 Y73.824 E15.28626
G1 X87.784 Y73.803 E16.75146
G1 X147.383 Y73.803 E168.51907
G1 X148.172 Y73.843 E170.53082
G1 X148.952 Y73.962 E172.54006
G1 X149.717 Y74.16 E174.55231
G1 X150.457 Y74.434 E176.56173
G1 X151.166 Y74.782 E178.57294
G1 X151.837 Y75.2 E180.58605
G1 X152.461 Y75.683 E182.59546
G1 X152.898 Y76.088 E184.11268
G1 X153.015 Y76.205 E184.53403
G1 X153.545 Y76.791 E186.54607
G1 X154.012 Y77.427 E188.55534
G1 X154.413 Y78.107 E190.56561
G1 X154.743 Y78.825 E192.57785
G1 X154.998 Y79.572 E194.58785
G1 X155.177 Y80.341 E196.59845
G1 X155.277 Y81.125 E198.61106
G1 X155.3 Y81.72 E200.12735
G1 X155.3 Y101.386 E250.2064
G1 X155.26 Y102.175 E252.21816
G1 X155.141 Y102.955 E254.22739
G1 X154.943 Y103.72 E256.23964
G1 X154.669 Y104.46 E258.24906
G1 X154.321 Y105.169 E260.26027
G1 X153.903 Y105.84 E262.27339
G1 X153.624 Y106.2 E263.4332
G1 X172.47 Y106.2 E311.42414
G1 X172.867 Y106.22 E312.43638
G1 X173.387 Y106.2 E313.76153
G1 X175.016 Y106.2 E317.90974
G1 X175.426 Y106.221 E318.95516
G1 X175.531 Y106.21 E319.22401
G1 X175.933 Y106.2 E320.24801
G1 X177.245 Y106.2 E323.58899
G1 X178.034 Y106.24 E325.60074
G1 X178.814 Y106.359 E327.60998
G1 X179.579 Y106.557 E329.62223
G1 X180.319 Y106.831 E331.63165
G1 X181.028 Y107.179 E333.64286
G1 X181.699 Y107.597 E335.65597
G1 X182.323 Y108.08 E337.66538
G1 X182.76 Y108.485 E339.1826
G1 X182.877 Y108.602 E339.60395
G1 X183.407 Y109.188 E341.61599
G1 X183.874 Y109.824 E343.62526
G1 X184.275 Y110.504 E345.63553
G1 X184.605 Y111.222 E347.64777
G1 X184.86 Y111.969 E349.65777
G1 X185.039 Y112.738 E351.66836
G1 X185.139 Y113.522 E353.68098
G1 X185.162 Y114.117 E355.19727
G1 X185.162 Y120.883 E372.42674
G1 X185.122 Y121.672 E374.4385
G1 X185.003 Y122.452 E376.44773
G1 X184.805 Y123.217 E378.45998
G1 X184.531 Y123.957 E380.4694
G1 X184.183 Y124.666 E382.48061
G1 X183.765 Y125.337 E384.49373
G1 X183.282 Y125.961 E386.50313
G1 X182.877 Y126.398 E388.02036
G1 X182.76 Y126.515 E388.44171
G1 X182.174 Y127.045 E390.45374
G1 X181.538 Y127.512 E392.46301
G1 X180.858 Y127.913 E394.47328
G1 X180.14 Y128.243 E396.48552
G1 X179.393 Y128.498 E398.49552
G1 X178.624 Y128.677 E400.50612
G1 X177.84 Y128.777 E402.51873
G1 X177.245 Y128.8 E404.03502
G1 X175.933 Y128.8 E407.376
G1 X175.536 Y128.78 E408.38823
G1 X175.016 Y128.8 E409.71338
G1 X173.388 Y128.8 E413.85905
G1 X172.978 Y128.779 E414.90447
G1 X172.874 Y128.79 E415.17079
G1 X172.471 Y128.8 E416.19733
G1 X130.301 Y128.8 E523.58236
G1 X130.837 Y129.328 E525.49828
G1 X131.435 Y130.066 E527.9171
G1 X132.19 Y130.282 E529.91683
G1 X132.924 Y130.574 E531.92842
G1 X133.624 Y130.939 E533.93872
G1 X134.284 Y131.373 E535.95021
G1 X135.003 Y131.97 E538.33
G1 X135.364 Y132.308 E539.58933
G1 X135.556 Y132.494 E540.27005
G1 X135.944 Y132.883 E541.66914
G1 X136.108 Y133.053 E542.27065
G1 X136.445 Y133.412 E543.52452
G1 X136.956 Y134.014 E545.53531
G1 X137.403 Y134.665 E547.54624
G1 X137.782 Y135.358 E549.55762
G1 X138.089 Y136.085 E551.56721
G1 X138.356 Y136.989 E553.96753
G1 X138.916 Y137.425 E555.77481
G1 X139.487 Y137.971 E557.78662
G1 X140 Y138.571 E559.79683
G1 X140.45 Y139.22 E561.80791
G1 X140.931 Y140.125 E564.41775
G1 X141.132 Y140.571 E565.66349
G1 X141.235 Y140.809 E566.32387
G1 X141.446 Y141.322 E567.7364
G1 X141.518 Y141.504 E568.23481
G1 X141.695 Y141.967 E569.49705
G1 X141.939 Y142.718 E571.50786
G1 X142.106 Y143.489 E573.51672
G1 X142.194 Y144.274 E575.52823
G1 X142.203 Y145.064 E577.54008
G1 X142.096 Y146.022 E579.99477
G1 X142.465 Y146.677 E581.90919
G1 X142.781 Y147.401 E583.9208
G1 X143.022 Y148.153 E585.93168
G1 X143.186 Y148.925 E587.94144
G1 X143.279 Y149.913 E590.46848
G1 X143.294 Y150.399 E591.70666
G1 X143.298 Y150.64 E592.32044
G1 X143.298 Y151.197 E593.73883
G1 X143.294 Y151.434 E594.34243
G1 X143.279 Y151.927 E595.59843
G1 X143.215 Y152.714 E597.60912
G1 X143.072 Y153.491 E599.62097
G1 X142.851 Y154.249 E601.63157
G1 X142.555 Y154.981 E603.64222
G1 X142.098 Y155.82 E606.0751
G1 X142.183 Y156.455 E607.70654
G1 X142.208 Y157.245 E609.71926
G1 X142.152 Y158.033 E611.73095
G1 X142.018 Y158.811 E613.74128
G1 X141.697 Y159.872 E616.56404
G1 X141.522 Y160.331 E617.81495
G1 X141.442 Y160.532 E618.36584
G1 X141.227 Y161.052 E619.79873
G1 X141.129 Y161.28 E620.43069
G1 X140.93 Y161.721 E621.66272
G1 X140.569 Y162.424 E623.67514
G1 X140.139 Y163.086 E625.68531
G1 X139.644 Y163.701 E627.69566
G1 X139.09 Y164.264 E629.70703
G1 X138.357 Y164.856 E632.10634
G1 X138.144 Y165.605 E634.08928
G1 X137.852 Y166.339 E636.10087
G1 X137.487 Y167.04 E638.11344
G1 X137.054 Y167.7 E640.12352
G1 X136.453 Y168.424 E642.51962
G1 X136.113 Y168.787 E643.78614
G1 X135.928 Y168.978 E644.46327
G1 X135.539 Y169.366 E645.86236
G1 X135.363 Y169.536 E646.48547
G1 X135.001 Y169.875 E647.74839
G1 X134.398 Y170.385 E649.75948
G1 X133.746 Y170.832 E651.77251
G1 X133.053 Y171.21 E653.78267
G1 X132.325 Y171.516 E655.79361
G1 X131.433 Y171.779 E658.16175
G1 X130.997 Y172.339 E659.96902
G1 X130.451 Y172.91 E661.98083
G1 X129.851 Y173.423 E663.99105
G1 X129.202 Y173.873 E666.00213
G1 X128.284 Y174.36 E668.64837
G1 X127.838 Y174.56 E669.89307
G1 X127.613 Y174.657 E670.517
G1 X127.1 Y174.868 E671.92953
G1 X126.915 Y174.941 E672.43598
G1 X126.454 Y175.117 E673.69255
G1 X125.703 Y175.361 E675.70336
G1 X124.931 Y175.528 E677.71471
G1 X124.146 Y175.616 E679.72622
G1 X123.357 Y175.624 E681.7355
G1 X122.39 Y175.524 E684.21107
G1 X121.745 Y175.887 E686.0958
G1 X121.021 Y176.203 E688.10741
G1 X120.269 Y176.444 E690.1183
G1 X119.497 Y176.608 E692.12805
G1 X118.506 Y176.701 E694.6627
G1 X118.014 Y176.716 E695.91615
G1 X117.776 Y176.72 E696.5223
G1 X117.225 Y176.72 E697.92541
G1 X116.988 Y176.716 E698.52901
G1 X116.495 Y176.701 E699.785
G1 X115.708 Y176.637 E701.7957
G1 X114.931 Y176.494 E703.80754
G1 X114.173 Y176.273 E705.81814
G1 X113.441 Y175.977 E707.82879
G1 X112.609 Y175.524 E710.24115
G1 X111.814 Y175.615 E712.27882
G1 X111.025 Y175.624 E714.28812
G1 X110.238 Y175.553 E716.30034
G1 X109.463 Y175.404 E718.31
G1 X108.556 Y175.121 E720.72948
G1 X108.093 Y174.945 E721.99081
G1 X107.884 Y174.862 E722.56345
G1 X107.369 Y174.649 E723.98263
G1 X107.155 Y174.557 E724.5758
G1 X106.714 Y174.359 E725.8068
G1 X106.011 Y173.999 E727.81804
G1 X105.348 Y173.57 E729.82897
G1 X104.732 Y173.077 E731.83812
G1 X104.168 Y172.523 E733.85131
G1 X103.565 Y171.778 E736.29199
G1 X102.818 Y171.566 E738.26933
G1 X102.084 Y171.274 E740.28092
G1 X101.383 Y170.909 E742.29349
G1 X100.723 Y170.476 E744.30358
G1 X100.007 Y169.882 E746.67261
G1 X99.643 Y169.542 E747.94099
G1 X99.444 Y169.35 E748.64515
G1 X99.055 Y168.96 E750.04785
G1 X98.892 Y168.791 E750.64576
G1 X98.554 Y168.431 E751.90322
G1 X98.043 Y167.829 E753.91401
G1 X97.596 Y167.178 E755.92494
G1 X97.217 Y166.485 E757.93632
G1 X96.91 Y165.757 E759.94825
G1 X96.643 Y164.857 E762.33881
G1 X96.04 Y164.38 E764.29669
G1 X95.473 Y163.83 E766.30823
G1 X94.965 Y163.226 E768.31798
G1 X94.52 Y162.573 E770.33023
G1 X94.072 Y161.724 E772.77473
G1 X93.871 Y161.279 E774.01814
G1 X93.765 Y161.034 E774.69792
G1 X93.552 Y160.516 E776.12416
G1 X93.482 Y160.339 E776.60886
G1 X93.307 Y159.882 E777.855
G1 X93.062 Y159.132 E779.86418
G1 X92.895 Y158.36 E781.87553
G1 X92.806 Y157.575 E783.88733
G1 X92.797 Y156.786 E785.89663
G1 X92.903 Y155.825 E788.35864
G1 X92.509 Y155.114 E790.42859
G1 X92.198 Y154.388 E792.43982
G1 X91.963 Y153.634 E794.45096
G1 X91.805 Y152.86 E796.46258
G1 X91.721 Y151.931 E798.83791
G1 X91.706 Y151.446 E800.07355
G1 X91.702 Y151.205 E800.68733
G1 X91.702 Y150.648 E802.10572
G1 X91.706 Y150.411 E802.70932
G1 X91.721 Y149.917 E803.96786
G1 X91.784 Y149.13 E805.97835
G1 X91.928 Y148.354 E807.98816
G1 X92.149 Y147.595 E810.0012
G1 X92.445 Y146.864 E812.00949
G1 X92.901 Y146.025 E814.44116
G1 X92.817 Y145.39 E816.07226
G1 X92.792 Y144.6 E818.08498
G1 X92.848 Y143.812 E820.09667
G1 X92.982 Y143.034 E822.107
G1 X93.301 Y141.979 E824.91366
G1 X93.476 Y141.519 E826.16695
G1 X93.558 Y141.312 E826.73392
G1 X93.773 Y140.792 E828.16681
G1 X93.869 Y140.57 E828.78272
G1 X94.068 Y140.128 E830.01708
G1 X94.428 Y139.425 E832.02833
G1 X94.857 Y138.762 E834.03926
G1 X95.352 Y138.146 E836.05159
G1 X95.906 Y137.584 E838.06115
G1 X96.643 Y136.991 E840.46999
G1 X96.86 Y136.232 E842.48021
G1 X97.152 Y135.498 E844.49179
G1 X97.517 Y134.798 E846.5021
G1 X97.951 Y134.138 E848.51359
G1 X98.548 Y133.419 E850.89338
G1 X98.886 Y133.058 E852.15271
G1 X99.072 Y132.866 E852.83343
G1 X99.461 Y132.478 E854.23252
G1 X99.631 Y132.314 E854.83403
G1 X99.99 Y131.977 E856.0879
G1 X100.592 Y131.466 E858.09869
G1 X101.243 Y131.019 E860.10962
G1 X101.936 Y130.64 E862.121
G1 X102.663 Y130.333 E864.13058
G1 X103.567 Y130.066 E866.53091
G1 X104.003 Y129.506 E868.33819
G1 X104.549 Y128.935 E870.35
G1 X104.707 Y128.8 E870.8792
G1 X56.417 Y128.8 E993.84868
G1 X55.628 Y128.76 E995.86043
G1 X54.848 Y128.641 E997.86967
G1 X54.083 Y128.443 E999.88192
G1 X53.343 Y128.169 E1001.89134
G1 X52.634 Y127.821 E1003.90255
G1 X51.963 Y127.403 E1005.91566
G1 X51.339 Y126.92 E1007.92507
G1 X50.902 Y126.515 E1009.44229
G1 X50.785 Y126.398 E1009.86364
G1 X50.255 Y125.812 E1011.87568
G1 X49.788 Y125.176 E1013.88495
G1 X49.387 Y124.496 E1015.89522
G1 X49.057 Y123.778 E1017.90746
G1 X48.802 Y123.031 E1019.91746
G1 X48.623 Y122.262 E1021.92805
G1 X48.523 Y121.478 E1023.94067
G1 X48.5 Y120.883 E1025.45695
G1 X48.5 Y114.117 E1042.68643
G1 X48.54 Y113.328 E1044.69818
G1 X48.659 Y112.548 E1046.70742
G1 X48.857 Y111.783 E1048.71967
G1 X49.131 Y111.043 E1050.72909
G1 X49.479 Y110.334 E1052.7403
G1 X49.897 Y109.663 E1054.75341
G1 X50.38 Y109.039 E1056.76282
G1 X50.785 Y108.602 E1058.28005
G1 X50.902 Y108.485 E1058.70139
G1 X51.488 Y107.955 E1060.71343
G1 X52.124 Y107.488 E1062.7227
G1 X52.804 Y107.087 E1064.73297
G1 X53.522 Y106.757 E1066.74521
G1 X54.269 Y106.502 E1068.75521
G1 X55.038 Y106.323 E1070.76581
G1 X55.822 Y106.223 E1072.77842
G1 X56.417 Y106.2 E1074.29471
G1 X81.371 Y106.2 E1137.83955
G1 X80.988 Y105.679 E1139.48618
G1 X80.587 Y104.999 E1141.49644
G1 X80.257 Y104.281 E1143.50869
G1 X80.002 Y103.534 E1145.51868
G1 X79.823 Y102.765 E1147.52928
G1 X79.723 Y101.981 E1149.54189
G1 X79.7 Y101.386 E1151.05818
G1 X79.7 Y81.732 E1201.10668
G1 X79.74 Y80.943 E1203.11843
G1 X79.859 Y80.163 E1205.12767
G1 X80.057 Y79.398 E1207.13992
G1 X80.331 Y78.658 E1209.14934
G1 X80.679 Y77.949 E1211.16055
G1 X81.097 Y77.278 E1213.17366
G1 X81.791 Y76.417 E1215.98975
G1 X81.899 Y76.301 E1216.39334
G0 F6000 X82.192 Y76.574
G1 F1200 X82.745 Y76.039 E1218.3527
G1 X83.35 Y75.564 E1220.31142
G1 X84.001 Y75.155 E1222.2692
G1 X84.691 Y74.815 E1224.22801
G1 X85.413 Y74.549 E1226.18737
G1 X86.158 Y74.359 E1228.14522
G1 X87.063 Y74.236 E1230.47098
G1 X87.239 Y74.223 E1230.92038
G1 X87.784 Y74.203 E1232.30914
G1 X147.383 Y74.203 E1384.07675
G1 X148.151 Y74.243 E1386.0351
G1 X148.911 Y74.362 E1387.994
G1 X149.654 Y74.56 E1389.95206
G1 X150.373 Y74.834 E1391.91143
G1 X151.059 Y75.181 E1393.86908
G1 X151.706 Y75.597 E1395.82782
G1 X152.306 Y76.078 E1397.78607
G1 X152.616 Y76.37 E1398.87053
G1 X152.733 Y76.487 E1399.29188
G1 X153.247 Y77.059 E1401.25015
G1 X153.7 Y77.681 E1403.20961
G1 X154.086 Y78.346 E1405.16762
G1 X154.401 Y79.048 E1407.12697
G1 X154.641 Y79.779 E1409.0862
G1 X154.804 Y80.53 E1411.04313
G1 X154.888 Y81.295 E1413.0029
G1 X154.9 Y81.72 E1414.08558
G1 X154.9 Y101.386 E1464.16464
G1 X154.86 Y102.154 E1466.12299
G1 X154.741 Y102.914 E1468.08189
G1 X154.543 Y103.657 E1470.03996
G1 X154.269 Y104.376 E1471.99932
G1 X153.922 Y105.062 E1473.95697
G1 X153.506 Y105.709 E1475.91572
G1 X153.025 Y106.309 E1477.87396
G1 X152.751 Y106.6 E1478.89178
G1 X172.47 Y106.6 E1529.1058
G1 X172.878 Y106.621 E1530.14614
G1 X172.962 Y106.612 E1530.36127
G1 X173.387 Y106.6 E1531.44395
G1 X175.016 Y106.6 E1535.59216
G1 X175.498 Y106.625 E1536.82122
G1 X175.933 Y106.6 E1537.93076
G1 X177.245 Y106.6 E1541.27174
G1 X178.013 Y106.64 E1543.23009
G1 X178.773 Y106.759 E1545.189
G1 X179.516 Y106.957 E1547.14706
G1 X180.235 Y107.231 E1549.10642
G1 X180.921 Y107.578 E1551.06407
G1 X181.568 Y107.994 E1553.02282
G1 X182.168 Y108.475 E1554.98106
G1 X182.478 Y108.767 E1556.06553
G1 X182.595 Y108.884 E1556.48688
G1 X183.109 Y109.456 E1558.44515
G1 X183.562 Y110.078 E1560.4046
G1 X183.948 Y110.743 E1562.36261
G1 X184.263 Y111.445 E1564.32196
G1 X184.503 Y112.176 E1566.2812
G1 X184.666 Y112.927 E1568.23813
G1 X184.75 Y113.692 E1570.19789
G1 X184.762 Y114.117 E1571.28058
G1 X184.762 Y120.883 E1588.51006
G1 X184.722 Y121.651 E1590.4684
G1 X184.603 Y122.411 E1592.42731
G1 X184.405 Y123.154 E1594.38537
G1 X184.131 Y123.873 E1596.34473
G1 X183.784 Y124.559 E1598.30239
G1 X183.368 Y125.206 E1600.26113
G1 X182.887 Y125.806 E1602.21937
G1 X182.595 Y126.116 E1603.30384
G1 X182.478 Y126.233 E1603.72519
G1 X181.906 Y126.747 E1605.68346
G1 X181.284 Y127.2 E1607.64292
G1 X180.619 Y127.586 E1609.60093
G1 X179.917 Y127.901 E1611.56027
G1 X179.186 Y128.141 E1613.51951
G1 X178.435 Y128.304 E1615.47644
G1 X177.67 Y128.388 E1617.43621
G1 X177.245 Y128.4 E1618.51889
G1 X175.933 Y128.4 E1621.85987
G1 X175.525 Y128.379 E1622.90021
G1 X175.441 Y128.388 E1623.11534
G1 X175.016 Y128.4 E1624.19803
G1 X173.388 Y128.4 E1628.34369
G1 X172.906 Y128.375 E1629.57275
G1 X172.471 Y128.4 E1630.68229
G1 X129.11 Y128.4 E1741.10017
G1 X129.457 Y128.627 E1742.15608
G1 X130.053 Y129.112 E1744.1128
G1 X130.596 Y129.657 E1746.07189
G1 X131.122 Y130.314 E1748.21506
G1 X131.233 Y130.43 E1748.6239
G1 X131.341 Y130.455 E1748.90619
G1 X132.08 Y130.667 E1750.86395
G1 X132.793 Y130.955 E1752.82211
G1 X133.473 Y131.315 E1754.78141
G1 X134.112 Y131.744 E1756.74131
G1 X134.73 Y132.262 E1758.79474
G1 X135.091 Y132.6 E1760.05406
G1 X135.272 Y132.776 E1760.69695
G1 X135.66 Y133.165 E1762.09604
G1 X135.816 Y133.326 E1762.66691
G1 X136.153 Y133.685 E1763.92078
G1 X136.65 Y134.273 E1765.88133
G1 X137.083 Y134.908 E1767.8385
G1 X137.447 Y135.586 E1769.79809
G1 X137.74 Y136.297 E1771.75635
G1 X137.971 Y137.096 E1773.87432
G1 X137.999 Y137.223 E1774.20548
G1 X138.064 Y137.268 E1774.4068
G1 X138.67 Y137.741 E1776.36439
G1 X139.224 Y138.275 E1778.32381
G1 X139.719 Y138.863 E1780.28107
G1 X140.151 Y139.499 E1782.23891
G1 X140.567 Y140.29 E1784.51475
G1 X140.768 Y140.736 E1785.76049
G1 X140.865 Y140.961 E1786.38443
G1 X141.076 Y141.474 E1787.79695
G1 X141.321 Y142.11 E1789.53253
G1 X141.558 Y142.841 E1791.48939
G1 X141.718 Y143.594 E1793.4497
G1 X141.799 Y144.359 E1795.40865
G1 X141.799 Y145.128 E1797.36689
G1 X141.683 Y146.111 E1799.88745
G1 X141.74 Y146.202 E1800.16088
G1 X142.116 Y146.873 E1802.11955
G1 X142.421 Y147.579 E1804.07796
G1 X142.65 Y148.313 E1806.03593
G1 X142.803 Y149.067 E1807.9951
G1 X142.879 Y149.926 E1810.19107
G1 X142.894 Y150.412 E1811.42925
G1 X142.898 Y150.64 E1812.00994
G1 X142.898 Y151.197 E1813.42833
G1 X142.895 Y151.422 E1814.00134
G1 X142.88 Y151.915 E1815.25733
G1 X142.816 Y152.682 E1817.21727
G1 X142.674 Y153.437 E1819.17357
G1 X142.453 Y154.174 E1821.13289
G1 X142.158 Y154.884 E1823.09074
